(.../Documents/EAGLE/ulps/pcb-gcode.ulp)
(Copyright 2005 - 2012 by John Johnson)
(See readme.txt for licensing terms.)
(This file generated from the board:)
(.../projects/Auticko/Control Board.brd)
(Current profile is .../EAGLE/ulps/profiles/generic.pp  )
(This file generated 06.07.2023 13:34)
(Settings from pcb-machine.h)
(  Tool Size)
(0.2000 )
(Z Axis Settings)
(  High     Up        Down     Drill)
(12.7000 	2.5400 	-0.2000 	-0.4000 )
(spindle on time = 3.0000)
(milling depth = -0.2000)
(text depth = -0.1270)
(tool change at 12.7000 15.2400 25.4000 )
(feed rate xy = F508.00 )
(feed rate z  = F254.00 )
(Settings from pcb-defaults.h)
(isolate min = 0.0100)
(isolate max = 0.7000)
(isolate step = 0.2500)
(Generated top outlines, top drill, )
(Unit of measure: mm)
( Tool|       Size       |  Min Sub |  Max Sub |   Count )
( T01  0.500mm 0.0197in 0.0000in 0.0000in )
( T02  0.800mm 0.0315in 0.0000in 0.0000in )
( T03  1.000mm 0.0394in 0.0000in 0.0000in )
( T04  1.016mm 0.0400in 0.0000in 0.0000in )
( T05  1.080mm 0.0425in 0.0000in 0.0000in )
( T06  1.200mm 0.0472in 0.0000in 0.0000in )
(Metric Mode)
G21
(Absolute Coordinates)
G90
M05
G00 Z25.4000 
G00 X12.7000 Y15.2400 
M06 T01  ; 0.5000 
G01 Z0.0000 F254.00 
M06 T01  ; 0.5000 
G00 Z2.5400 
M03
G04 P3.000000
G00 Z2.540000
G00 X40.0050 Y33.0200 
G01 Z-0.4000 F254.00 
G01 Z2.540000
(R2.5400  P1.000000)
(G00 Z2.540000)
G00 X40.0050 Y35.5600 
G01 Z-0.400000
G01 Z2.540000
(G00 Z2.540000)
G00 X40.0050 Y17.7800 
G01 Z-0.400000
G01 Z2.540000
(G00 Z2.540000)
G00 X40.0050 Y20.3200 
G01 Z-0.400000
G01 Z2.540000
(G00 Z2.540000)
G00 X40.0050 Y22.8600 
G01 Z-0.400000
G01 Z2.540000
(G00 Z2.540000)
G00 X40.0050 Y25.4000 
G01 Z-0.400000
G01 Z2.540000
(G00 Z2.540000)
G00 X40.0050 Y27.9400 
G01 Z-0.400000
G01 Z2.540000
(G00 Z2.540000)
G00 X40.0050 Y30.4800 
G01 Z-0.400000
G01 Z2.540000
(G00 Z2.540000)
G00 X17.1450 Y33.0200 
G01 Z-0.400000
G01 Z2.540000
(G00 Z2.540000)
G00 X17.1450 Y35.5600 
G01 Z-0.400000
G01 Z2.540000
(G00 Z2.540000)
G00 X17.1450 Y17.7800 
G01 Z-0.400000
G01 Z2.540000
(G00 Z2.540000)
G00 X17.1450 Y20.3200 
G01 Z-0.400000
G01 Z2.540000
(G00 Z2.540000)
G00 X17.1450 Y22.8600 
G01 Z-0.400000
G01 Z2.540000
(G00 Z2.540000)
G00 X17.1450 Y25.4000 
G01 Z-0.400000
G01 Z2.540000
(G00 Z2.540000)
G00 X17.1450 Y27.9400 
G01 Z-0.400000
G01 Z2.540000
(G00 Z2.540000)
G00 X17.1450 Y30.4800 
G01 Z-0.400000
G01 Z2.540000
M05
G00 Z25.4000 
M06 T02  ; 0.8000 
G01 Z0.0000 F254.00 
M06 T02  ; 0.8000 
G00 Z2.5400 
M03
G04 P3.000000
G00 Z2.540000
G00 X3.1750 Y33.6550 
G01 Z-0.4000 F254.00 
G01 Z2.540000
(R2.5400  P1.000000)
(G00 Z2.540000)
G00 X3.1750 Y36.1950 
G01 Z-0.400000
G01 Z2.540000
(G00 Z2.540000)
G00 X3.1750 Y18.4150 
G01 Z-0.400000
G01 Z2.540000
(G00 Z2.540000)
G00 X3.1750 Y20.9550 
G01 Z-0.400000
G01 Z2.540000
(G00 Z2.540000)
G00 X3.1750 Y23.4950 
G01 Z-0.400000
G01 Z2.540000
(G00 Z2.540000)
G00 X3.1750 Y26.0350 
G01 Z-0.400000
G01 Z2.540000
(G00 Z2.540000)
G00 X3.1750 Y28.5750 
G01 Z-0.400000
G01 Z2.540000
(G00 Z2.540000)
G00 X3.1750 Y31.1150 
G01 Z-0.400000
G01 Z2.540000
M05
G00 Z25.4000 
M06 T03  ; 1.0000 
G01 Z0.0000 F254.00 
M06 T03  ; 1.0000 
G00 Z2.5400 
M03
G04 P3.000000
G00 Z2.540000
G00 X9.5250 Y33.6550 
G01 Z-0.4000 F254.00 
G01 Z2.540000
(R2.5400  P1.000000)
(G00 Z2.540000)
G00 X9.5250 Y36.1950 
G01 Z-0.400000
G01 Z2.540000
(G00 Z2.540000)
G00 X9.5250 Y28.5750 
G01 Z-0.400000
G01 Z2.540000
(G00 Z2.540000)
G00 X9.5250 Y31.1150 
G01 Z-0.400000
G01 Z2.540000
M05
G00 Z25.4000 
M06 T04  ; 1.0160 
G01 Z0.0000 F254.00 
M06 T04  ; 1.0160 
G00 Z2.5400 
M03
G04 P3.000000
G00 Z2.540000
G00 X8.2550 Y13.3350 
G01 Z-0.4000 F254.00 
G01 Z2.540000
(R2.5400  P1.000000)
(G00 Z2.540000)
G00 X10.7950 Y13.3350 
G01 Z-0.400000
G01 Z2.540000
(G00 Z2.540000)
G00 X13.3350 Y13.3350 
G01 Z-0.400000
G01 Z2.540000
M05
G00 Z25.4000 
M06 T05  ; 1.0800 
G01 Z0.0000 F254.00 
M06 T05  ; 1.0800 
G00 Z2.5400 
M03
G04 P3.000000
G00 Z2.540000
G00 X50.1650 Y33.6550 
G01 Z-0.4000 F254.00 
G01 Z2.540000
(R2.5400  P1.000000)
(G00 Z2.540000)
G00 X50.1650 Y15.8750 
G01 Z-0.400000
G01 Z2.540000
(G00 Z2.540000)
G00 X50.1650 Y18.4150 
G01 Z-0.400000
G01 Z2.540000
(G00 Z2.540000)
G00 X50.1650 Y20.9550 
G01 Z-0.400000
G01 Z2.540000
(G00 Z2.540000)
G00 X50.1650 Y23.4950 
G01 Z-0.400000
G01 Z2.540000
(G00 Z2.540000)
G00 X50.1650 Y26.0350 
G01 Z-0.400000
G01 Z2.540000
(G00 Z2.540000)
G00 X50.1650 Y28.5750 
G01 Z-0.400000
G01 Z2.540000
(G00 Z2.540000)
G00 X50.1650 Y31.1150 
G01 Z-0.400000
G01 Z2.540000
(G00 Z2.540000)
G00 X55.2450 Y32.3850 
G01 Z-0.400000
G01 Z2.540000
(G00 Z2.540000)
G00 X55.2450 Y17.1450 
G01 Z-0.400000
G01 Z2.540000
(G00 Z2.540000)
G00 X55.2450 Y19.6850 
G01 Z-0.400000
G01 Z2.540000
(G00 Z2.540000)
G00 X55.2450 Y22.2250 
G01 Z-0.400000
G01 Z2.540000
(G00 Z2.540000)
G00 X55.2450 Y24.7650 
G01 Z-0.400000
G01 Z2.540000
(G00 Z2.540000)
G00 X55.2450 Y27.3050 
G01 Z-0.400000
G01 Z2.540000
(G00 Z2.540000)
G00 X55.2450 Y29.8450 
G01 Z-0.400000
G01 Z2.540000
M05
G00 Z25.4000 
M06 T06  ; 1.2000 
G01 Z0.0000 F254.00 
M06 T06  ; 1.2000 
G00 Z2.5400 
M03
G04 P3.000000
G00 Z2.540000
G00 X64.1350 Y34.8850 
G01 Z-0.4000 F254.00 
G01 Z2.540000
(R2.5400  P1.000000)
(G00 Z2.540000)
G00 X64.1350 Y40.0450 
G01 Z-0.400000
G01 Z2.540000
(G00 Z2.540000)
G00 X64.1350 Y4.4850 
G01 Z-0.400000
G01 Z2.540000
(G00 Z2.540000)
G00 X64.1350 Y45.0450 
G01 Z-0.400000
G01 Z2.540000
(G00 Z2.540000)
G00 X64.1350 Y9.4850 
G01 Z-0.400000
G01 Z2.540000
(G00 Z2.540000)
G00 X64.1350 Y14.6450 
G01 Z-0.400000
G01 Z2.540000
(G00 Z2.540000)
G00 X64.1350 Y19.6450 
G01 Z-0.400000
G01 Z2.540000
(G00 Z2.540000)
G00 X64.1350 Y29.8850 
G01 Z-0.400000
G01 Z2.540000
T01 
G00 Z12.7000 
M05
M02
