(.../Documents/EAGLE/ulps/pcb-gcode.ulp)
(Copyright 2005 - 2012 by John Johnson)
(See readme.txt for licensing terms.)
(This file generated from the board:)
(.../projects/Auticko/Control Board.brd)
(Current profile is .../EAGLE/ulps/profiles/generic.pp  )
(This file generated 06.07.2023 13:34)
(Settings from pcb-machine.h)
(  Tool Size)
(0.2000 )
(Z Axis Settings)
(  High     Up        Down     Drill)
(12.7000 	2.5400 	-0.2000 	-0.4000 )
(spindle on time = 3.0000)
(milling depth = -0.2000)
(text depth = -0.1270)
(tool change at 12.7000 15.2400 25.4000 )
(feed rate xy = F508.00 )
(feed rate z  = F254.00 )
(Settings from pcb-defaults.h)
(isolate min = 0.0100)
(isolate max = 0.7000)
(isolate step = 0.2500)
(Generated top outlines, top drill, )
(Unit of measure: mm)
(Metric Mode)
G21
(Absolute Coordinates)
G90
G00 X0.0000 Y0.0000 
M03
G04 P3.000000
G00 Z2.5400 
G00 X14.3848 Y13.2524 
G01 Z-0.2000 F254.00 
G01 X14.3848 Y13.4176 F508.00 
G01 X14.3589 Y13.5808 
G01 X14.3079 Y13.7380 
G01 X14.2329 Y13.8852 
G01 X14.1357 Y14.0189 
G01 X14.0189 Y14.1357 
G01 X13.8852 Y14.2329 
G01 X13.7380 Y14.3079 
G01 X13.5808 Y14.3589 
G01 X13.4176 Y14.3848 
G01 X13.2524 Y14.3848 
G01 X13.0892 Y14.3589 
G01 X12.9320 Y14.3079 
G01 X12.7848 Y14.2329 
G01 X12.6511 Y14.1357 
G01 X12.5343 Y14.0189 
G01 X12.4371 Y13.8852 
G01 X12.3621 Y13.7380 
G01 X12.3110 Y13.5808 
G01 X12.2852 Y13.4176 
G01 X12.2852 Y13.2524 
G01 X12.3110 Y13.0892 
G01 X12.3621 Y12.9320 
G01 X12.4371 Y12.7848 
G01 X12.5343 Y12.6511 
G01 X12.6511 Y12.5343 
G01 X12.7848 Y12.4371 
G01 X12.9320 Y12.3621 
G01 X13.0892 Y12.3110 
G01 X13.2524 Y12.2852 
G01 X13.4176 Y12.2852 
G01 X13.5808 Y12.3110 
G01 X13.7380 Y12.3621 
G01 X13.8852 Y12.4371 
G01 X14.0189 Y12.5343 
G01 X14.1357 Y12.6511 
G01 X14.2329 Y12.7848 
G01 X14.3079 Y12.9320 
G01 X14.3589 Y13.0892 
G01 X14.3848 Y13.2524 
G00 Z2.5400 
G00 X11.8448 Y13.2524 
G01 Z-0.2000 F254.00 
G01 X11.8448 Y13.4176 F508.00 
G01 X11.8189 Y13.5808 
G01 X11.7679 Y13.7380 
G01 X11.6929 Y13.8852 
G01 X11.5957 Y14.0189 
G01 X11.4789 Y14.1357 
G01 X11.3452 Y14.2329 
G01 X11.1980 Y14.3079 
G01 X11.0408 Y14.3589 
G01 X10.8776 Y14.3848 
G01 X10.7124 Y14.3848 
G01 X10.5492 Y14.3589 
G01 X10.3920 Y14.3079 
G01 X10.2448 Y14.2329 
G01 X10.1111 Y14.1357 
G01 X9.9943 Y14.0189 
G01 X9.8971 Y13.8852 
G01 X9.8221 Y13.7380 
G01 X9.7711 Y13.5808 
G01 X9.7452 Y13.4176 
G01 X9.7452 Y13.2524 
G01 X9.7711 Y13.0892 
G01 X9.8221 Y12.9320 
G01 X9.8971 Y12.7848 
G01 X9.9943 Y12.6511 
G01 X10.1111 Y12.5343 
G01 X10.2448 Y12.4371 
G01 X10.3920 Y12.3621 
G01 X10.5492 Y12.3110 
G01 X10.7124 Y12.2852 
G01 X10.8776 Y12.2852 
G01 X11.0408 Y12.3110 
G01 X11.1980 Y12.3621 
G01 X11.3452 Y12.4371 
G01 X11.4789 Y12.5343 
G01 X11.5957 Y12.6511 
G01 X11.6929 Y12.7848 
G01 X11.7679 Y12.9320 
G01 X11.8189 Y13.0892 
G01 X11.8448 Y13.2524 
G00 Z2.5400 
G00 X9.3048 Y13.2524 
G01 Z-0.2000 F254.00 
G01 X9.3048 Y13.4176 F508.00 
G01 X9.2789 Y13.5808 
G01 X9.2279 Y13.7380 
G01 X9.1529 Y13.8852 
G01 X9.0557 Y14.0189 
G01 X8.9389 Y14.1357 
G01 X8.8052 Y14.2329 
G01 X8.6580 Y14.3079 
G01 X8.5008 Y14.3589 
G01 X8.3376 Y14.3848 
G01 X8.1724 Y14.3848 
G01 X8.0092 Y14.3589 
G01 X7.8520 Y14.3079 
G01 X7.7048 Y14.2329 
G01 X7.5711 Y14.1357 
G01 X7.4543 Y14.0189 
G01 X7.3571 Y13.8852 
G01 X7.2821 Y13.7380 
G01 X7.2311 Y13.5808 
G01 X7.2052 Y13.4176 
G01 X7.2052 Y13.2524 
G01 X7.2311 Y13.0892 
G01 X7.2821 Y12.9320 
G01 X7.3571 Y12.7848 
G01 X7.4543 Y12.6511 
G01 X7.5711 Y12.5343 
G01 X7.7048 Y12.4371 
G01 X7.8520 Y12.3621 
G01 X8.0092 Y12.3110 
G01 X8.1724 Y12.2852 
G01 X8.3376 Y12.2852 
G01 X8.5008 Y12.3110 
G01 X8.6580 Y12.3621 
G01 X8.8052 Y12.4371 
G01 X8.9389 Y12.5343 
G01 X9.0557 Y12.6511 
G01 X9.1529 Y12.7848 
G01 X9.2279 Y12.9320 
G01 X9.2789 Y13.0892 
G01 X9.3048 Y13.2524 
G00 Z2.5400 
G00 X17.9797 Y21.1800 
G01 Z-0.2000 F254.00 
G01 X16.3103 Y21.1800 F508.00 
G01 X16.1441 Y21.1469 
G01 X15.9876 Y21.0821 
G01 X15.8468 Y20.9880 
G01 X15.7270 Y20.8682 
G01 X15.6329 Y20.7274 
G01 X15.5681 Y20.5709 
G01 X15.5350 Y20.4047 
G01 X15.5350 Y20.2353 
G01 X15.5681 Y20.0691 
G01 X15.6329 Y19.9126 
G01 X15.7270 Y19.7718 
G01 X15.8468 Y19.6520 
G01 X15.9876 Y19.5579 
G01 X16.1441 Y19.4931 
G01 X16.3103 Y19.4600 
G01 X17.9797 Y19.4600 
G01 X18.1459 Y19.4931 
G01 X18.3024 Y19.5579 
G01 X18.4432 Y19.6520 
G01 X18.5630 Y19.7718 
G01 X18.6571 Y19.9126 
G01 X18.7219 Y20.0691 
G01 X18.7550 Y20.2353 
G01 X18.7550 Y20.4047 
G01 X18.7219 Y20.5709 
G01 X18.6571 Y20.7274 
G01 X18.5630 Y20.8682 
G01 X18.4432 Y20.9880 
G01 X18.3024 Y21.0821 
G01 X18.1459 Y21.1469 
G01 X17.9797 Y21.1800 
G00 Z2.5400 
G00 X17.9797 Y23.7200 
G01 Z-0.2000 F254.00 
G01 X16.3103 Y23.7200 F508.00 
G01 X16.1441 Y23.6869 
G01 X15.9876 Y23.6221 
G01 X15.8468 Y23.5280 
G01 X15.7270 Y23.4082 
G01 X15.6329 Y23.2674 
G01 X15.5681 Y23.1109 
G01 X15.5350 Y22.9447 
G01 X15.5350 Y22.7753 
G01 X15.5681 Y22.6091 
G01 X15.6329 Y22.4526 
G01 X15.7270 Y22.3118 
G01 X15.8468 Y22.1920 
G01 X15.9876 Y22.0979 
G01 X16.1441 Y22.0330 
G01 X16.3103 Y22.0000 
G01 X17.9797 Y22.0000 
G01 X18.1459 Y22.0330 
G01 X18.3024 Y22.0979 
G01 X18.4432 Y22.1920 
G01 X18.5630 Y22.3118 
G01 X18.6571 Y22.4526 
G01 X18.7219 Y22.6091 
G01 X18.7550 Y22.7753 
G01 X18.7550 Y22.9447 
G01 X18.7219 Y23.1109 
G01 X18.6571 Y23.2674 
G01 X18.5630 Y23.4082 
G01 X18.4432 Y23.5280 
G01 X18.3024 Y23.6221 
G01 X18.1459 Y23.6869 
G01 X17.9797 Y23.7200 
G00 Z2.5400 
G00 X17.9797 Y26.2600 
G01 Z-0.2000 F254.00 
G01 X16.3103 Y26.2600 F508.00 
G01 X16.1441 Y26.2269 
G01 X15.9876 Y26.1621 
G01 X15.8468 Y26.0680 
G01 X15.7270 Y25.9482 
G01 X15.6329 Y25.8074 
G01 X15.5681 Y25.6509 
G01 X15.5350 Y25.4847 
G01 X15.5350 Y25.3153 
G01 X15.5681 Y25.1491 
G01 X15.6329 Y24.9926 
G01 X15.7270 Y24.8518 
G01 X15.8468 Y24.7320 
G01 X15.9876 Y24.6379 
G01 X16.1441 Y24.5731 
G01 X16.3103 Y24.5400 
G01 X17.9797 Y24.5400 
G01 X18.1459 Y24.5731 
G01 X18.3024 Y24.6379 
G01 X18.4432 Y24.7320 
G01 X18.5630 Y24.8518 
G01 X18.6571 Y24.9926 
G01 X18.7219 Y25.1491 
G01 X18.7550 Y25.3153 
G01 X18.7550 Y25.4847 
G01 X18.7219 Y25.6509 
G01 X18.6571 Y25.8074 
G01 X18.5630 Y25.9482 
G01 X18.4432 Y26.0680 
G01 X18.3024 Y26.1621 
G01 X18.1459 Y26.2269 
G01 X17.9797 Y26.2600 
G00 Z2.5400 
G00 X17.9797 Y28.8000 
G01 Z-0.2000 F254.00 
G01 X16.3103 Y28.8000 F508.00 
G01 X16.1441 Y28.7669 
G01 X15.9876 Y28.7021 
G01 X15.8468 Y28.6080 
G01 X15.7270 Y28.4882 
G01 X15.6329 Y28.3474 
G01 X15.5681 Y28.1909 
G01 X15.5350 Y28.0247 
G01 X15.5350 Y27.8553 
G01 X15.5681 Y27.6891 
G01 X15.6329 Y27.5326 
G01 X15.7270 Y27.3918 
G01 X15.8468 Y27.2720 
G01 X15.9876 Y27.1779 
G01 X16.1441 Y27.1131 
G01 X16.3103 Y27.0800 
G01 X17.9797 Y27.0800 
G01 X18.1459 Y27.1131 
G01 X18.3024 Y27.1779 
G01 X18.4432 Y27.2720 
G01 X18.5630 Y27.3918 
G01 X18.6571 Y27.5326 
G01 X18.7219 Y27.6891 
G01 X18.7550 Y27.8553 
G01 X18.7550 Y28.0247 
G01 X18.7219 Y28.1909 
G01 X18.6571 Y28.3474 
G01 X18.5630 Y28.4882 
G01 X18.4432 Y28.6080 
G01 X18.3024 Y28.7021 
G01 X18.1459 Y28.7669 
G01 X17.9797 Y28.8000 
G00 Z2.5400 
G00 X17.9797 Y31.3400 
G01 Z-0.2000 F254.00 
G01 X16.3103 Y31.3400 F508.00 
G01 X16.1441 Y31.3069 
G01 X15.9876 Y31.2421 
G01 X15.8468 Y31.1480 
G01 X15.7270 Y31.0282 
G01 X15.6329 Y30.8874 
G01 X15.5681 Y30.7309 
G01 X15.5350 Y30.5647 
G01 X15.5350 Y30.3953 
G01 X15.5681 Y30.2291 
G01 X15.6329 Y30.0726 
G01 X15.7270 Y29.9318 
G01 X15.8468 Y29.8120 
G01 X15.9876 Y29.7179 
G01 X16.1441 Y29.6531 
G01 X16.3103 Y29.6200 
G01 X17.9797 Y29.6200 
G01 X18.1459 Y29.6531 
G01 X18.3024 Y29.7179 
G01 X18.4432 Y29.8120 
G01 X18.5630 Y29.9318 
G01 X18.6571 Y30.0726 
G01 X18.7219 Y30.2291 
G01 X18.7550 Y30.3953 
G01 X18.7550 Y30.5647 
G01 X18.7219 Y30.7309 
G01 X18.6571 Y30.8874 
G01 X18.5630 Y31.0282 
G01 X18.4432 Y31.1480 
G01 X18.3024 Y31.2421 
G01 X18.1459 Y31.3069 
G01 X17.9797 Y31.3400 
G00 Z2.5400 
G00 X17.9797 Y33.8800 
G01 Z-0.2000 F254.00 
G01 X16.3103 Y33.8800 F508.00 
G01 X16.1441 Y33.8469 
G01 X15.9876 Y33.7821 
G01 X15.8468 Y33.6880 
G01 X15.7270 Y33.5682 
G01 X15.6329 Y33.4274 
G01 X15.5681 Y33.2709 
G01 X15.5350 Y33.1047 
G01 X15.5350 Y32.9353 
G01 X15.5681 Y32.7691 
G01 X15.6329 Y32.6126 
G01 X15.7270 Y32.4718 
G01 X15.8468 Y32.3520 
G01 X15.9876 Y32.2579 
G01 X16.1441 Y32.1930 
G01 X16.3103 Y32.1600 
G01 X17.9797 Y32.1600 
G01 X18.1459 Y32.1930 
G01 X18.3024 Y32.2579 
G01 X18.4432 Y32.3520 
G01 X18.5630 Y32.4718 
G01 X18.6571 Y32.6126 
G01 X18.7219 Y32.7691 
G01 X18.7550 Y32.9353 
G01 X18.7550 Y33.1047 
G01 X18.7219 Y33.2709 
G01 X18.6571 Y33.4274 
G01 X18.5630 Y33.5682 
G01 X18.4432 Y33.6880 
G01 X18.3024 Y33.7821 
G01 X18.1459 Y33.8469 
G01 X17.9797 Y33.8800 
G00 Z2.5400 
G00 X17.9797 Y36.4200 
G01 Z-0.2000 F254.00 
G01 X16.3103 Y36.4200 F508.00 
G01 X16.1441 Y36.3869 
G01 X15.9876 Y36.3221 
G01 X15.8468 Y36.2280 
G01 X15.7270 Y36.1082 
G01 X15.6329 Y35.9674 
G01 X15.5681 Y35.8109 
G01 X15.5350 Y35.6447 
G01 X15.5350 Y35.4753 
G01 X15.5681 Y35.3091 
G01 X15.6329 Y35.1526 
G01 X15.7270 Y35.0118 
G01 X15.8468 Y34.8920 
G01 X15.9876 Y34.7979 
G01 X16.1441 Y34.7330 
G01 X16.3103 Y34.7000 
G01 X17.9797 Y34.7000 
G01 X18.1459 Y34.7330 
G01 X18.3024 Y34.7979 
G01 X18.4432 Y34.8920 
G01 X18.5630 Y35.0118 
G01 X18.6571 Y35.1526 
G01 X18.7219 Y35.3091 
G01 X18.7550 Y35.4753 
G01 X18.7550 Y35.6447 
G01 X18.7219 Y35.8109 
G01 X18.6571 Y35.9674 
G01 X18.5630 Y36.1082 
G01 X18.4432 Y36.2280 
G01 X18.3024 Y36.3221 
G01 X18.1459 Y36.3869 
G01 X17.9797 Y36.4200 
G00 Z2.5400 
G00 X40.8397 Y21.1800 
G01 Z-0.2000 F254.00 
G01 X39.1703 Y21.1800 F508.00 
G01 X39.0041 Y21.1469 
G01 X38.8476 Y21.0821 
G01 X38.7068 Y20.9880 
G01 X38.5870 Y20.8682 
G01 X38.4929 Y20.7274 
G01 X38.4280 Y20.5709 
G01 X38.3950 Y20.4047 
G01 X38.3950 Y20.2353 
G01 X38.4280 Y20.0691 
G01 X38.4929 Y19.9126 
G01 X38.5870 Y19.7718 
G01 X38.7068 Y19.6520 
G01 X38.8476 Y19.5579 
G01 X39.0041 Y19.4931 
G01 X39.1703 Y19.4600 
G01 X40.8397 Y19.4600 
G01 X41.0059 Y19.4931 
G01 X41.1624 Y19.5579 
G01 X41.3032 Y19.6520 
G01 X41.4230 Y19.7718 
G01 X41.5171 Y19.9126 
G01 X41.5819 Y20.0691 
G01 X41.6150 Y20.2353 
G01 X41.6150 Y20.4047 
G01 X41.5819 Y20.5709 
G01 X41.5171 Y20.7274 
G01 X41.4230 Y20.8682 
G01 X41.3032 Y20.9880 
G01 X41.1624 Y21.0821 
G01 X41.0059 Y21.1469 
G01 X40.8397 Y21.1800 
G00 Z2.5400 
G00 X40.8397 Y23.7200 
G01 Z-0.2000 F254.00 
G01 X39.1703 Y23.7200 F508.00 
G01 X39.0041 Y23.6869 
G01 X38.8476 Y23.6221 
G01 X38.7068 Y23.5280 
G01 X38.5870 Y23.4082 
G01 X38.4929 Y23.2674 
G01 X38.4280 Y23.1109 
G01 X38.3950 Y22.9447 
G01 X38.3950 Y22.7753 
G01 X38.4280 Y22.6091 
G01 X38.4929 Y22.4526 
G01 X38.5870 Y22.3118 
G01 X38.7068 Y22.1920 
G01 X38.8476 Y22.0979 
G01 X39.0041 Y22.0330 
G01 X39.1703 Y22.0000 
G01 X40.8397 Y22.0000 
G01 X41.0059 Y22.0330 
G01 X41.1624 Y22.0979 
G01 X41.3032 Y22.1920 
G01 X41.4230 Y22.3118 
G01 X41.5171 Y22.4526 
G01 X41.5819 Y22.6091 
G01 X41.6150 Y22.7753 
G01 X41.6150 Y22.9447 
G01 X41.5819 Y23.1109 
G01 X41.5171 Y23.2674 
G01 X41.4230 Y23.4082 
G01 X41.3032 Y23.5280 
G01 X41.1624 Y23.6221 
G01 X41.0059 Y23.6869 
G01 X40.8397 Y23.7200 
G00 Z2.5400 
G00 X40.8397 Y26.2600 
G01 Z-0.2000 F254.00 
G01 X39.1703 Y26.2600 F508.00 
G01 X39.0041 Y26.2269 
G01 X38.8476 Y26.1621 
G01 X38.7068 Y26.0680 
G01 X38.5870 Y25.9482 
G01 X38.4929 Y25.8074 
G01 X38.4280 Y25.6509 
G01 X38.3950 Y25.4847 
G01 X38.3950 Y25.3153 
G01 X38.4280 Y25.1491 
G01 X38.4929 Y24.9926 
G01 X38.5870 Y24.8518 
G01 X38.7068 Y24.7320 
G01 X38.8476 Y24.6379 
G01 X39.0041 Y24.5731 
G01 X39.1703 Y24.5400 
G01 X40.8397 Y24.5400 
G01 X41.0059 Y24.5731 
G01 X41.1624 Y24.6379 
G01 X41.3032 Y24.7320 
G01 X41.4230 Y24.8518 
G01 X41.5171 Y24.9926 
G01 X41.5819 Y25.1491 
G01 X41.6150 Y25.3153 
G01 X41.6150 Y25.4847 
G01 X41.5819 Y25.6509 
G01 X41.5171 Y25.8074 
G01 X41.4230 Y25.9482 
G01 X41.3032 Y26.0680 
G01 X41.1624 Y26.1621 
G01 X41.0059 Y26.2269 
G01 X40.8397 Y26.2600 
G00 Z2.5400 
G00 X40.8397 Y28.8000 
G01 Z-0.2000 F254.00 
G01 X39.1703 Y28.8000 F508.00 
G01 X39.0041 Y28.7669 
G01 X38.8476 Y28.7021 
G01 X38.7068 Y28.6080 
G01 X38.5870 Y28.4882 
G01 X38.4929 Y28.3474 
G01 X38.4280 Y28.1909 
G01 X38.3950 Y28.0247 
G01 X38.3950 Y27.8553 
G01 X38.4280 Y27.6891 
G01 X38.4929 Y27.5326 
G01 X38.5870 Y27.3918 
G01 X38.7068 Y27.2720 
G01 X38.8476 Y27.1779 
G01 X39.0041 Y27.1131 
G01 X39.1703 Y27.0800 
G01 X40.8397 Y27.0800 
G01 X41.0059 Y27.1131 
G01 X41.1624 Y27.1779 
G01 X41.3032 Y27.2720 
G01 X41.4230 Y27.3918 
G01 X41.5171 Y27.5326 
G01 X41.5819 Y27.6891 
G01 X41.6150 Y27.8553 
G01 X41.6150 Y28.0247 
G01 X41.5819 Y28.1909 
G01 X41.5171 Y28.3474 
G01 X41.4230 Y28.4882 
G01 X41.3032 Y28.6080 
G01 X41.1624 Y28.7021 
G01 X41.0059 Y28.7669 
G01 X40.8397 Y28.8000 
G00 Z2.5400 
G00 X40.8397 Y31.3400 
G01 Z-0.2000 F254.00 
G01 X39.1703 Y31.3400 F508.00 
G01 X39.0041 Y31.3069 
G01 X38.8476 Y31.2421 
G01 X38.7068 Y31.1480 
G01 X38.5870 Y31.0282 
G01 X38.4929 Y30.8874 
G01 X38.4280 Y30.7309 
G01 X38.3950 Y30.5647 
G01 X38.3950 Y30.3953 
G01 X38.4280 Y30.2291 
G01 X38.4929 Y30.0726 
G01 X38.5870 Y29.9318 
G01 X38.7068 Y29.8120 
G01 X38.8476 Y29.7179 
G01 X39.0041 Y29.6531 
G01 X39.1703 Y29.6200 
G01 X40.8397 Y29.6200 
G01 X41.0059 Y29.6531 
G01 X41.1624 Y29.7179 
G01 X41.3032 Y29.8120 
G01 X41.4230 Y29.9318 
G01 X41.5171 Y30.0726 
G01 X41.5819 Y30.2291 
G01 X41.6150 Y30.3953 
G01 X41.6150 Y30.5647 
G01 X41.5819 Y30.7309 
G01 X41.5171 Y30.8874 
G01 X41.4230 Y31.0282 
G01 X41.3032 Y31.1480 
G01 X41.1624 Y31.2421 
G01 X41.0059 Y31.3069 
G01 X40.8397 Y31.3400 
G00 Z2.5400 
G00 X40.8397 Y33.8800 
G01 Z-0.2000 F254.00 
G01 X39.1703 Y33.8800 F508.00 
G01 X39.0041 Y33.8469 
G01 X38.8476 Y33.7821 
G01 X38.7068 Y33.6880 
G01 X38.5870 Y33.5682 
G01 X38.4929 Y33.4274 
G01 X38.4280 Y33.2709 
G01 X38.3950 Y33.1047 
G01 X38.3950 Y32.9353 
G01 X38.4280 Y32.7691 
G01 X38.4929 Y32.6126 
G01 X38.5870 Y32.4718 
G01 X38.7068 Y32.3520 
G01 X38.8476 Y32.2579 
G01 X39.0041 Y32.1930 
G01 X39.1703 Y32.1600 
G01 X40.8397 Y32.1600 
G01 X41.0059 Y32.1930 
G01 X41.1624 Y32.2579 
G01 X41.3032 Y32.3520 
G01 X41.4230 Y32.4718 
G01 X41.5171 Y32.6126 
G01 X41.5819 Y32.7691 
G01 X41.6150 Y32.9353 
G01 X41.6150 Y33.1047 
G01 X41.5819 Y33.2709 
G01 X41.5171 Y33.4274 
G01 X41.4230 Y33.5682 
G01 X41.3032 Y33.6880 
G01 X41.1624 Y33.7821 
G01 X41.0059 Y33.8469 
G01 X40.8397 Y33.8800 
G00 Z2.5400 
G00 X40.8397 Y36.4200 
G01 Z-0.2000 F254.00 
G01 X39.1703 Y36.4200 F508.00 
G01 X39.0041 Y36.3869 
G01 X38.8476 Y36.3221 
G01 X38.7068 Y36.2280 
G01 X38.5870 Y36.1082 
G01 X38.4929 Y35.9674 
G01 X38.4280 Y35.8109 
G01 X38.3950 Y35.6447 
G01 X38.3950 Y35.4753 
G01 X38.4280 Y35.3091 
G01 X38.4929 Y35.1526 
G01 X38.5870 Y35.0118 
G01 X38.7068 Y34.8920 
G01 X38.8476 Y34.7979 
G01 X39.0041 Y34.7330 
G01 X39.1703 Y34.7000 
G01 X40.8397 Y34.7000 
G01 X41.0059 Y34.7330 
G01 X41.1624 Y34.7979 
G01 X41.3032 Y34.8920 
G01 X41.4230 Y35.0118 
G01 X41.5171 Y35.1526 
G01 X41.5819 Y35.3091 
G01 X41.6150 Y35.4753 
G01 X41.6150 Y35.6447 
G01 X41.5819 Y35.8109 
G01 X41.5171 Y35.9674 
G01 X41.4230 Y36.1082 
G01 X41.3032 Y36.2280 
G01 X41.1624 Y36.3221 
G01 X41.0059 Y36.3869 
G01 X40.8397 Y36.4200 
G00 Z2.5400 
G00 X17.9797 Y18.6400 
G01 Z-0.2000 F254.00 
G01 X16.3103 Y18.6400 F508.00 
G01 X16.1441 Y18.6069 
G01 X15.9876 Y18.5421 
G01 X15.8468 Y18.4480 
G01 X15.7270 Y18.3282 
G01 X15.6329 Y18.1874 
G01 X15.5681 Y18.0309 
G01 X15.5350 Y17.8647 
G01 X15.5350 Y17.6953 
G01 X15.5681 Y17.5291 
G01 X15.6329 Y17.3726 
G01 X15.7270 Y17.2318 
G01 X15.8468 Y17.1120 
G01 X15.9876 Y17.0179 
G01 X16.1441 Y16.9531 
G01 X16.3103 Y16.9200 
G01 X17.9797 Y16.9200 
G01 X18.1459 Y16.9531 
G01 X18.3024 Y17.0179 
G01 X18.4432 Y17.1120 
G01 X18.5630 Y17.2318 
G01 X18.6571 Y17.3726 
G01 X18.7219 Y17.5291 
G01 X18.7550 Y17.6953 
G01 X18.7550 Y17.8647 
G01 X18.7219 Y18.0309 
G01 X18.6571 Y18.1874 
G01 X18.5630 Y18.3282 
G01 X18.4432 Y18.4480 
G01 X18.3024 Y18.5421 
G01 X18.1459 Y18.6069 
G01 X17.9797 Y18.6400 
G00 Z2.5400 
G00 X40.8397 Y18.6400 
G01 Z-0.2000 F254.00 
G01 X39.1703 Y18.6400 F508.00 
G01 X39.0041 Y18.6069 
G01 X38.8476 Y18.5421 
G01 X38.7068 Y18.4480 
G01 X38.5870 Y18.3282 
G01 X38.4929 Y18.1874 
G01 X38.4280 Y18.0309 
G01 X38.3950 Y17.8647 
G01 X38.3950 Y17.6953 
G01 X38.4280 Y17.5291 
G01 X38.4929 Y17.3726 
G01 X38.5870 Y17.2318 
G01 X38.7068 Y17.1120 
G01 X38.8476 Y17.0179 
G01 X39.0041 Y16.9531 
G01 X39.1703 Y16.9200 
G01 X40.8397 Y16.9200 
G01 X41.0059 Y16.9531 
G01 X41.1624 Y17.0179 
G01 X41.3032 Y17.1120 
G01 X41.4230 Y17.2318 
G01 X41.5171 Y17.3726 
G01 X41.5819 Y17.5291 
G01 X41.6150 Y17.6953 
G01 X41.6150 Y17.8647 
G01 X41.5819 Y18.0309 
G01 X41.5171 Y18.1874 
G01 X41.4230 Y18.3282 
G01 X41.3032 Y18.4480 
G01 X41.1624 Y18.5421 
G01 X41.0059 Y18.6069 
G01 X40.8397 Y18.6400 
G00 Z2.5400 
G00 X63.1355 Y18.6350 
G01 Z-0.2000 F254.00 
G01 X65.1345 Y18.6350 F508.00 
G01 X65.3296 Y18.6738 
G01 X65.5134 Y18.7500 
G01 X65.6788 Y18.8605 
G01 X65.8195 Y19.0012 
G01 X65.9300 Y19.1666 
G01 X66.0062 Y19.3504 
G01 X66.0450 Y19.5455 
G01 X66.0450 Y19.7445 
G01 X66.0062 Y19.9396 
G01 X65.9300 Y20.1234 
G01 X65.8195 Y20.2888 
G01 X65.6788 Y20.4295 
G01 X65.5134 Y20.5400 
G01 X65.3296 Y20.6162 
G01 X65.1345 Y20.6550 
G01 X63.1355 Y20.6550 
G01 X62.9404 Y20.6162 
G01 X62.7566 Y20.5400 
G01 X62.5912 Y20.4295 
G01 X62.4505 Y20.2888 
G01 X62.3400 Y20.1234 
G01 X62.2638 Y19.9396 
G01 X62.2250 Y19.7445 
G01 X62.2250 Y19.5455 
G01 X62.2638 Y19.3504 
G01 X62.3400 Y19.1666 
G01 X62.4505 Y19.0012 
G01 X62.5912 Y18.8605 
G01 X62.7566 Y18.7500 
G01 X62.9404 Y18.6738 
G01 X63.1355 Y18.6350 
G00 Z2.5400 
G00 X63.1355 Y13.6350 
G01 Z-0.2000 F254.00 
G01 X65.1345 Y13.6350 F508.00 
G01 X65.3296 Y13.6738 
G01 X65.5134 Y13.7500 
G01 X65.6788 Y13.8605 
G01 X65.8195 Y14.0012 
G01 X65.9300 Y14.1666 
G01 X66.0062 Y14.3504 
G01 X66.0450 Y14.5455 
G01 X66.0450 Y14.7445 
G01 X66.0062 Y14.9396 
G01 X65.9300 Y15.1234 
G01 X65.8195 Y15.2888 
G01 X65.6788 Y15.4295 
G01 X65.5134 Y15.5400 
G01 X65.3296 Y15.6162 
G01 X65.1345 Y15.6550 
G01 X63.1355 Y15.6550 
G01 X62.9404 Y15.6162 
G01 X62.7566 Y15.5400 
G01 X62.5912 Y15.4295 
G01 X62.4505 Y15.2888 
G01 X62.3400 Y15.1234 
G01 X62.2638 Y14.9396 
G01 X62.2250 Y14.7445 
G01 X62.2250 Y14.5455 
G01 X62.2638 Y14.3504 
G01 X62.3400 Y14.1666 
G01 X62.4505 Y14.0012 
G01 X62.5912 Y13.8605 
G01 X62.7566 Y13.7500 
G01 X62.9404 Y13.6738 
G01 X63.1355 Y13.6350 
G00 Z2.5400 
G00 X63.1355 Y8.4750 
G01 Z-0.2000 F254.00 
G01 X65.1345 Y8.4750 F508.00 
G01 X65.3296 Y8.5138 
G01 X65.5134 Y8.5899 
G01 X65.6788 Y8.7005 
G01 X65.8195 Y8.8412 
G01 X65.9300 Y9.0066 
G01 X66.0062 Y9.1904 
G01 X66.0450 Y9.3855 
G01 X66.0450 Y9.5845 
G01 X66.0062 Y9.7796 
G01 X65.9300 Y9.9634 
G01 X65.8195 Y10.1288 
G01 X65.6788 Y10.2695 
G01 X65.5134 Y10.3800 
G01 X65.3296 Y10.4562 
G01 X65.1345 Y10.4950 
G01 X63.1355 Y10.4950 
G01 X62.9404 Y10.4562 
G01 X62.7566 Y10.3800 
G01 X62.5912 Y10.2695 
G01 X62.4505 Y10.1288 
G01 X62.3400 Y9.9634 
G01 X62.2638 Y9.7796 
G01 X62.2250 Y9.5845 
G01 X62.2250 Y9.3855 
G01 X62.2638 Y9.1904 
G01 X62.3400 Y9.0066 
G01 X62.4505 Y8.8412 
G01 X62.5912 Y8.7005 
G01 X62.7566 Y8.5899 
G01 X62.9404 Y8.5138 
G01 X63.1355 Y8.4750 
G00 Z2.5400 
G00 X63.1355 Y3.4750 
G01 Z-0.2000 F254.00 
G01 X65.1345 Y3.4750 F508.00 
G01 X65.3296 Y3.5138 
G01 X65.5134 Y3.5899 
G01 X65.6788 Y3.7005 
G01 X65.8195 Y3.8412 
G01 X65.9300 Y4.0066 
G01 X66.0062 Y4.1904 
G01 X66.0450 Y4.3855 
G01 X66.0450 Y4.5845 
G01 X66.0062 Y4.7796 
G01 X65.9300 Y4.9634 
G01 X65.8195 Y5.1288 
G01 X65.6788 Y5.2695 
G01 X65.5134 Y5.3800 
G01 X65.3296 Y5.4562 
G01 X65.1345 Y5.4950 
G01 X63.1355 Y5.4950 
G01 X62.9404 Y5.4562 
G01 X62.7566 Y5.3800 
G01 X62.5912 Y5.2695 
G01 X62.4505 Y5.1288 
G01 X62.3400 Y4.9634 
G01 X62.2638 Y4.7796 
G01 X62.2250 Y4.5845 
G01 X62.2250 Y4.3855 
G01 X62.2638 Y4.1904 
G01 X62.3400 Y4.0066 
G01 X62.4505 Y3.8412 
G01 X62.5912 Y3.7005 
G01 X62.7566 Y3.5899 
G01 X62.9404 Y3.5138 
G01 X63.1355 Y3.4750 
G00 Z2.5400 
G00 X63.1355 Y44.0350 
G01 Z-0.2000 F254.00 
G01 X65.1345 Y44.0350 F508.00 
G01 X65.3296 Y44.0738 
G01 X65.5134 Y44.1500 
G01 X65.6788 Y44.2605 
G01 X65.8195 Y44.4012 
G01 X65.9300 Y44.5666 
G01 X66.0062 Y44.7504 
G01 X66.0450 Y44.9455 
G01 X66.0450 Y45.1445 
G01 X66.0062 Y45.3396 
G01 X65.9300 Y45.5234 
G01 X65.8195 Y45.6888 
G01 X65.6788 Y45.8295 
G01 X65.5134 Y45.9400 
G01 X65.3296 Y46.0162 
G01 X65.1345 Y46.0550 
G01 X63.1355 Y46.0550 
G01 X62.9404 Y46.0162 
G01 X62.7566 Y45.9400 
G01 X62.5912 Y45.8295 
G01 X62.4505 Y45.6888 
G01 X62.3400 Y45.5234 
G01 X62.2638 Y45.3396 
G01 X62.2250 Y45.1445 
G01 X62.2250 Y44.9455 
G01 X62.2638 Y44.7504 
G01 X62.3400 Y44.5666 
G01 X62.4505 Y44.4012 
G01 X62.5912 Y44.2605 
G01 X62.7566 Y44.1500 
G01 X62.9404 Y44.0738 
G01 X63.1355 Y44.0350 
G00 Z2.5400 
G00 X63.1355 Y39.0350 
G01 Z-0.2000 F254.00 
G01 X65.1345 Y39.0350 F508.00 
G01 X65.3296 Y39.0738 
G01 X65.5134 Y39.1500 
G01 X65.6788 Y39.2605 
G01 X65.8195 Y39.4012 
G01 X65.9300 Y39.5666 
G01 X66.0062 Y39.7504 
G01 X66.0450 Y39.9455 
G01 X66.0450 Y40.1445 
G01 X66.0062 Y40.3396 
G01 X65.9300 Y40.5234 
G01 X65.8195 Y40.6888 
G01 X65.6788 Y40.8295 
G01 X65.5134 Y40.9400 
G01 X65.3296 Y41.0162 
G01 X65.1345 Y41.0550 
G01 X63.1355 Y41.0550 
G01 X62.9404 Y41.0162 
G01 X62.7566 Y40.9400 
G01 X62.5912 Y40.8295 
G01 X62.4505 Y40.6888 
G01 X62.3400 Y40.5234 
G01 X62.2638 Y40.3396 
G01 X62.2250 Y40.1445 
G01 X62.2250 Y39.9455 
G01 X62.2638 Y39.7504 
G01 X62.3400 Y39.5666 
G01 X62.4505 Y39.4012 
G01 X62.5912 Y39.2605 
G01 X62.7566 Y39.1500 
G01 X62.9404 Y39.0738 
G01 X63.1355 Y39.0350 
G00 Z2.5400 
G00 X63.1355 Y33.8750 
G01 Z-0.2000 F254.00 
G01 X65.1345 Y33.8750 F508.00 
G01 X65.3296 Y33.9138 
G01 X65.5134 Y33.9900 
G01 X65.6788 Y34.1005 
G01 X65.8195 Y34.2412 
G01 X65.9300 Y34.4066 
G01 X66.0062 Y34.5904 
G01 X66.0450 Y34.7855 
G01 X66.0450 Y34.9845 
G01 X66.0062 Y35.1796 
G01 X65.9300 Y35.3634 
G01 X65.8195 Y35.5288 
G01 X65.6788 Y35.6695 
G01 X65.5134 Y35.7800 
G01 X65.3296 Y35.8562 
G01 X65.1345 Y35.8950 
G01 X63.1355 Y35.8950 
G01 X62.9404 Y35.8562 
G01 X62.7566 Y35.7800 
G01 X62.5912 Y35.6695 
G01 X62.4505 Y35.5288 
G01 X62.3400 Y35.3634 
G01 X62.2638 Y35.1796 
G01 X62.2250 Y34.9845 
G01 X62.2250 Y34.7855 
G01 X62.2638 Y34.5904 
G01 X62.3400 Y34.4066 
G01 X62.4505 Y34.2412 
G01 X62.5912 Y34.1005 
G01 X62.7566 Y33.9900 
G01 X62.9404 Y33.9138 
G01 X63.1355 Y33.8750 
G00 Z2.5400 
G00 X63.1355 Y28.8750 
G01 Z-0.2000 F254.00 
G01 X65.1345 Y28.8750 F508.00 
G01 X65.3296 Y28.9138 
G01 X65.5134 Y28.9900 
G01 X65.6788 Y29.1005 
G01 X65.8195 Y29.2412 
G01 X65.9300 Y29.4066 
G01 X66.0062 Y29.5904 
G01 X66.0450 Y29.7855 
G01 X66.0450 Y29.9845 
G01 X66.0062 Y30.1796 
G01 X65.9300 Y30.3634 
G01 X65.8195 Y30.5288 
G01 X65.6788 Y30.6695 
G01 X65.5134 Y30.7800 
G01 X65.3296 Y30.8562 
G01 X65.1345 Y30.8950 
G01 X63.1355 Y30.8950 
G01 X62.9404 Y30.8562 
G01 X62.7566 Y30.7800 
G01 X62.5912 Y30.6695 
G01 X62.4505 Y30.5288 
G01 X62.3400 Y30.3634 
G01 X62.2638 Y30.1796 
G01 X62.2250 Y29.9845 
G01 X62.2250 Y29.7855 
G01 X62.2638 Y29.5904 
G01 X62.3400 Y29.4066 
G01 X62.4505 Y29.2412 
G01 X62.5912 Y29.1005 
G01 X62.7566 Y28.9900 
G01 X62.9404 Y28.9138 
G01 X63.1355 Y28.8750 
G00 Z2.5400 
G00 X10.3641 Y37.0590 
G01 Z-0.2000 F254.00 
G01 X8.6859 Y37.0590 F508.00 
G01 X8.5190 Y37.0258 
G01 X8.3617 Y36.9607 
G01 X8.2202 Y36.8661 
G01 X8.0999 Y36.7458 
G01 X8.0053 Y36.6043 
G01 X7.9402 Y36.4470 
G01 X7.9070 Y36.2801 
G01 X7.9070 Y36.1099 
G01 X7.9402 Y35.9430 
G01 X8.0053 Y35.7857 
G01 X8.0999 Y35.6442 
G01 X8.2202 Y35.5239 
G01 X8.3617 Y35.4293 
G01 X8.5190 Y35.3642 
G01 X8.6859 Y35.3310 
G01 X10.3641 Y35.3310 
G01 X10.5310 Y35.3642 
G01 X10.6883 Y35.4293 
G01 X10.8298 Y35.5239 
G01 X10.9501 Y35.6442 
G01 X11.0447 Y35.7857 
G01 X11.1098 Y35.9430 
G01 X11.1430 Y36.1099 
G01 X11.1430 Y36.2801 
G01 X11.1098 Y36.4470 
G01 X11.0447 Y36.6043 
G01 X10.9501 Y36.7458 
G01 X10.8298 Y36.8661 
G01 X10.6883 Y36.9607 
G01 X10.5310 Y37.0258 
G01 X10.3641 Y37.0590 
G00 Z2.5400 
G00 X10.3641 Y34.5190 
G01 Z-0.2000 F254.00 
G01 X8.6859 Y34.5190 F508.00 
G01 X8.5190 Y34.4858 
G01 X8.3617 Y34.4207 
G01 X8.2202 Y34.3261 
G01 X8.0999 Y34.2058 
G01 X8.0053 Y34.0643 
G01 X7.9402 Y33.9070 
G01 X7.9070 Y33.7401 
G01 X7.9070 Y33.5699 
G01 X7.9402 Y33.4030 
G01 X8.0053 Y33.2457 
G01 X8.0999 Y33.1042 
G01 X8.2202 Y32.9839 
G01 X8.3617 Y32.8893 
G01 X8.5190 Y32.8242 
G01 X8.6859 Y32.7910 
G01 X10.3641 Y32.7910 
G01 X10.5310 Y32.8242 
G01 X10.6883 Y32.8893 
G01 X10.8298 Y32.9839 
G01 X10.9501 Y33.1042 
G01 X11.0447 Y33.2457 
G01 X11.1098 Y33.4030 
G01 X11.1430 Y33.5699 
G01 X11.1430 Y33.7401 
G01 X11.1098 Y33.9070 
G01 X11.0447 Y34.0643 
G01 X10.9501 Y34.2058 
G01 X10.8298 Y34.3261 
G01 X10.6883 Y34.4207 
G01 X10.5310 Y34.4858 
G01 X10.3641 Y34.5190 
G00 Z2.5400 
G00 X10.3641 Y31.9790 
G01 Z-0.2000 F254.00 
G01 X8.6859 Y31.9790 F508.00 
G01 X8.5190 Y31.9458 
G01 X8.3617 Y31.8807 
G01 X8.2202 Y31.7861 
G01 X8.0999 Y31.6658 
G01 X8.0053 Y31.5243 
G01 X7.9402 Y31.3670 
G01 X7.9070 Y31.2001 
G01 X7.9070 Y31.0299 
G01 X7.9402 Y30.8630 
G01 X8.0053 Y30.7057 
G01 X8.0999 Y30.5642 
G01 X8.2202 Y30.4439 
G01 X8.3617 Y30.3493 
G01 X8.5190 Y30.2842 
G01 X8.6859 Y30.2510 
G01 X10.3641 Y30.2510 
G01 X10.5310 Y30.2842 
G01 X10.6883 Y30.3493 
G01 X10.8298 Y30.4439 
G01 X10.9501 Y30.5642 
G01 X11.0447 Y30.7057 
G01 X11.1098 Y30.8630 
G01 X11.1430 Y31.0299 
G01 X11.1430 Y31.2001 
G01 X11.1098 Y31.3670 
G01 X11.0447 Y31.5243 
G01 X10.9501 Y31.6658 
G01 X10.8298 Y31.7861 
G01 X10.6883 Y31.8807 
G01 X10.5310 Y31.9458 
G01 X10.3641 Y31.9790 
G00 Z2.5400 
G00 X10.3641 Y29.4390 
G01 Z-0.2000 F254.00 
G01 X8.6859 Y29.4390 F508.00 
G01 X8.5190 Y29.4058 
G01 X8.3617 Y29.3407 
G01 X8.2202 Y29.2461 
G01 X8.0999 Y29.1258 
G01 X8.0053 Y28.9843 
G01 X7.9402 Y28.8270 
G01 X7.9070 Y28.6601 
G01 X7.9070 Y28.4899 
G01 X7.9402 Y28.3230 
G01 X8.0053 Y28.1657 
G01 X8.0999 Y28.0242 
G01 X8.2202 Y27.9039 
G01 X8.3617 Y27.8093 
G01 X8.5190 Y27.7442 
G01 X8.6859 Y27.7110 
G01 X10.3641 Y27.7110 
G01 X10.5310 Y27.7442 
G01 X10.6883 Y27.8093 
G01 X10.8298 Y27.9039 
G01 X10.9501 Y28.0242 
G01 X11.0447 Y28.1657 
G01 X11.1098 Y28.3230 
G01 X11.1430 Y28.4899 
G01 X11.1430 Y28.6601 
G01 X11.1098 Y28.8270 
G01 X11.0447 Y28.9843 
G01 X10.9501 Y29.1258 
G01 X10.8298 Y29.2461 
G01 X10.6883 Y29.3407 
G01 X10.5310 Y29.4058 
G01 X10.3641 Y29.4390 
G00 Z2.5400 
G00 X50.9969 Y16.7950 
G01 Z-0.2000 F254.00 
G01 X49.3331 Y16.7950 F508.00 
G01 X49.2927 Y16.7782 
G01 X49.2617 Y16.7473 
G01 X49.2450 Y16.7069 
G01 X49.2450 Y15.0431 
G01 X49.2617 Y15.0027 
G01 X49.2927 Y14.9717 
G01 X49.3331 Y14.9550 
G01 X50.9969 Y14.9550 
G01 X51.0373 Y14.9717 
G01 X51.0682 Y15.0027 
G01 X51.0850 Y15.0431 
G01 X51.0850 Y16.7069 
G01 X51.0682 Y16.7473 
G01 X51.0373 Y16.7782 
G01 X50.9969 Y16.7950 
G00 Z2.5400 
G00 X56.1650 Y17.0544 
G01 Z-0.2000 F254.00 
G01 X56.1650 Y17.2356 F508.00 
G01 X56.1296 Y17.4134 
G01 X56.0603 Y17.5808 
G01 X55.9596 Y17.7315 
G01 X55.8315 Y17.8596 
G01 X55.6808 Y17.9603 
G01 X55.5134 Y18.0296 
G01 X55.3356 Y18.0650 
G01 X55.1544 Y18.0650 
G01 X54.9766 Y18.0296 
G01 X54.8092 Y17.9603 
G01 X54.6585 Y17.8596 
G01 X54.5304 Y17.7315 
G01 X54.4297 Y17.5808 
G01 X54.3604 Y17.4134 
G01 X54.3250 Y17.2356 
G01 X54.3250 Y17.0544 
G01 X54.3604 Y16.8766 
G01 X54.4297 Y16.7092 
G01 X54.5304 Y16.5585 
G01 X54.6585 Y16.4304 
G01 X54.8092 Y16.3297 
G01 X54.9766 Y16.2604 
G01 X55.1544 Y16.2250 
G01 X55.3356 Y16.2250 
G01 X55.5134 Y16.2604 
G01 X55.6808 Y16.3297 
G01 X55.8315 Y16.4304 
G01 X55.9596 Y16.5585 
G01 X56.0603 Y16.7092 
G01 X56.1296 Y16.8766 
G01 X56.1650 Y17.0544 
G00 Z2.5400 
G00 X51.0850 Y18.3244 
G01 Z-0.2000 F254.00 
G01 X51.0850 Y18.5056 F508.00 
G01 X51.0496 Y18.6834 
G01 X50.9803 Y18.8508 
G01 X50.8796 Y19.0015 
G01 X50.7515 Y19.1296 
G01 X50.6008 Y19.2303 
G01 X50.4334 Y19.2996 
G01 X50.2556 Y19.3350 
G01 X50.0744 Y19.3350 
G01 X49.8966 Y19.2996 
G01 X49.7292 Y19.2303 
G01 X49.5785 Y19.1296 
G01 X49.4504 Y19.0015 
G01 X49.3497 Y18.8508 
G01 X49.2804 Y18.6834 
G01 X49.2450 Y18.5056 
G01 X49.2450 Y18.3244 
G01 X49.2804 Y18.1466 
G01 X49.3497 Y17.9792 
G01 X49.4504 Y17.8285 
G01 X49.5785 Y17.7004 
G01 X49.7292 Y17.5997 
G01 X49.8966 Y17.5304 
G01 X50.0744 Y17.4950 
G01 X50.2556 Y17.4950 
G01 X50.4334 Y17.5304 
G01 X50.6008 Y17.5997 
G01 X50.7515 Y17.7004 
G01 X50.8796 Y17.8285 
G01 X50.9803 Y17.9792 
G01 X51.0496 Y18.1466 
G01 X51.0850 Y18.3244 
G00 Z2.5400 
G00 X56.1650 Y19.5944 
G01 Z-0.2000 F254.00 
G01 X56.1650 Y19.7756 F508.00 
G01 X56.1296 Y19.9534 
G01 X56.0603 Y20.1208 
G01 X55.9596 Y20.2715 
G01 X55.8315 Y20.3996 
G01 X55.6808 Y20.5003 
G01 X55.5134 Y20.5696 
G01 X55.3356 Y20.6050 
G01 X55.1544 Y20.6050 
G01 X54.9766 Y20.5696 
G01 X54.8092 Y20.5003 
G01 X54.6585 Y20.3996 
G01 X54.5304 Y20.2715 
G01 X54.4297 Y20.1208 
G01 X54.3604 Y19.9534 
G01 X54.3250 Y19.7756 
G01 X54.3250 Y19.5944 
G01 X54.3604 Y19.4166 
G01 X54.4297 Y19.2492 
G01 X54.5304 Y19.0985 
G01 X54.6585 Y18.9704 
G01 X54.8092 Y18.8697 
G01 X54.9766 Y18.8004 
G01 X55.1544 Y18.7650 
G01 X55.3356 Y18.7650 
G01 X55.5134 Y18.8004 
G01 X55.6808 Y18.8697 
G01 X55.8315 Y18.9704 
G01 X55.9596 Y19.0985 
G01 X56.0603 Y19.2492 
G01 X56.1296 Y19.4166 
G01 X56.1650 Y19.5944 
G00 Z2.5400 
G00 X51.0850 Y20.8644 
G01 Z-0.2000 F254.00 
G01 X51.0850 Y21.0456 F508.00 
G01 X51.0496 Y21.2234 
G01 X50.9803 Y21.3908 
G01 X50.8796 Y21.5415 
G01 X50.7515 Y21.6696 
G01 X50.6008 Y21.7703 
G01 X50.4334 Y21.8396 
G01 X50.2556 Y21.8750 
G01 X50.0744 Y21.8750 
G01 X49.8966 Y21.8396 
G01 X49.7292 Y21.7703 
G01 X49.5785 Y21.6696 
G01 X49.4504 Y21.5415 
G01 X49.3497 Y21.3908 
G01 X49.2804 Y21.2234 
G01 X49.2450 Y21.0456 
G01 X49.2450 Y20.8644 
G01 X49.2804 Y20.6866 
G01 X49.3497 Y20.5192 
G01 X49.4504 Y20.3685 
G01 X49.5785 Y20.2404 
G01 X49.7292 Y20.1397 
G01 X49.8966 Y20.0704 
G01 X50.0744 Y20.0350 
G01 X50.2556 Y20.0350 
G01 X50.4334 Y20.0704 
G01 X50.6008 Y20.1397 
G01 X50.7515 Y20.2404 
G01 X50.8796 Y20.3685 
G01 X50.9803 Y20.5192 
G01 X51.0496 Y20.6866 
G01 X51.0850 Y20.8644 
G00 Z2.5400 
G00 X56.1650 Y22.1344 
G01 Z-0.2000 F254.00 
G01 X56.1650 Y22.3156 F508.00 
G01 X56.1296 Y22.4934 
G01 X56.0603 Y22.6608 
G01 X55.9596 Y22.8115 
G01 X55.8315 Y22.9396 
G01 X55.6808 Y23.0403 
G01 X55.5134 Y23.1096 
G01 X55.3356 Y23.1450 
G01 X55.1544 Y23.1450 
G01 X54.9766 Y23.1096 
G01 X54.8092 Y23.0403 
G01 X54.6585 Y22.9396 
G01 X54.5304 Y22.8115 
G01 X54.4297 Y22.6608 
G01 X54.3604 Y22.4934 
G01 X54.3250 Y22.3156 
G01 X54.3250 Y22.1344 
G01 X54.3604 Y21.9566 
G01 X54.4297 Y21.7892 
G01 X54.5304 Y21.6385 
G01 X54.6585 Y21.5104 
G01 X54.8092 Y21.4097 
G01 X54.9766 Y21.3404 
G01 X55.1544 Y21.3050 
G01 X55.3356 Y21.3050 
G01 X55.5134 Y21.3404 
G01 X55.6808 Y21.4097 
G01 X55.8315 Y21.5104 
G01 X55.9596 Y21.6385 
G01 X56.0603 Y21.7892 
G01 X56.1296 Y21.9566 
G01 X56.1650 Y22.1344 
G00 Z2.5400 
G00 X51.0850 Y23.4044 
G01 Z-0.2000 F254.00 
G01 X51.0850 Y23.5856 F508.00 
G01 X51.0496 Y23.7634 
G01 X50.9803 Y23.9308 
G01 X50.8796 Y24.0815 
G01 X50.7515 Y24.2096 
G01 X50.6008 Y24.3103 
G01 X50.4334 Y24.3796 
G01 X50.2556 Y24.4150 
G01 X50.0744 Y24.4150 
G01 X49.8966 Y24.3796 
G01 X49.7292 Y24.3103 
G01 X49.5785 Y24.2096 
G01 X49.4504 Y24.0815 
G01 X49.3497 Y23.9308 
G01 X49.2804 Y23.7634 
G01 X49.2450 Y23.5856 
G01 X49.2450 Y23.4044 
G01 X49.2804 Y23.2266 
G01 X49.3497 Y23.0592 
G01 X49.4504 Y22.9085 
G01 X49.5785 Y22.7804 
G01 X49.7292 Y22.6797 
G01 X49.8966 Y22.6104 
G01 X50.0744 Y22.5750 
G01 X50.2556 Y22.5750 
G01 X50.4334 Y22.6104 
G01 X50.6008 Y22.6797 
G01 X50.7515 Y22.7804 
G01 X50.8796 Y22.9085 
G01 X50.9803 Y23.0592 
G01 X51.0496 Y23.2266 
G01 X51.0850 Y23.4044 
G00 Z2.5400 
G00 X56.1650 Y24.6744 
G01 Z-0.2000 F254.00 
G01 X56.1650 Y24.8556 F508.00 
G01 X56.1296 Y25.0334 
G01 X56.0603 Y25.2008 
G01 X55.9596 Y25.3515 
G01 X55.8315 Y25.4796 
G01 X55.6808 Y25.5803 
G01 X55.5134 Y25.6496 
G01 X55.3356 Y25.6850 
G01 X55.1544 Y25.6850 
G01 X54.9766 Y25.6496 
G01 X54.8092 Y25.5803 
G01 X54.6585 Y25.4796 
G01 X54.5304 Y25.3515 
G01 X54.4297 Y25.2008 
G01 X54.3604 Y25.0334 
G01 X54.3250 Y24.8556 
G01 X54.3250 Y24.6744 
G01 X54.3604 Y24.4966 
G01 X54.4297 Y24.3292 
G01 X54.5304 Y24.1785 
G01 X54.6585 Y24.0504 
G01 X54.8092 Y23.9497 
G01 X54.9766 Y23.8804 
G01 X55.1544 Y23.8450 
G01 X55.3356 Y23.8450 
G01 X55.5134 Y23.8804 
G01 X55.6808 Y23.9497 
G01 X55.8315 Y24.0504 
G01 X55.9596 Y24.1785 
G01 X56.0603 Y24.3292 
G01 X56.1296 Y24.4966 
G01 X56.1650 Y24.6744 
G00 Z2.5400 
G00 X51.0850 Y25.9444 
G01 Z-0.2000 F254.00 
G01 X51.0850 Y26.1256 F508.00 
G01 X51.0496 Y26.3034 
G01 X50.9803 Y26.4708 
G01 X50.8796 Y26.6215 
G01 X50.7515 Y26.7496 
G01 X50.6008 Y26.8503 
G01 X50.4334 Y26.9196 
G01 X50.2556 Y26.9550 
G01 X50.0744 Y26.9550 
G01 X49.8966 Y26.9196 
G01 X49.7292 Y26.8503 
G01 X49.5785 Y26.7496 
G01 X49.4504 Y26.6215 
G01 X49.3497 Y26.4708 
G01 X49.2804 Y26.3034 
G01 X49.2450 Y26.1256 
G01 X49.2450 Y25.9444 
G01 X49.2804 Y25.7666 
G01 X49.3497 Y25.5992 
G01 X49.4504 Y25.4485 
G01 X49.5785 Y25.3204 
G01 X49.7292 Y25.2197 
G01 X49.8966 Y25.1504 
G01 X50.0744 Y25.1150 
G01 X50.2556 Y25.1150 
G01 X50.4334 Y25.1504 
G01 X50.6008 Y25.2197 
G01 X50.7515 Y25.3204 
G01 X50.8796 Y25.4485 
G01 X50.9803 Y25.5992 
G01 X51.0496 Y25.7666 
G01 X51.0850 Y25.9444 
G00 Z2.5400 
G00 X56.1650 Y27.2144 
G01 Z-0.2000 F254.00 
G01 X56.1650 Y27.3956 F508.00 
G01 X56.1296 Y27.5734 
G01 X56.0603 Y27.7408 
G01 X55.9596 Y27.8915 
G01 X55.8315 Y28.0196 
G01 X55.6808 Y28.1203 
G01 X55.5134 Y28.1896 
G01 X55.3356 Y28.2250 
G01 X55.1544 Y28.2250 
G01 X54.9766 Y28.1896 
G01 X54.8092 Y28.1203 
G01 X54.6585 Y28.0196 
G01 X54.5304 Y27.8915 
G01 X54.4297 Y27.7408 
G01 X54.3604 Y27.5734 
G01 X54.3250 Y27.3956 
G01 X54.3250 Y27.2144 
G01 X54.3604 Y27.0366 
G01 X54.4297 Y26.8692 
G01 X54.5304 Y26.7185 
G01 X54.6585 Y26.5904 
G01 X54.8092 Y26.4897 
G01 X54.9766 Y26.4204 
G01 X55.1544 Y26.3850 
G01 X55.3356 Y26.3850 
G01 X55.5134 Y26.4204 
G01 X55.6808 Y26.4897 
G01 X55.8315 Y26.5904 
G01 X55.9596 Y26.7185 
G01 X56.0603 Y26.8692 
G01 X56.1296 Y27.0366 
G01 X56.1650 Y27.2144 
G00 Z2.5400 
G00 X51.0850 Y28.4844 
G01 Z-0.2000 F254.00 
G01 X51.0850 Y28.6656 F508.00 
G01 X51.0496 Y28.8434 
G01 X50.9803 Y29.0108 
G01 X50.8796 Y29.1615 
G01 X50.7515 Y29.2896 
G01 X50.6008 Y29.3903 
G01 X50.4334 Y29.4596 
G01 X50.2556 Y29.4950 
G01 X50.0744 Y29.4950 
G01 X49.8966 Y29.4596 
G01 X49.7292 Y29.3903 
G01 X49.5785 Y29.2896 
G01 X49.4504 Y29.1615 
G01 X49.3497 Y29.0108 
G01 X49.2804 Y28.8434 
G01 X49.2450 Y28.6656 
G01 X49.2450 Y28.4844 
G01 X49.2804 Y28.3066 
G01 X49.3497 Y28.1392 
G01 X49.4504 Y27.9885 
G01 X49.5785 Y27.8604 
G01 X49.7292 Y27.7597 
G01 X49.8966 Y27.6904 
G01 X50.0744 Y27.6550 
G01 X50.2556 Y27.6550 
G01 X50.4334 Y27.6904 
G01 X50.6008 Y27.7597 
G01 X50.7515 Y27.8604 
G01 X50.8796 Y27.9885 
G01 X50.9803 Y28.1392 
G01 X51.0496 Y28.3066 
G01 X51.0850 Y28.4844 
G00 Z2.5400 
G00 X56.1650 Y29.7544 
G01 Z-0.2000 F254.00 
G01 X56.1650 Y29.9356 F508.00 
G01 X56.1296 Y30.1134 
G01 X56.0603 Y30.2808 
G01 X55.9596 Y30.4315 
G01 X55.8315 Y30.5596 
G01 X55.6808 Y30.6603 
G01 X55.5134 Y30.7296 
G01 X55.3356 Y30.7650 
G01 X55.1544 Y30.7650 
G01 X54.9766 Y30.7296 
G01 X54.8092 Y30.6603 
G01 X54.6585 Y30.5596 
G01 X54.5304 Y30.4315 
G01 X54.4297 Y30.2808 
G01 X54.3604 Y30.1134 
G01 X54.3250 Y29.9356 
G01 X54.3250 Y29.7544 
G01 X54.3604 Y29.5766 
G01 X54.4297 Y29.4092 
G01 X54.5304 Y29.2585 
G01 X54.6585 Y29.1304 
G01 X54.8092 Y29.0297 
G01 X54.9766 Y28.9604 
G01 X55.1544 Y28.9250 
G01 X55.3356 Y28.9250 
G01 X55.5134 Y28.9604 
G01 X55.6808 Y29.0297 
G01 X55.8315 Y29.1304 
G01 X55.9596 Y29.2585 
G01 X56.0603 Y29.4092 
G01 X56.1296 Y29.5766 
G01 X56.1650 Y29.7544 
G00 Z2.5400 
G00 X51.0850 Y31.0244 
G01 Z-0.2000 F254.00 
G01 X51.0850 Y31.2056 F508.00 
G01 X51.0496 Y31.3834 
G01 X50.9803 Y31.5508 
G01 X50.8796 Y31.7015 
G01 X50.7515 Y31.8296 
G01 X50.6008 Y31.9303 
G01 X50.4334 Y31.9996 
G01 X50.2556 Y32.0350 
G01 X50.0744 Y32.0350 
G01 X49.8966 Y31.9996 
G01 X49.7292 Y31.9303 
G01 X49.5785 Y31.8296 
G01 X49.4504 Y31.7015 
G01 X49.3497 Y31.5508 
G01 X49.2804 Y31.3834 
G01 X49.2450 Y31.2056 
G01 X49.2450 Y31.0244 
G01 X49.2804 Y30.8466 
G01 X49.3497 Y30.6792 
G01 X49.4504 Y30.5285 
G01 X49.5785 Y30.4004 
G01 X49.7292 Y30.2997 
G01 X49.8966 Y30.2304 
G01 X50.0744 Y30.1950 
G01 X50.2556 Y30.1950 
G01 X50.4334 Y30.2304 
G01 X50.6008 Y30.2997 
G01 X50.7515 Y30.4004 
G01 X50.8796 Y30.5285 
G01 X50.9803 Y30.6792 
G01 X51.0496 Y30.8466 
G01 X51.0850 Y31.0244 
G00 Z2.5400 
G00 X56.1650 Y32.2944 
G01 Z-0.2000 F254.00 
G01 X56.1650 Y32.4756 F508.00 
G01 X56.1296 Y32.6534 
G01 X56.0603 Y32.8208 
G01 X55.9596 Y32.9715 
G01 X55.8315 Y33.0996 
G01 X55.6808 Y33.2003 
G01 X55.5134 Y33.2696 
G01 X55.3356 Y33.3050 
G01 X55.1544 Y33.3050 
G01 X54.9766 Y33.2696 
G01 X54.8092 Y33.2003 
G01 X54.6585 Y33.0996 
G01 X54.5304 Y32.9715 
G01 X54.4297 Y32.8208 
G01 X54.3604 Y32.6534 
G01 X54.3250 Y32.4756 
G01 X54.3250 Y32.2944 
G01 X54.3604 Y32.1166 
G01 X54.4297 Y31.9492 
G01 X54.5304 Y31.7985 
G01 X54.6585 Y31.6704 
G01 X54.8092 Y31.5697 
G01 X54.9766 Y31.5004 
G01 X55.1544 Y31.4650 
G01 X55.3356 Y31.4650 
G01 X55.5134 Y31.5004 
G01 X55.6808 Y31.5697 
G01 X55.8315 Y31.6704 
G01 X55.9596 Y31.7985 
G01 X56.0603 Y31.9492 
G01 X56.1296 Y32.1166 
G01 X56.1650 Y32.2944 
G00 Z2.5400 
G00 X51.0850 Y33.5644 
G01 Z-0.2000 F254.00 
G01 X51.0850 Y33.7456 F508.00 
G01 X51.0496 Y33.9234 
G01 X50.9803 Y34.0908 
G01 X50.8796 Y34.2415 
G01 X50.7515 Y34.3696 
G01 X50.6008 Y34.4703 
G01 X50.4334 Y34.5396 
G01 X50.2556 Y34.5750 
G01 X50.0744 Y34.5750 
G01 X49.8966 Y34.5396 
G01 X49.7292 Y34.4703 
G01 X49.5785 Y34.3696 
G01 X49.4504 Y34.2415 
G01 X49.3497 Y34.0908 
G01 X49.2804 Y33.9234 
G01 X49.2450 Y33.7456 
G01 X49.2450 Y33.5644 
G01 X49.2804 Y33.3866 
G01 X49.3497 Y33.2192 
G01 X49.4504 Y33.0685 
G01 X49.5785 Y32.9404 
G01 X49.7292 Y32.8397 
G01 X49.8966 Y32.7704 
G01 X50.0744 Y32.7350 
G01 X50.2556 Y32.7350 
G01 X50.4334 Y32.7704 
G01 X50.6008 Y32.8397 
G01 X50.7515 Y32.9404 
G01 X50.8796 Y33.0685 
G01 X50.9803 Y33.2192 
G01 X51.0496 Y33.3866 
G01 X51.0850 Y33.5644 
G00 Z2.5400 
G00 X2.1876 Y25.0360 
G01 Z-0.2000 F254.00 
G01 X4.1624 Y25.0360 F508.00 
G01 X4.3554 Y25.0744 
G01 X4.5372 Y25.1497 
G01 X4.7008 Y25.2590 
G01 X4.8400 Y25.3982 
G01 X4.9493 Y25.5618 
G01 X5.0246 Y25.7436 
G01 X5.0630 Y25.9366 
G01 X5.0630 Y26.1334 
G01 X5.0246 Y26.3264 
G01 X4.9493 Y26.5082 
G01 X4.8400 Y26.6718 
G01 X4.7008 Y26.8110 
G01 X4.5372 Y26.9203 
G01 X4.3554 Y26.9956 
G01 X4.1624 Y27.0340 
G01 X2.1876 Y27.0340 
G01 X1.9946 Y26.9956 
G01 X1.8128 Y26.9203 
G01 X1.6492 Y26.8110 
G01 X1.5100 Y26.6718 
G01 X1.4007 Y26.5082 
G01 X1.3254 Y26.3264 
G01 X1.2870 Y26.1334 
G01 X1.2870 Y25.9366 
G01 X1.3254 Y25.7436 
G01 X1.4007 Y25.5618 
G01 X1.5100 Y25.3982 
G01 X1.6492 Y25.2590 
G01 X1.8128 Y25.1497 
G01 X1.9946 Y25.0744 
G01 X2.1876 Y25.0360 
G00 Z2.5400 
G00 X2.1876 Y27.5760 
G01 Z-0.2000 F254.00 
G01 X4.1624 Y27.5760 F508.00 
G01 X4.3554 Y27.6144 
G01 X4.5372 Y27.6897 
G01 X4.7008 Y27.7990 
G01 X4.8400 Y27.9382 
G01 X4.9493 Y28.1018 
G01 X5.0246 Y28.2836 
G01 X5.0630 Y28.4766 
G01 X5.0630 Y28.6734 
G01 X5.0246 Y28.8664 
G01 X4.9493 Y29.0482 
G01 X4.8400 Y29.2118 
G01 X4.7008 Y29.3510 
G01 X4.5372 Y29.4603 
G01 X4.3554 Y29.5356 
G01 X4.1624 Y29.5740 
G01 X2.1876 Y29.5740 
G01 X1.9946 Y29.5356 
G01 X1.8128 Y29.4603 
G01 X1.6492 Y29.3510 
G01 X1.5100 Y29.2118 
G01 X1.4007 Y29.0482 
G01 X1.3254 Y28.8664 
G01 X1.2870 Y28.6734 
G01 X1.2870 Y28.4766 
G01 X1.3254 Y28.2836 
G01 X1.4007 Y28.1018 
G01 X1.5100 Y27.9382 
G01 X1.6492 Y27.7990 
G01 X1.8128 Y27.6897 
G01 X1.9946 Y27.6144 
G01 X2.1876 Y27.5760 
G00 Z2.5400 
G00 X2.1876 Y22.4960 
G01 Z-0.2000 F254.00 
G01 X4.1624 Y22.4960 F508.00 
G01 X4.3554 Y22.5344 
G01 X4.5372 Y22.6097 
G01 X4.7008 Y22.7190 
G01 X4.8400 Y22.8582 
G01 X4.9493 Y23.0218 
G01 X5.0246 Y23.2036 
G01 X5.0630 Y23.3966 
G01 X5.0630 Y23.5934 
G01 X5.0246 Y23.7864 
G01 X4.9493 Y23.9682 
G01 X4.8400 Y24.1318 
G01 X4.7008 Y24.2710 
G01 X4.5372 Y24.3803 
G01 X4.3554 Y24.4556 
G01 X4.1624 Y24.4940 
G01 X2.1876 Y24.4940 
G01 X1.9946 Y24.4556 
G01 X1.8128 Y24.3803 
G01 X1.6492 Y24.2710 
G01 X1.5100 Y24.1318 
G01 X1.4007 Y23.9682 
G01 X1.3254 Y23.7864 
G01 X1.2870 Y23.5934 
G01 X1.2870 Y23.3966 
G01 X1.3254 Y23.2036 
G01 X1.4007 Y23.0218 
G01 X1.5100 Y22.8582 
G01 X1.6492 Y22.7190 
G01 X1.8128 Y22.6097 
G01 X1.9946 Y22.5344 
G01 X2.1876 Y22.4960 
G00 Z2.5400 
G00 X2.1876 Y19.9560 
G01 Z-0.2000 F254.00 
G01 X4.1624 Y19.9560 F508.00 
G01 X4.3554 Y19.9944 
G01 X4.5372 Y20.0697 
G01 X4.7008 Y20.1790 
G01 X4.8400 Y20.3182 
G01 X4.9493 Y20.4818 
G01 X5.0246 Y20.6636 
G01 X5.0630 Y20.8566 
G01 X5.0630 Y21.0534 
G01 X5.0246 Y21.2464 
G01 X4.9493 Y21.4282 
G01 X4.8400 Y21.5918 
G01 X4.7008 Y21.7310 
G01 X4.5372 Y21.8403 
G01 X4.3554 Y21.9156 
G01 X4.1624 Y21.9540 
G01 X2.1876 Y21.9540 
G01 X1.9946 Y21.9156 
G01 X1.8128 Y21.8403 
G01 X1.6492 Y21.7310 
G01 X1.5100 Y21.5918 
G01 X1.4007 Y21.4282 
G01 X1.3254 Y21.2464 
G01 X1.2870 Y21.0534 
G01 X1.2870 Y20.8566 
G01 X1.3254 Y20.6636 
G01 X1.4007 Y20.4818 
G01 X1.5100 Y20.3182 
G01 X1.6492 Y20.1790 
G01 X1.8128 Y20.0697 
G01 X1.9946 Y19.9944 
G01 X2.1876 Y19.9560 
G00 Z2.5400 
G00 X2.1876 Y17.4160 
G01 Z-0.2000 F254.00 
G01 X4.1624 Y17.4160 F508.00 
G01 X4.3554 Y17.4544 
G01 X4.5372 Y17.5297 
G01 X4.7008 Y17.6390 
G01 X4.8400 Y17.7782 
G01 X4.9493 Y17.9418 
G01 X5.0246 Y18.1236 
G01 X5.0630 Y18.3166 
G01 X5.0630 Y18.5134 
G01 X5.0246 Y18.7064 
G01 X4.9493 Y18.8882 
G01 X4.8400 Y19.0518 
G01 X4.7008 Y19.1910 
G01 X4.5372 Y19.3003 
G01 X4.3554 Y19.3756 
G01 X4.1624 Y19.4140 
G01 X2.1876 Y19.4140 
G01 X1.9946 Y19.3756 
G01 X1.8128 Y19.3003 
G01 X1.6492 Y19.1910 
G01 X1.5100 Y19.0518 
G01 X1.4007 Y18.8882 
G01 X1.3254 Y18.7064 
G01 X1.2870 Y18.5134 
G01 X1.2870 Y18.3166 
G01 X1.3254 Y18.1236 
G01 X1.4007 Y17.9418 
G01 X1.5100 Y17.7782 
G01 X1.6492 Y17.6390 
G01 X1.8128 Y17.5297 
G01 X1.9946 Y17.4544 
G01 X2.1876 Y17.4160 
G00 Z2.5400 
G00 X2.1876 Y30.1160 
G01 Z-0.2000 F254.00 
G01 X4.1624 Y30.1160 F508.00 
G01 X4.3554 Y30.1544 
G01 X4.5372 Y30.2297 
G01 X4.7008 Y30.3390 
G01 X4.8400 Y30.4782 
G01 X4.9493 Y30.6418 
G01 X5.0246 Y30.8236 
G01 X5.0630 Y31.0166 
G01 X5.0630 Y31.2134 
G01 X5.0246 Y31.4064 
G01 X4.9493 Y31.5882 
G01 X4.8400 Y31.7518 
G01 X4.7008 Y31.8910 
G01 X4.5372 Y32.0003 
G01 X4.3554 Y32.0756 
G01 X4.1624 Y32.1140 
G01 X2.1876 Y32.1140 
G01 X1.9946 Y32.0756 
G01 X1.8128 Y32.0003 
G01 X1.6492 Y31.8910 
G01 X1.5100 Y31.7518 
G01 X1.4007 Y31.5882 
G01 X1.3254 Y31.4064 
G01 X1.2870 Y31.2134 
G01 X1.2870 Y31.0166 
G01 X1.3254 Y30.8236 
G01 X1.4007 Y30.6418 
G01 X1.5100 Y30.4782 
G01 X1.6492 Y30.3390 
G01 X1.8128 Y30.2297 
G01 X1.9946 Y30.1544 
G01 X2.1876 Y30.1160 
G00 Z2.5400 
G00 X2.1876 Y32.6560 
G01 Z-0.2000 F254.00 
G01 X4.1624 Y32.6560 F508.00 
G01 X4.3554 Y32.6944 
G01 X4.5372 Y32.7697 
G01 X4.7008 Y32.8790 
G01 X4.8400 Y33.0182 
G01 X4.9493 Y33.1818 
G01 X5.0246 Y33.3636 
G01 X5.0630 Y33.5566 
G01 X5.0630 Y33.7534 
G01 X5.0246 Y33.9464 
G01 X4.9493 Y34.1282 
G01 X4.8400 Y34.2918 
G01 X4.7008 Y34.4310 
G01 X4.5372 Y34.5403 
G01 X4.3554 Y34.6156 
G01 X4.1624 Y34.6540 
G01 X2.1876 Y34.6540 
G01 X1.9946 Y34.6156 
G01 X1.8128 Y34.5403 
G01 X1.6492 Y34.4310 
G01 X1.5100 Y34.2918 
G01 X1.4007 Y34.1282 
G01 X1.3254 Y33.9464 
G01 X1.2870 Y33.7534 
G01 X1.2870 Y33.5566 
G01 X1.3254 Y33.3636 
G01 X1.4007 Y33.1818 
G01 X1.5100 Y33.0182 
G01 X1.6492 Y32.8790 
G01 X1.8128 Y32.7697 
G01 X1.9946 Y32.6944 
G01 X2.1876 Y32.6560 
G00 Z2.5400 
G00 X2.1876 Y35.1960 
G01 Z-0.2000 F254.00 
G01 X4.1624 Y35.1960 F508.00 
G01 X4.3554 Y35.2344 
G01 X4.5372 Y35.3097 
G01 X4.7008 Y35.4190 
G01 X4.8400 Y35.5582 
G01 X4.9493 Y35.7218 
G01 X5.0246 Y35.9036 
G01 X5.0630 Y36.0966 
G01 X5.0630 Y36.2934 
G01 X5.0246 Y36.4864 
G01 X4.9493 Y36.6682 
G01 X4.8400 Y36.8318 
G01 X4.7008 Y36.9710 
G01 X4.5372 Y37.0803 
G01 X4.3554 Y37.1556 
G01 X4.1624 Y37.1940 
G01 X2.1876 Y37.1940 
G01 X1.9946 Y37.1556 
G01 X1.8128 Y37.0803 
G01 X1.6492 Y36.9710 
G01 X1.5100 Y36.8318 
G01 X1.4007 Y36.6682 
G01 X1.3254 Y36.4864 
G01 X1.2870 Y36.2934 
G01 X1.2870 Y36.0966 
G01 X1.3254 Y35.9036 
G01 X1.4007 Y35.7218 
G01 X1.5100 Y35.5582 
G01 X1.6492 Y35.4190 
G01 X1.8128 Y35.3097 
G01 X1.9946 Y35.2344 
G01 X2.1876 Y35.1960 
G00 Z2.5400 
G00 Z2.540000
G00 X13.3350 Y13.3350 
G01 Z-0.2000 F254.00 
G01 Z2.540000
(R2.5400  P1.000000)
(G00 Z2.540000)
G00 X10.7950 Y13.3350 
G01 Z-0.400000
G01 Z2.540000
(G00 Z2.540000)
G00 X8.2550 Y13.3350 
G01 Z-0.400000
G01 Z2.540000
(G00 Z2.540000)
G00 X17.1450 Y35.5600 
G01 Z-0.400000
G01 Z2.540000
(G00 Z2.540000)
G00 X17.1450 Y33.0200 
G01 Z-0.400000
G01 Z2.540000
(G00 Z2.540000)
G00 X17.1450 Y30.4800 
G01 Z-0.400000
G01 Z2.540000
(G00 Z2.540000)
G00 X17.1450 Y27.9400 
G01 Z-0.400000
G01 Z2.540000
(G00 Z2.540000)
G00 X17.1450 Y25.4000 
G01 Z-0.400000
G01 Z2.540000
(G00 Z2.540000)
G00 X17.1450 Y22.8600 
G01 Z-0.400000
G01 Z2.540000
(G00 Z2.540000)
G00 X17.1450 Y20.3200 
G01 Z-0.400000
G01 Z2.540000
(G00 Z2.540000)
G00 X17.1450 Y17.7800 
G01 Z-0.400000
G01 Z2.540000
(G00 Z2.540000)
G00 X40.0050 Y35.5600 
G01 Z-0.400000
G01 Z2.540000
(G00 Z2.540000)
G00 X40.0050 Y33.0200 
G01 Z-0.400000
G01 Z2.540000
(G00 Z2.540000)
G00 X40.0050 Y30.4800 
G01 Z-0.400000
G01 Z2.540000
(G00 Z2.540000)
G00 X40.0050 Y27.9400 
G01 Z-0.400000
G01 Z2.540000
(G00 Z2.540000)
G00 X40.0050 Y25.4000 
G01 Z-0.400000
G01 Z2.540000
(G00 Z2.540000)
G00 X40.0050 Y22.8600 
G01 Z-0.400000
G01 Z2.540000
(G00 Z2.540000)
G00 X40.0050 Y20.3200 
G01 Z-0.400000
G01 Z2.540000
(G00 Z2.540000)
G00 X40.0050 Y17.7800 
G01 Z-0.400000
G01 Z2.540000
(G00 Z2.540000)
G00 X64.1350 Y14.6450 
G01 Z-0.400000
G01 Z2.540000
(G00 Z2.540000)
G00 X64.1350 Y19.6450 
G01 Z-0.400000
G01 Z2.540000
(G00 Z2.540000)
G00 X64.1350 Y4.4850 
G01 Z-0.400000
G01 Z2.540000
(G00 Z2.540000)
G00 X64.1350 Y9.4850 
G01 Z-0.400000
G01 Z2.540000
(G00 Z2.540000)
G00 X64.1350 Y40.0450 
G01 Z-0.400000
G01 Z2.540000
(G00 Z2.540000)
G00 X64.1350 Y45.0450 
G01 Z-0.400000
G01 Z2.540000
(G00 Z2.540000)
G00 X64.1350 Y29.8850 
G01 Z-0.400000
G01 Z2.540000
(G00 Z2.540000)
G00 X64.1350 Y34.8850 
G01 Z-0.400000
G01 Z2.540000
(G00 Z2.540000)
G00 X9.5250 Y36.1950 
G01 Z-0.400000
G01 Z2.540000
(G00 Z2.540000)
G00 X9.5250 Y33.6550 
G01 Z-0.400000
G01 Z2.540000
(G00 Z2.540000)
G00 X9.5250 Y31.1150 
G01 Z-0.400000
G01 Z2.540000
(G00 Z2.540000)
G00 X9.5250 Y28.5750 
G01 Z-0.400000
G01 Z2.540000
(G00 Z2.540000)
G00 X50.1650 Y15.8750 
G01 Z-0.400000
G01 Z2.540000
(G00 Z2.540000)
G00 X55.2450 Y17.1450 
G01 Z-0.400000
G01 Z2.540000
(G00 Z2.540000)
G00 X50.1650 Y18.4150 
G01 Z-0.400000
G01 Z2.540000
(G00 Z2.540000)
G00 X55.2450 Y19.6850 
G01 Z-0.400000
G01 Z2.540000
(G00 Z2.540000)
G00 X50.1650 Y20.9550 
G01 Z-0.400000
G01 Z2.540000
(G00 Z2.540000)
G00 X55.2450 Y22.2250 
G01 Z-0.400000
G01 Z2.540000
(G00 Z2.540000)
G00 X50.1650 Y23.4950 
G01 Z-0.400000
G01 Z2.540000
(G00 Z2.540000)
G00 X55.2450 Y24.7650 
G01 Z-0.400000
G01 Z2.540000
(G00 Z2.540000)
G00 X50.1650 Y26.0350 
G01 Z-0.400000
G01 Z2.540000
(G00 Z2.540000)
G00 X55.2450 Y27.3050 
G01 Z-0.400000
G01 Z2.540000
(G00 Z2.540000)
G00 X50.1650 Y28.5750 
G01 Z-0.400000
G01 Z2.540000
(G00 Z2.540000)
G00 X55.2450 Y29.8450 
G01 Z-0.400000
G01 Z2.540000
(G00 Z2.540000)
G00 X50.1650 Y31.1150 
G01 Z-0.400000
G01 Z2.540000
(G00 Z2.540000)
G00 X55.2450 Y32.3850 
G01 Z-0.400000
G01 Z2.540000
(G00 Z2.540000)
G00 X50.1650 Y33.6550 
G01 Z-0.400000
G01 Z2.540000
(G00 Z2.540000)
G00 X3.1750 Y33.6550 
G01 Z-0.400000
G01 Z2.540000
(G00 Z2.540000)
G00 X3.1750 Y20.9550 
G01 Z-0.400000
G01 Z2.540000
(G00 Z2.540000)
G00 X3.1750 Y36.1950 
G01 Z-0.400000
G01 Z2.540000
(G00 Z2.540000)
G00 X3.1750 Y23.4950 
G01 Z-0.400000
G01 Z2.540000
(G00 Z2.540000)
G00 X3.1750 Y26.0350 
G01 Z-0.400000
G01 Z2.540000
(G00 Z2.540000)
G00 X3.1750 Y18.4150 
G01 Z-0.400000
G01 Z2.540000
(G00 Z2.540000)
G00 X3.1750 Y31.1150 
G01 Z-0.400000
G01 Z2.540000
(G00 Z2.540000)
G00 X3.1750 Y28.5750 
G01 Z-0.400000
G01 Z2.540000
G00 Z12.7000 
M05
M02
