(.../Documents/EAGLE/ulps/pcb-gcode.ulp)
(Copyright 2005 - 2012 by John Johnson)
(See readme.txt for licensing terms.)
(This file generated from the board:)
(.../Projects/ESP_Car/pcb/Control Board.brd)
(Current profile is .../EAGLE/ulps/profiles/generic.pp  )
(This file generated 09.07.2023 15:34)
(Settings from pcb-machine.h)
(  Tool Size)
(0.1000 )
(Z Axis Settings)
(  High     Up        Down     Drill)
(12.7000 	2.5400 	-0.2000 	-0.4000 )
(spindle on time = 3.0000)
(milling depth = -0.2000)
(text depth = -0.1270)
(tool change at 12.7000 15.2400 25.4000 )
(feed rate xy = F508.00 )
(feed rate z  = F254.00 )
(Settings from pcb-defaults.h)
(isolate min = 0.0100)
(isolate max = 0.7000)
(isolate step = 0.2500)
(Generated bottom outlines, bottom drill, )
(Unit of measure: mm)
(Metric Mode)
G21
(Absolute Coordinates)
G90
G00 X0.0000 Y0.0000 
M03
G04 P3.000000
G00 Z2.5400 
G00 X-21.2774 Y33.1876 
G01 Z-0.2000 F254.00 
G01 X-21.2774 Y32.8524 F508.00 
G01 X-21.1492 Y32.5428 
G01 X-20.9122 Y32.3058 
G01 X-20.6026 Y32.1776 
G01 X-18.7674 Y32.1776 
G01 X-18.4578 Y32.3058 
G01 X-18.2208 Y32.5428 
G01 X-18.0926 Y32.8524 
G01 X-18.0926 Y33.1876 
G01 X-18.2208 Y33.4972 
G01 X-18.4578 Y33.7341 
G01 X-18.7674 Y33.8624 
G01 X-20.6026 Y33.8624 
G01 X-20.9122 Y33.7341 
G01 X-21.1492 Y33.4972 
G01 X-21.2774 Y33.1876 
G00 Z2.5400 
G00 X-20.5148 Y33.8300 
G01 Z-0.2000 F254.00 
G01 X-18.8552 Y33.8300 F508.00 
G01 X-18.6987 Y33.7989 
G01 X-18.5513 Y33.7378 
G01 X-18.4187 Y33.6492 
G01 X-18.3058 Y33.5363 
G01 X-18.2172 Y33.4037 
G01 X-18.1561 Y33.2563 
G01 X-18.1250 Y33.0998 
G01 X-18.1250 Y32.9402 
G01 X-18.1561 Y32.7837 
G01 X-18.2172 Y32.6363 
G01 X-18.3058 Y32.5037 
G01 X-18.4187 Y32.3908 
G01 X-18.5513 Y32.3022 
G01 X-18.6987 Y32.2411 
G01 X-18.8552 Y32.2100 
G01 X-20.5148 Y32.2100 
G01 X-20.6713 Y32.2411 
G01 X-20.8187 Y32.3022 
G01 X-20.9513 Y32.3908 
G01 X-21.0642 Y32.5037 
G01 X-21.1528 Y32.6363 
G01 X-21.2139 Y32.7837 
G01 X-21.2450 Y32.9402 
G01 X-21.2450 Y33.0998 
G01 X-21.2139 Y33.2563 
G01 X-21.1528 Y33.4037 
G01 X-21.0642 Y33.5363 
G01 X-20.9513 Y33.6492 
G01 X-20.8187 Y33.7378 
G01 X-20.6713 Y33.7989 
G01 X-20.5148 Y33.8300 
G00 Z2.5400 
G00 X-21.2774 Y30.6476 
G01 Z-0.2000 F254.00 
G01 X-21.2774 Y30.3124 F508.00 
G01 X-21.1492 Y30.0028 
G01 X-20.9122 Y29.7658 
G01 X-20.6026 Y29.6376 
G01 X-18.7674 Y29.6376 
G01 X-18.5789 Y29.7157 
G01 X-18.5580 Y29.7277 
G01 X-18.5347 Y29.7340 
G01 X-18.5125 Y29.7432 
G01 X-18.4886 Y29.7464 
G01 X-18.4653 Y29.7526 
G01 X-18.4411 Y29.7526 
G01 X-18.4172 Y29.7557 
G01 X-18.3933 Y29.7526 
G01 X-17.6353 Y29.7526 
G01 X-17.3680 Y29.8633 
G01 X-14.3766 Y32.8547 
G01 X-14.2934 Y32.9027 
G01 X-14.2006 Y32.9276 
G01 X-13.3711 Y32.9276 
G01 X-13.3472 Y32.9307 
G01 X-13.3233 Y32.9276 
G01 X-13.2992 Y32.9276 
G01 X-13.2759 Y32.9214 
G01 X-13.2520 Y32.9182 
G01 X-13.2297 Y32.9090 
G01 X-13.2064 Y32.9027 
G01 X-13.1855 Y32.8907 
G01 X-12.9874 Y32.8086 
G01 X-11.1426 Y32.8086 
G01 X-10.8316 Y32.9375 
G01 X-10.5935 Y33.1756 
G01 X-10.4646 Y33.4866 
G01 X-10.4646 Y33.8234 
G01 X-10.5935 Y34.1344 
G01 X-10.8316 Y34.3725 
G01 X-11.1426 Y34.5014 
G01 X-12.9874 Y34.5014 
G01 X-13.1855 Y34.4193 
G01 X-13.2064 Y34.4073 
G01 X-13.2297 Y34.4010 
G01 X-13.2520 Y34.3918 
G01 X-13.2759 Y34.3886 
G01 X-13.2992 Y34.3824 
G01 X-13.3233 Y34.3824 
G01 X-13.3472 Y34.3792 
G01 X-13.3711 Y34.3824 
G01 X-14.7497 Y34.3824 
G01 X-15.0170 Y34.2717 
G01 X-18.0084 Y31.2803 
G01 X-18.0916 Y31.2323 
G01 X-18.1844 Y31.2074 
G01 X-18.3933 Y31.2074 
G01 X-18.4172 Y31.2043 
G01 X-18.4411 Y31.2074 
G01 X-18.4653 Y31.2074 
G01 X-18.4886 Y31.2136 
G01 X-18.5125 Y31.2168 
G01 X-18.5347 Y31.2260 
G01 X-18.5580 Y31.2323 
G01 X-18.5789 Y31.2443 
G01 X-18.7674 Y31.3224 
G01 X-20.6026 Y31.3224 
G01 X-20.9122 Y31.1942 
G01 X-21.1492 Y30.9572 
G01 X-21.2774 Y30.6476 
G00 Z2.5400 
G00 X-12.8992 Y34.4690 
G01 Z-0.2000 F254.00 
G01 X-11.2308 Y34.4690 F508.00 
G01 X-11.0736 Y34.4377 
G01 X-10.9254 Y34.3764 
G01 X-10.7921 Y34.2873 
G01 X-10.6787 Y34.1739 
G01 X-10.5896 Y34.0406 
G01 X-10.5283 Y33.8924 
G01 X-10.4970 Y33.7352 
G01 X-10.4970 Y33.5748 
G01 X-10.5283 Y33.4176 
G01 X-10.5896 Y33.2694 
G01 X-10.6787 Y33.1361 
G01 X-10.7921 Y33.0227 
G01 X-10.9254 Y32.9336 
G01 X-11.0736 Y32.8723 
G01 X-11.2308 Y32.8410 
G01 X-12.8992 Y32.8410 
G01 X-13.0564 Y32.8723 
G01 X-13.2046 Y32.9336 
G01 X-13.2440 Y32.9600 
G01 X-14.3171 Y32.9600 
G01 X-17.3370 Y29.9402 
G01 X-17.4508 Y29.8641 
G01 X-17.5773 Y29.8117 
G01 X-17.7115 Y29.7850 
G01 X-18.5172 Y29.7850 
G01 X-18.5513 Y29.7622 
G01 X-18.6987 Y29.7011 
G01 X-18.8552 Y29.6700 
G01 X-20.5148 Y29.6700 
G01 X-20.6713 Y29.7011 
G01 X-20.8187 Y29.7622 
G01 X-20.9513 Y29.8508 
G01 X-21.0642 Y29.9637 
G01 X-21.1528 Y30.0963 
G01 X-21.2139 Y30.2437 
G01 X-21.2450 Y30.4002 
G01 X-21.2450 Y30.5598 
G01 X-21.2139 Y30.7163 
G01 X-21.1528 Y30.8637 
G01 X-21.0642 Y30.9963 
G01 X-20.9513 Y31.1092 
G01 X-20.8187 Y31.1978 
G01 X-20.6713 Y31.2589 
G01 X-20.5148 Y31.2900 
G01 X-18.8552 Y31.2900 
G01 X-18.6987 Y31.2589 
G01 X-18.5513 Y31.1978 
G01 X-18.5172 Y31.1750 
G01 X-18.0679 Y31.1750 
G01 X-15.0480 Y34.1948 
G01 X-14.9342 Y34.2709 
G01 X-14.8077 Y34.3233 
G01 X-14.6735 Y34.3500 
G01 X-13.2440 Y34.3500 
G01 X-13.2046 Y34.3764 
G01 X-13.0564 Y34.4377 
G01 X-12.8992 Y34.4690 
G00 Z2.5400 
G00 X-21.1492 Y36.0372 
G01 Z-0.2000 F254.00 
G01 X-21.2774 Y35.7276 F508.00 
G01 X-21.2774 Y35.3924 
G01 X-21.1492 Y35.0828 
G01 X-20.9122 Y34.8458 
G01 X-20.6026 Y34.7176 
G01 X-18.7674 Y34.7176 
G01 X-18.4578 Y34.8458 
G01 X-18.2208 Y35.0828 
G01 X-18.0926 Y35.3924 
G01 X-18.0926 Y35.7276 
G01 X-18.2208 Y36.0372 
G01 X-18.4578 Y36.2741 
G01 X-18.7674 Y36.4024 
G01 X-20.6026 Y36.4024 
G01 X-20.9122 Y36.2741 
G01 X-21.1492 Y36.0372 
G00 Z2.5400 
G00 X-20.5148 Y36.3700 
G01 Z-0.2000 F254.00 
G01 X-18.8552 Y36.3700 F508.00 
G01 X-18.6987 Y36.3389 
G01 X-18.5513 Y36.2778 
G01 X-18.4187 Y36.1892 
G01 X-18.3058 Y36.0763 
G01 X-18.2172 Y35.9437 
G01 X-18.1561 Y35.7963 
G01 X-18.1250 Y35.6398 
G01 X-18.1250 Y35.4802 
G01 X-18.1561 Y35.3237 
G01 X-18.2172 Y35.1763 
G01 X-18.3058 Y35.0437 
G01 X-18.4187 Y34.9308 
G01 X-18.5513 Y34.8422 
G01 X-18.6987 Y34.7811 
G01 X-18.8552 Y34.7500 
G01 X-20.5148 Y34.7500 
G01 X-20.6713 Y34.7811 
G01 X-20.8187 Y34.8422 
G01 X-20.9513 Y34.9308 
G01 X-21.0642 Y35.0437 
G01 X-21.1528 Y35.1763 
G01 X-21.2139 Y35.3237 
G01 X-21.2450 Y35.4802 
G01 X-21.2450 Y35.6398 
G01 X-21.2139 Y35.7963 
G01 X-21.1528 Y35.9437 
G01 X-21.0642 Y36.0763 
G01 X-20.9513 Y36.1892 
G01 X-20.8187 Y36.2778 
G01 X-20.6713 Y36.3389 
G01 X-20.5148 Y36.3700 
G00 Z2.5400 
G00 X-62.1828 Y40.1591 
G01 Z-0.2000 F254.00 
G01 X-62.1557 Y40.1320 F508.00 
G01 X-62.1149 Y40.0912 
G01 X-62.0669 Y40.0080 
G01 X-62.0420 Y39.9152 
G01 X-62.0420 Y39.8192 
G01 X-62.0669 Y39.7264 
G01 X-62.1149 Y39.6432 
G01 X-62.1828 Y39.5753 
G01 X-62.2660 Y39.5273 
G01 X-62.3588 Y39.5024 
G01 X-63.0909 Y39.5024 
G01 X-63.1836 Y39.5273 
G01 X-63.2668 Y39.5753 
G01 X-63.3078 Y39.6163 
G01 X-63.6726 Y39.7674 
G01 X-65.8674 Y39.7674 
G01 X-66.2321 Y39.6163 
G01 X-66.5113 Y39.3371 
G01 X-66.6624 Y38.9724 
G01 X-66.6624 Y38.5776 
G01 X-66.5113 Y38.2128 
G01 X-66.2321 Y37.9337 
G01 X-65.8674 Y37.7826 
G01 X-63.6726 Y37.7826 
G01 X-63.3078 Y37.9337 
G01 X-63.2668 Y37.9747 
G01 X-63.1836 Y38.0227 
G01 X-63.0909 Y38.0476 
G01 X-53.1494 Y38.0476 
G01 X-53.0566 Y38.0227 
G01 X-52.9734 Y37.9747 
G01 X-51.6003 Y36.6016 
G01 X-51.5523 Y36.5184 
G01 X-51.5274 Y36.4256 
G01 X-51.5274 Y34.1453 
G01 X-51.4167 Y33.8780 
G01 X-51.1268 Y33.5881 
G01 X-49.9420 Y32.4033 
G01 X-49.6747 Y32.2926 
G01 X-48.9584 Y32.2926 
G01 X-48.9346 Y32.2957 
G01 X-48.9106 Y32.2926 
G01 X-48.8865 Y32.2926 
G01 X-48.8632 Y32.2864 
G01 X-48.8393 Y32.2832 
G01 X-48.8170 Y32.2740 
G01 X-48.7937 Y32.2677 
G01 X-48.7728 Y32.2557 
G01 X-48.4395 Y32.1176 
G01 X-48.0805 Y32.1176 
G01 X-47.7488 Y32.2550 
G01 X-47.4950 Y32.5088 
G01 X-47.3576 Y32.8405 
G01 X-47.3576 Y33.1995 
G01 X-47.4950 Y33.5312 
G01 X-47.7488 Y33.7850 
G01 X-48.0805 Y33.9224 
G01 X-48.4395 Y33.9224 
G01 X-48.7729 Y33.7843 
G01 X-48.7937 Y33.7723 
G01 X-48.8170 Y33.7660 
G01 X-48.8393 Y33.7568 
G01 X-48.8632 Y33.7536 
G01 X-48.8865 Y33.7474 
G01 X-48.9106 Y33.7474 
G01 X-48.9346 Y33.7443 
G01 X-48.9584 Y33.7474 
G01 X-49.1256 Y33.7474 
G01 X-49.2184 Y33.7723 
G01 X-49.3016 Y33.8203 
G01 X-49.3695 Y33.8882 
G01 X-49.9997 Y34.5184 
G01 X-50.0477 Y34.6016 
G01 X-50.0726 Y34.6944 
G01 X-50.0726 Y36.9747 
G01 X-50.1833 Y37.2420 
G01 X-52.1110 Y39.1697 
G01 X-52.3330 Y39.3917 
G01 X-52.6003 Y39.5024 
G01 X-59.3656 Y39.5024 
G01 X-59.4584 Y39.5273 
G01 X-59.5416 Y39.5753 
G01 X-59.5944 Y39.6281 
G01 X-62.8835 Y42.9172 
G01 X-62.9026 Y42.9319 
G01 X-62.9173 Y42.9510 
G01 X-62.9344 Y42.9681 
G01 X-62.9464 Y42.9889 
G01 X-62.9611 Y43.0081 
G01 X-62.9703 Y43.0303 
G01 X-62.9824 Y43.0512 
G01 X-62.9886 Y43.0745 
G01 X-62.9979 Y43.0968 
G01 X-63.0010 Y43.1207 
G01 X-63.0072 Y43.1440 
G01 X-63.0072 Y43.1681 
G01 X-63.0104 Y43.1921 
G01 X-63.0072 Y43.2159 
G01 X-63.0072 Y43.2401 
G01 X-63.0010 Y43.2634 
G01 X-62.9979 Y43.2873 
G01 X-62.9886 Y43.3096 
G01 X-62.9824 Y43.3329 
G01 X-62.9703 Y43.3537 
G01 X-62.8776 Y43.5776 
G01 X-62.8776 Y43.9724 
G01 X-63.0287 Y44.3371 
G01 X-63.3078 Y44.6163 
G01 X-63.6726 Y44.7674 
G01 X-65.8674 Y44.7674 
G01 X-66.2321 Y44.6163 
G01 X-66.5113 Y44.3371 
G01 X-66.6624 Y43.9724 
G01 X-66.6624 Y43.5776 
G01 X-66.5113 Y43.2128 
G01 X-66.2321 Y42.9337 
G01 X-65.8674 Y42.7826 
G01 X-64.9094 Y42.7826 
G01 X-64.8166 Y42.7577 
G01 X-64.7334 Y42.7097 
G01 X-64.6926 Y42.6689 
G01 X-62.1828 Y40.1591 
G00 Z2.5400 
G00 X-63.7754 Y37.8150 
G01 Z-0.2000 F254.00 
G01 X-65.7645 Y37.8150 F508.00 
G01 X-65.9500 Y37.8519 
G01 X-66.1247 Y37.9243 
G01 X-66.2820 Y38.0293 
G01 X-66.4157 Y38.1630 
G01 X-66.5207 Y38.3203 
G01 X-66.5931 Y38.4950 
G01 X-66.6300 Y38.6804 
G01 X-66.6300 Y38.8696 
G01 X-66.5931 Y39.0550 
G01 X-66.5207 Y39.2297 
G01 X-66.4157 Y39.3870 
G01 X-66.2820 Y39.5207 
G01 X-66.1247 Y39.6257 
G01 X-65.9500 Y39.6981 
G01 X-65.7645 Y39.7350 
G01 X-63.7754 Y39.7350 
G01 X-63.5900 Y39.6981 
G01 X-63.4153 Y39.6257 
G01 X-63.2580 Y39.5207 
G01 X-63.2074 Y39.4700 
G01 X-61.4479 Y39.4700 
G01 X-64.7929 Y42.8150 
G01 X-65.7645 Y42.8150 
G01 X-65.9500 Y42.8519 
G01 X-66.1247 Y42.9243 
G01 X-66.2820 Y43.0293 
G01 X-66.4157 Y43.1630 
G01 X-66.5207 Y43.3203 
G01 X-66.5931 Y43.4950 
G01 X-66.6300 Y43.6804 
G01 X-66.6300 Y43.8696 
G01 X-66.5931 Y44.0550 
G01 X-66.5207 Y44.2297 
G01 X-66.4157 Y44.3870 
G01 X-66.2820 Y44.5207 
G01 X-66.1247 Y44.6257 
G01 X-65.9500 Y44.6981 
G01 X-65.7645 Y44.7350 
G01 X-63.7754 Y44.7350 
G01 X-63.5900 Y44.6981 
G01 X-63.4153 Y44.6257 
G01 X-63.2580 Y44.5207 
G01 X-63.1243 Y44.3870 
G01 X-63.0193 Y44.2297 
G01 X-62.9469 Y44.0550 
G01 X-62.9100 Y43.8696 
G01 X-62.9100 Y43.6804 
G01 X-62.9469 Y43.4950 
G01 X-63.0193 Y43.3203 
G01 X-63.1243 Y43.1630 
G01 X-63.1497 Y43.1376 
G01 X-59.4821 Y39.4700 
G01 X-52.6765 Y39.4700 
G01 X-52.5423 Y39.4433 
G01 X-52.4158 Y39.3909 
G01 X-52.3020 Y39.3148 
G01 X-52.2052 Y39.2180 
G01 X-50.2602 Y37.2730 
G01 X-50.1841 Y37.1592 
G01 X-50.1317 Y37.0327 
G01 X-50.1050 Y36.8985 
G01 X-50.1050 Y34.5779 
G01 X-49.2421 Y33.7150 
G01 X-48.7858 Y33.7150 
G01 X-48.6721 Y33.7910 
G01 X-48.5138 Y33.8566 
G01 X-48.3457 Y33.8900 
G01 X-48.1743 Y33.8900 
G01 X-48.0062 Y33.8566 
G01 X-47.8479 Y33.7910 
G01 X-47.7054 Y33.6958 
G01 X-47.5842 Y33.5746 
G01 X-47.4890 Y33.4321 
G01 X-47.4234 Y33.2738 
G01 X-47.3900 Y33.1057 
G01 X-47.3900 Y32.9343 
G01 X-47.4234 Y32.7662 
G01 X-47.4890 Y32.6079 
G01 X-47.5842 Y32.4654 
G01 X-47.7054 Y32.3442 
G01 X-47.8479 Y32.2490 
G01 X-48.0062 Y32.1834 
G01 X-48.1743 Y32.1500 
G01 X-48.3457 Y32.1500 
G01 X-48.5138 Y32.1834 
G01 X-48.6721 Y32.2490 
G01 X-48.7858 Y32.3250 
G01 X-49.5984 Y32.3250 
G01 X-49.7327 Y32.3517 
G01 X-49.8592 Y32.4041 
G01 X-49.9730 Y32.4802 
G01 X-51.2430 Y33.7502 
G01 X-51.3398 Y33.8470 
G01 X-51.4159 Y33.9608 
G01 X-51.4683 Y34.0873 
G01 X-51.4950 Y34.2215 
G01 X-51.4950 Y36.5421 
G01 X-53.0329 Y38.0800 
G01 X-63.2074 Y38.0800 
G01 X-63.2580 Y38.0293 
G01 X-63.4153 Y37.9243 
G01 X-63.5900 Y37.8519 
G01 X-63.7754 Y37.8150 
G00 Z2.5400 
G00 X-65.8674 Y27.6226 
G01 Z-0.2000 F254.00 
G01 X-63.6726 Y27.6226 F508.00 
G01 X-63.3078 Y27.7737 
G01 X-63.0287 Y28.0528 
G01 X-62.8776 Y28.4176 
G01 X-62.8776 Y28.8124 
G01 X-62.9703 Y29.0363 
G01 X-62.9824 Y29.0571 
G01 X-62.9886 Y29.0804 
G01 X-62.9979 Y29.1027 
G01 X-63.0010 Y29.1266 
G01 X-63.0072 Y29.1499 
G01 X-63.0072 Y29.1740 
G01 X-63.0104 Y29.1979 
G01 X-63.0072 Y29.2219 
G01 X-63.0072 Y29.2460 
G01 X-63.0010 Y29.2693 
G01 X-62.9979 Y29.2932 
G01 X-62.9886 Y29.3155 
G01 X-62.9824 Y29.3388 
G01 X-62.9703 Y29.3596 
G01 X-62.9611 Y29.3819 
G01 X-62.9464 Y29.4010 
G01 X-62.9344 Y29.4219 
G01 X-62.9173 Y29.4390 
G01 X-62.9026 Y29.4581 
G01 X-62.8835 Y29.4728 
G01 X-59.9303 Y32.4260 
G01 X-59.7083 Y32.6480 
G01 X-59.5976 Y32.9153 
G01 X-59.5976 Y33.2458 
G01 X-59.5727 Y33.3386 
G01 X-59.5247 Y33.4218 
G01 X-59.4568 Y33.4897 
G01 X-59.3736 Y33.5377 
G01 X-59.2808 Y33.5626 
G01 X-54.0385 Y33.5626 
G01 X-54.0145 Y33.5657 
G01 X-53.9906 Y33.5626 
G01 X-53.9665 Y33.5626 
G01 X-53.9432 Y33.5564 
G01 X-53.9193 Y33.5532 
G01 X-53.8970 Y33.5440 
G01 X-53.8737 Y33.5377 
G01 X-53.8529 Y33.5257 
G01 X-53.5195 Y33.3876 
G01 X-53.1605 Y33.3876 
G01 X-52.8288 Y33.5250 
G01 X-52.5750 Y33.7788 
G01 X-52.4376 Y34.1105 
G01 X-52.4376 Y34.4695 
G01 X-52.5750 Y34.8012 
G01 X-52.8288 Y35.0550 
G01 X-53.1605 Y35.1924 
G01 X-53.5195 Y35.1924 
G01 X-53.8529 Y35.0543 
G01 X-53.8737 Y35.0423 
G01 X-53.8970 Y35.0360 
G01 X-53.9193 Y35.0268 
G01 X-53.9432 Y35.0236 
G01 X-53.9665 Y35.0174 
G01 X-53.9906 Y35.0174 
G01 X-54.0145 Y35.0143 
G01 X-54.0385 Y35.0174 
G01 X-64.2397 Y35.0174 
G01 X-64.5070 Y34.9067 
G01 X-64.7334 Y34.6803 
G01 X-64.8166 Y34.6323 
G01 X-64.9094 Y34.6074 
G01 X-65.8674 Y34.6074 
G01 X-66.2321 Y34.4563 
G01 X-66.5113 Y34.1771 
G01 X-66.6624 Y33.8124 
G01 X-66.6624 Y33.4176 
G01 X-66.5113 Y33.0528 
G01 X-66.2321 Y32.7737 
G01 X-65.8674 Y32.6226 
G01 X-63.6726 Y32.6226 
G01 X-63.3078 Y32.7737 
G01 X-63.0287 Y33.0528 
G01 X-62.9200 Y33.3153 
G01 X-62.9137 Y33.3386 
G01 X-62.9017 Y33.3595 
G01 X-62.8924 Y33.3818 
G01 X-62.8778 Y33.4009 
G01 X-62.8657 Y33.4218 
G01 X-62.8486 Y33.4388 
G01 X-62.8340 Y33.4580 
G01 X-62.8148 Y33.4727 
G01 X-62.7978 Y33.4897 
G01 X-62.7769 Y33.5018 
G01 X-62.7578 Y33.5164 
G01 X-62.7355 Y33.5257 
G01 X-62.7146 Y33.5377 
G01 X-62.6913 Y33.5440 
G01 X-62.6690 Y33.5532 
G01 X-62.6451 Y33.5564 
G01 X-62.6218 Y33.5626 
G01 X-62.5977 Y33.5626 
G01 X-62.5738 Y33.5657 
G01 X-62.5499 Y33.5626 
G01 X-61.6838 Y33.5626 
G01 X-61.5949 Y33.5388 
G01 X-61.5910 Y33.5377 
G01 X-61.5078 Y33.4897 
G01 X-61.4399 Y33.4218 
G01 X-61.3919 Y33.3386 
G01 X-61.3670 Y33.2458 
G01 X-61.3670 Y33.1498 
G01 X-61.3908 Y33.0609 
G01 X-61.3919 Y33.0570 
G01 X-61.4399 Y32.9738 
G01 X-61.5078 Y32.9059 
G01 X-64.7334 Y29.6803 
G01 X-64.8166 Y29.6323 
G01 X-64.9094 Y29.6074 
G01 X-65.8674 Y29.6074 
G01 X-66.2321 Y29.4563 
G01 X-66.5113 Y29.1771 
G01 X-66.6624 Y28.8124 
G01 X-66.6624 Y28.4176 
G01 X-66.5113 Y28.0528 
G01 X-66.2321 Y27.7737 
G01 X-65.8674 Y27.6226 
G00 Z2.5400 
G00 X-53.7521 Y35.0610 
G01 Z-0.2000 F254.00 
G01 X-53.5938 Y35.1266 F508.00 
G01 X-53.4257 Y35.1600 
G01 X-53.2543 Y35.1600 
G01 X-53.0862 Y35.1266 
G01 X-52.9279 Y35.0610 
G01 X-52.7854 Y34.9658 
G01 X-52.6642 Y34.8446 
G01 X-52.5690 Y34.7021 
G01 X-52.5034 Y34.5438 
G01 X-52.4700 Y34.3757 
G01 X-52.4700 Y34.2043 
G01 X-52.5034 Y34.0362 
G01 X-52.5690 Y33.8779 
G01 X-52.6642 Y33.7354 
G01 X-52.7854 Y33.6142 
G01 X-52.9279 Y33.5190 
G01 X-53.0862 Y33.4534 
G01 X-53.2543 Y33.4200 
G01 X-53.4257 Y33.4200 
G01 X-53.5938 Y33.4534 
G01 X-53.7521 Y33.5190 
G01 X-53.8658 Y33.5950 
G01 X-59.6300 Y33.5950 
G01 X-59.6300 Y32.9915 
G01 X-59.6567 Y32.8573 
G01 X-59.7091 Y32.7308 
G01 X-59.7852 Y32.6170 
G01 X-59.8820 Y32.5202 
G01 X-63.1497 Y29.2524 
G01 X-63.1243 Y29.2270 
G01 X-63.0193 Y29.0697 
G01 X-62.9469 Y28.8950 
G01 X-62.9100 Y28.7096 
G01 X-62.9100 Y28.5204 
G01 X-62.9469 Y28.3350 
G01 X-63.0193 Y28.1603 
G01 X-63.1243 Y28.0030 
G01 X-63.2580 Y27.8693 
G01 X-63.4153 Y27.7643 
G01 X-63.5900 Y27.6919 
G01 X-63.7754 Y27.6550 
G01 X-65.7645 Y27.6550 
G01 X-65.9500 Y27.6919 
G01 X-66.1247 Y27.7643 
G01 X-66.2820 Y27.8693 
G01 X-66.4157 Y28.0030 
G01 X-66.5207 Y28.1603 
G01 X-66.5931 Y28.3350 
G01 X-66.6300 Y28.5204 
G01 X-66.6300 Y28.7096 
G01 X-66.5931 Y28.8950 
G01 X-66.5207 Y29.0697 
G01 X-66.4157 Y29.2270 
G01 X-66.2820 Y29.3607 
G01 X-66.1247 Y29.4657 
G01 X-65.9500 Y29.5381 
G01 X-65.7645 Y29.5750 
G01 X-64.7929 Y29.5750 
G01 X-61.0200 Y33.3479 
G01 X-61.0200 Y33.5950 
G01 X-62.9100 Y33.5950 
G01 X-62.9100 Y33.5204 
G01 X-62.9469 Y33.3350 
G01 X-63.0193 Y33.1603 
G01 X-63.1243 Y33.0030 
G01 X-63.2580 Y32.8693 
G01 X-63.4153 Y32.7643 
G01 X-63.5900 Y32.6919 
G01 X-63.7754 Y32.6550 
G01 X-65.7645 Y32.6550 
G01 X-65.9500 Y32.6919 
G01 X-66.1247 Y32.7643 
G01 X-66.2820 Y32.8693 
G01 X-66.4157 Y33.0030 
G01 X-66.5207 Y33.1603 
G01 X-66.5931 Y33.3350 
G01 X-66.6300 Y33.5204 
G01 X-66.6300 Y33.7096 
G01 X-66.5931 Y33.8950 
G01 X-66.5207 Y34.0697 
G01 X-66.4157 Y34.2270 
G01 X-66.2820 Y34.3607 
G01 X-66.1247 Y34.4657 
G01 X-65.9500 Y34.5381 
G01 X-65.7645 Y34.5750 
G01 X-64.7929 Y34.5750 
G01 X-64.5380 Y34.8298 
G01 X-64.4242 Y34.9059 
G01 X-64.2977 Y34.9583 
G01 X-64.1634 Y34.9850 
G01 X-53.8658 Y34.9850 
G01 X-53.7521 Y35.0610 
G00 Z2.5400 
G00 X-48.7712 Y27.1750 
G01 Z-0.2000 F254.00 
G01 X-48.4395 Y27.0376 F508.00 
G01 X-48.0805 Y27.0376 
G01 X-47.7472 Y27.1757 
G01 X-47.7263 Y27.1877 
G01 X-47.7030 Y27.1940 
G01 X-47.6807 Y27.2032 
G01 X-47.6568 Y27.2064 
G01 X-47.6335 Y27.2126 
G01 X-47.6093 Y27.2126 
G01 X-47.5855 Y27.2157 
G01 X-47.5615 Y27.2126 
G01 X-43.8367 Y27.2126 
G01 X-43.8128 Y27.2157 
G01 X-43.7889 Y27.2126 
G01 X-43.7647 Y27.2126 
G01 X-43.7414 Y27.2064 
G01 X-43.7175 Y27.2032 
G01 X-43.6953 Y27.1940 
G01 X-43.6720 Y27.1877 
G01 X-43.6511 Y27.1757 
G01 X-43.4626 Y27.0976 
G01 X-41.6274 Y27.0976 
G01 X-41.3178 Y27.2258 
G01 X-41.0808 Y27.4628 
G01 X-40.9526 Y27.7724 
G01 X-40.9526 Y28.1076 
G01 X-41.0808 Y28.4172 
G01 X-41.3178 Y28.6542 
G01 X-41.6274 Y28.7824 
G01 X-43.4626 Y28.7824 
G01 X-43.6511 Y28.7043 
G01 X-43.6720 Y28.6923 
G01 X-43.6953 Y28.6860 
G01 X-43.7175 Y28.6768 
G01 X-43.7414 Y28.6736 
G01 X-43.7647 Y28.6674 
G01 X-43.7889 Y28.6674 
G01 X-43.8128 Y28.6643 
G01 X-43.8367 Y28.6674 
G01 X-47.5615 Y28.6674 
G01 X-47.5855 Y28.6643 
G01 X-47.6093 Y28.6674 
G01 X-47.6335 Y28.6674 
G01 X-47.6568 Y28.6736 
G01 X-47.6807 Y28.6768 
G01 X-47.7030 Y28.6860 
G01 X-47.7263 Y28.6923 
G01 X-47.7472 Y28.7043 
G01 X-48.0805 Y28.8424 
G01 X-48.4395 Y28.8424 
G01 X-48.7712 Y28.7050 
G01 X-49.0250 Y28.4512 
G01 X-49.1624 Y28.1195 
G01 X-49.1624 Y27.7605 
G01 X-49.0250 Y27.4288 
G01 X-48.7712 Y27.1750 
G00 Z2.5400 
G00 X-43.3748 Y28.7500 
G01 Z-0.2000 F254.00 
G01 X-41.7152 Y28.7500 F508.00 
G01 X-41.5587 Y28.7189 
G01 X-41.4113 Y28.6578 
G01 X-41.2787 Y28.5692 
G01 X-41.1658 Y28.4563 
G01 X-41.0772 Y28.3237 
G01 X-41.0161 Y28.1763 
G01 X-40.9850 Y28.0198 
G01 X-40.9850 Y27.8602 
G01 X-41.0161 Y27.7037 
G01 X-41.0772 Y27.5563 
G01 X-41.1658 Y27.4237 
G01 X-41.2787 Y27.3108 
G01 X-41.4113 Y27.2222 
G01 X-41.5587 Y27.1611 
G01 X-41.7152 Y27.1300 
G01 X-43.3748 Y27.1300 
G01 X-43.5313 Y27.1611 
G01 X-43.6787 Y27.2222 
G01 X-43.7128 Y27.2450 
G01 X-47.7342 Y27.2450 
G01 X-47.8479 Y27.1690 
G01 X-48.0062 Y27.1034 
G01 X-48.1743 Y27.0700 
G01 X-48.3457 Y27.0700 
G01 X-48.5138 Y27.1034 
G01 X-48.6721 Y27.1690 
G01 X-48.8146 Y27.2642 
G01 X-48.9358 Y27.3854 
G01 X-49.0310 Y27.5279 
G01 X-49.0966 Y27.6862 
G01 X-49.1300 Y27.8543 
G01 X-49.1300 Y28.0257 
G01 X-49.0966 Y28.1938 
G01 X-49.0310 Y28.3521 
G01 X-48.9358 Y28.4946 
G01 X-48.8146 Y28.6158 
G01 X-48.6721 Y28.7110 
G01 X-48.5138 Y28.7766 
G01 X-48.3457 Y28.8100 
G01 X-48.1743 Y28.8100 
G01 X-48.0062 Y28.7766 
G01 X-47.8479 Y28.7110 
G01 X-47.7342 Y28.6350 
G01 X-43.7128 Y28.6350 
G01 X-43.6787 Y28.6578 
G01 X-43.5313 Y28.7189 
G01 X-43.3748 Y28.7500 
G00 Z2.5400 
G00 X-12.4599 Y13.9197 
G01 Z-0.2000 F254.00 
G01 X-12.7503 Y14.2101 F508.00 
G01 X-13.1297 Y14.3672 
G01 X-13.5403 Y14.3672 
G01 X-13.9197 Y14.2101 
G01 X-14.2101 Y13.9197 
G01 X-14.2496 Y13.8242 
G01 X-14.2533 Y13.8153 
G01 X-14.2863 Y13.7355 
G01 X-14.3448 Y13.6593 
G01 X-14.4210 Y13.6008 
G01 X-14.4588 Y13.5852 
G01 X-14.5098 Y13.5641 
G01 X-14.5914 Y13.5533 
G01 X-14.6050 Y13.5515 
G01 X-14.7002 Y13.5641 
G01 X-14.7359 Y13.5789 
G01 X-14.7890 Y13.6008 
G01 X-14.8652 Y13.6593 
G01 X-14.9237 Y13.7355 
G01 X-14.9604 Y13.8242 
G01 X-14.9999 Y13.9197 
G01 X-15.2903 Y14.2101 
G01 X-15.6697 Y14.3672 
G01 X-16.0803 Y14.3672 
G01 X-16.4597 Y14.2101 
G01 X-16.4665 Y14.2032 
G01 X-16.4803 Y14.1895 
G01 X-16.5344 Y14.1353 
G01 X-16.6176 Y14.0873 
G01 X-16.6596 Y14.0760 
G01 X-16.7104 Y14.0624 
G01 X-20.5506 Y14.0624 
G01 X-20.6434 Y14.0873 
G01 X-20.7266 Y14.1353 
G01 X-20.7945 Y14.2032 
G01 X-22.6947 Y16.1034 
G01 X-22.7427 Y16.1866 
G01 X-22.7676 Y16.2794 
G01 X-22.7676 Y19.2758 
G01 X-22.7427 Y19.3686 
G01 X-22.6947 Y19.4518 
G01 X-22.6268 Y19.5197 
G01 X-22.5436 Y19.5677 
G01 X-22.4508 Y19.5926 
G01 X-20.9767 Y19.5926 
G01 X-20.9528 Y19.5957 
G01 X-20.9289 Y19.5926 
G01 X-20.9047 Y19.5926 
G01 X-20.8814 Y19.5864 
G01 X-20.8575 Y19.5832 
G01 X-20.8353 Y19.5740 
G01 X-20.8119 Y19.5677 
G01 X-20.7911 Y19.5557 
G01 X-20.6026 Y19.4776 
G01 X-18.7674 Y19.4776 
G01 X-18.4578 Y19.6058 
G01 X-18.2208 Y19.8428 
G01 X-18.0926 Y20.1524 
G01 X-18.0926 Y20.4876 
G01 X-18.2208 Y20.7972 
G01 X-18.4578 Y21.0342 
G01 X-18.7674 Y21.1624 
G01 X-20.6026 Y21.1624 
G01 X-20.7911 Y21.0843 
G01 X-20.8119 Y21.0723 
G01 X-20.8353 Y21.0660 
G01 X-20.8575 Y21.0568 
G01 X-20.8814 Y21.0536 
G01 X-20.9047 Y21.0474 
G01 X-20.9289 Y21.0474 
G01 X-20.9528 Y21.0443 
G01 X-20.9767 Y21.0474 
G01 X-23.0047 Y21.0474 
G01 X-23.2720 Y20.9367 
G01 X-23.8897 Y20.3190 
G01 X-24.1117 Y20.0970 
G01 X-24.2224 Y19.8297 
G01 X-24.2224 Y15.7303 
G01 X-24.1117 Y15.4630 
G01 X-21.3670 Y12.7183 
G01 X-21.0997 Y12.6076 
G01 X-16.7104 Y12.6076 
G01 X-16.6618 Y12.5946 
G01 X-16.6176 Y12.5827 
G01 X-16.5344 Y12.5347 
G01 X-16.4819 Y12.4822 
G01 X-16.4665 Y12.4668 
G01 X-16.4597 Y12.4599 
G01 X-16.0803 Y12.3028 
G01 X-15.6697 Y12.3028 
G01 X-15.2903 Y12.4599 
G01 X-14.9999 Y12.7503 
G01 X-14.9604 Y12.8458 
G01 X-14.9237 Y12.9345 
G01 X-14.8652 Y13.0107 
G01 X-14.7890 Y13.0692 
G01 X-14.7380 Y13.0903 
G01 X-14.7002 Y13.1059 
G01 X-14.6050 Y13.1185 
G01 X-14.5935 Y13.1170 
G01 X-14.5098 Y13.1059 
G01 X-14.4567 Y13.0840 
G01 X-14.4210 Y13.0692 
G01 X-14.3448 Y13.0107 
G01 X-14.2863 Y12.9345 
G01 X-14.2546 Y12.8578 
G01 X-14.2496 Y12.8458 
G01 X-14.2101 Y12.7503 
G01 X-14.1702 Y12.7104 
G01 X-14.1429 Y12.6646 
G01 X-14.1202 Y12.6253 
G01 X-14.1166 Y12.6118 
G01 X-14.0953 Y12.5325 
G01 X-14.0953 Y12.4364 
G01 X-14.1150 Y12.3629 
G01 X-14.1202 Y12.3437 
G01 X-14.1421 Y12.3057 
G01 X-14.1682 Y12.2605 
G01 X-14.2361 Y12.1926 
G01 X-14.8334 Y11.5953 
G01 X-14.9166 Y11.5473 
G01 X-15.0094 Y11.5224 
G01 X-24.3606 Y11.5224 
G01 X-24.4534 Y11.5473 
G01 X-24.5366 Y11.5953 
G01 X-24.6045 Y11.6632 
G01 X-30.3147 Y17.3734 
G01 X-30.3627 Y17.4566 
G01 X-30.3876 Y17.5494 
G01 X-30.3876 Y31.9806 
G01 X-30.3627 Y32.0734 
G01 X-30.3147 Y32.1566 
G01 X-30.2468 Y32.2245 
G01 X-24.5366 Y37.9347 
G01 X-24.4534 Y37.9827 
G01 X-24.3606 Y38.0076 
G01 X-15.0094 Y38.0076 
G01 X-14.9166 Y37.9827 
G01 X-14.8334 Y37.9347 
G01 X-14.7655 Y37.8668 
G01 X-13.7365 Y36.8378 
G01 X-13.7174 Y36.8231 
G01 X-13.7027 Y36.8040 
G01 X-13.6857 Y36.7870 
G01 X-13.6736 Y36.7661 
G01 X-13.6589 Y36.7469 
G01 X-13.6497 Y36.7247 
G01 X-13.6376 Y36.7038 
G01 X-13.6314 Y36.6805 
G01 X-13.6222 Y36.6582 
G01 X-13.6190 Y36.6343 
G01 X-13.6128 Y36.6110 
G01 X-13.6128 Y36.5869 
G01 X-13.6096 Y36.5630 
G01 X-13.6128 Y36.5391 
G01 X-13.6128 Y36.5149 
G01 X-13.6190 Y36.4916 
G01 X-13.6222 Y36.4677 
G01 X-13.6314 Y36.4455 
G01 X-13.6376 Y36.4222 
G01 X-13.6497 Y36.4013 
G01 X-13.6654 Y36.3634 
G01 X-13.6654 Y36.0266 
G01 X-13.5365 Y35.7156 
G01 X-13.2984 Y35.4775 
G01 X-12.9874 Y35.3486 
G01 X-11.1426 Y35.3486 
G01 X-10.8316 Y35.4775 
G01 X-10.5935 Y35.7156 
G01 X-10.4646 Y36.0266 
G01 X-10.4646 Y36.3634 
G01 X-10.5935 Y36.6744 
G01 X-10.8316 Y36.9125 
G01 X-11.1426 Y37.0414 
G01 X-11.7796 Y37.0414 
G01 X-11.8685 Y37.0652 
G01 X-11.8724 Y37.0663 
G01 X-11.9556 Y37.1143 
G01 X-12.0235 Y37.1822 
G01 X-13.9710 Y39.1297 
G01 X-14.1930 Y39.3517 
G01 X-14.4603 Y39.4624 
G01 X-24.9097 Y39.4624 
G01 X-25.1770 Y39.3517 
G01 X-31.5097 Y33.0190 
G01 X-31.7317 Y32.7970 
G01 X-31.8424 Y32.5297 
G01 X-31.8424 Y18.8242 
G01 X-31.8673 Y18.7314 
G01 X-31.9153 Y18.6482 
G01 X-31.9832 Y18.5803 
G01 X-32.0664 Y18.5323 
G01 X-32.1592 Y18.5074 
G01 X-41.2533 Y18.5074 
G01 X-41.2772 Y18.5043 
G01 X-41.3011 Y18.5074 
G01 X-41.3253 Y18.5074 
G01 X-41.3486 Y18.5136 
G01 X-41.3725 Y18.5168 
G01 X-41.3947 Y18.5260 
G01 X-41.4180 Y18.5323 
G01 X-41.4389 Y18.5443 
G01 X-41.6274 Y18.6224 
G01 X-43.4626 Y18.6224 
G01 X-43.6511 Y18.5443 
G01 X-43.6720 Y18.5323 
G01 X-43.6953 Y18.5260 
G01 X-43.7175 Y18.5168 
G01 X-43.7414 Y18.5136 
G01 X-43.7647 Y18.5074 
G01 X-43.7889 Y18.5074 
G01 X-43.8128 Y18.5043 
G01 X-43.8367 Y18.5074 
G01 X-44.0456 Y18.5074 
G01 X-44.1384 Y18.5323 
G01 X-44.2216 Y18.5803 
G01 X-44.2895 Y18.6482 
G01 X-44.9197 Y19.2784 
G01 X-44.9677 Y19.3616 
G01 X-44.9926 Y19.4544 
G01 X-44.9926 Y21.0997 
G01 X-45.1033 Y21.3670 
G01 X-46.9910 Y23.2547 
G01 X-47.2130 Y23.4767 
G01 X-47.2853 Y23.5066 
G01 X-47.3086 Y23.5129 
G01 X-47.3295 Y23.5249 
G01 X-47.3518 Y23.5342 
G01 X-47.3709 Y23.5488 
G01 X-47.3918 Y23.5609 
G01 X-47.4088 Y23.5779 
G01 X-47.4280 Y23.5926 
G01 X-47.4427 Y23.6118 
G01 X-47.4597 Y23.6288 
G01 X-47.4718 Y23.6497 
G01 X-47.4864 Y23.6688 
G01 X-47.4957 Y23.6911 
G01 X-47.5077 Y23.7120 
G01 X-47.5140 Y23.7353 
G01 X-47.5232 Y23.7576 
G01 X-47.5264 Y23.7815 
G01 X-47.5326 Y23.8048 
G01 X-47.5326 Y23.8289 
G01 X-47.5357 Y23.8528 
G01 X-47.5326 Y23.8767 
G01 X-47.5326 Y24.7015 
G01 X-47.5357 Y24.7255 
G01 X-47.5326 Y24.7493 
G01 X-47.5326 Y24.7735 
G01 X-47.5264 Y24.7968 
G01 X-47.5232 Y24.8207 
G01 X-47.5140 Y24.8430 
G01 X-47.5077 Y24.8663 
G01 X-47.4957 Y24.8872 
G01 X-47.3576 Y25.2205 
G01 X-47.3576 Y25.5795 
G01 X-47.4950 Y25.9112 
G01 X-47.7488 Y26.1650 
G01 X-48.0805 Y26.3024 
G01 X-48.4395 Y26.3024 
G01 X-48.7728 Y26.1643 
G01 X-48.7937 Y26.1523 
G01 X-48.8170 Y26.1460 
G01 X-48.8393 Y26.1368 
G01 X-48.8632 Y26.1336 
G01 X-48.8865 Y26.1274 
G01 X-48.9106 Y26.1274 
G01 X-48.9345 Y26.1242 
G01 X-48.9584 Y26.1274 
G01 X-49.1256 Y26.1274 
G01 X-49.2184 Y26.1523 
G01 X-49.3016 Y26.2003 
G01 X-49.3695 Y26.2682 
G01 X-49.9997 Y26.8984 
G01 X-50.0477 Y26.9816 
G01 X-50.0726 Y27.0744 
G01 X-50.0726 Y28.0847 
G01 X-50.1833 Y28.3520 
G01 X-51.6580 Y29.8267 
G01 X-51.9253 Y29.9374 
G01 X-52.2958 Y29.9374 
G01 X-52.3886 Y29.9623 
G01 X-52.4718 Y30.0103 
G01 X-52.5397 Y30.0782 
G01 X-52.5877 Y30.1614 
G01 X-52.6126 Y30.2542 
G01 X-52.6126 Y31.0515 
G01 X-52.6157 Y31.0754 
G01 X-52.6126 Y31.0993 
G01 X-52.6126 Y31.1235 
G01 X-52.6064 Y31.1468 
G01 X-52.6032 Y31.1707 
G01 X-52.5940 Y31.1929 
G01 X-52.5877 Y31.2163 
G01 X-52.5757 Y31.2371 
G01 X-52.4376 Y31.5705 
G01 X-52.4376 Y31.9295 
G01 X-52.5750 Y32.2612 
G01 X-52.8288 Y32.5150 
G01 X-53.1605 Y32.6524 
G01 X-53.5195 Y32.6524 
G01 X-53.8512 Y32.5150 
G01 X-54.1050 Y32.2612 
G01 X-54.2424 Y31.9295 
G01 X-54.2424 Y31.5705 
G01 X-54.1043 Y31.2371 
G01 X-54.0923 Y31.2163 
G01 X-54.0860 Y31.1929 
G01 X-54.0768 Y31.1707 
G01 X-54.0736 Y31.1468 
G01 X-54.0674 Y31.1235 
G01 X-54.0674 Y31.0993 
G01 X-54.0643 Y31.0754 
G01 X-54.0674 Y31.0515 
G01 X-54.0674 Y29.9085 
G01 X-54.0643 Y29.8846 
G01 X-54.0674 Y29.8606 
G01 X-54.0674 Y29.8365 
G01 X-54.0736 Y29.8132 
G01 X-54.0768 Y29.7893 
G01 X-54.0860 Y29.7670 
G01 X-54.0923 Y29.7437 
G01 X-54.1043 Y29.7228 
G01 X-54.2424 Y29.3895 
G01 X-54.2424 Y29.0305 
G01 X-54.1050 Y28.6988 
G01 X-53.8512 Y28.4450 
G01 X-53.5195 Y28.3076 
G01 X-53.1605 Y28.3076 
G01 X-52.8271 Y28.4457 
G01 X-52.8063 Y28.4577 
G01 X-52.7829 Y28.4640 
G01 X-52.7607 Y28.4732 
G01 X-52.7368 Y28.4764 
G01 X-52.7135 Y28.4826 
G01 X-52.6893 Y28.4826 
G01 X-52.6654 Y28.4857 
G01 X-52.6415 Y28.4826 
G01 X-52.4744 Y28.4826 
G01 X-52.3816 Y28.4577 
G01 X-52.2984 Y28.4097 
G01 X-52.2305 Y28.3418 
G01 X-51.6003 Y27.7116 
G01 X-51.5523 Y27.6284 
G01 X-51.5274 Y27.5356 
G01 X-51.5274 Y26.5253 
G01 X-51.4167 Y26.2580 
G01 X-51.1268 Y25.9681 
G01 X-49.9420 Y24.7833 
G01 X-49.6747 Y24.6726 
G01 X-49.3042 Y24.6726 
G01 X-49.2114 Y24.6477 
G01 X-49.1282 Y24.5997 
G01 X-49.0603 Y24.5318 
G01 X-49.0123 Y24.4486 
G01 X-48.9874 Y24.3558 
G01 X-48.9874 Y23.5584 
G01 X-48.9843 Y23.5345 
G01 X-48.9874 Y23.5106 
G01 X-48.9874 Y23.4865 
G01 X-48.9936 Y23.4632 
G01 X-48.9968 Y23.4393 
G01 X-49.0060 Y23.4170 
G01 X-49.0123 Y23.3937 
G01 X-49.0243 Y23.3728 
G01 X-49.1624 Y23.0395 
G01 X-49.1624 Y22.6805 
G01 X-49.0250 Y22.3488 
G01 X-48.7712 Y22.0950 
G01 X-48.4395 Y21.9576 
G01 X-48.0846 Y21.9576 
G01 X-48.0741 Y21.9637 
G01 X-48.0508 Y21.9699 
G01 X-48.0286 Y21.9791 
G01 X-48.0047 Y21.9823 
G01 X-47.9813 Y21.9885 
G01 X-47.9572 Y21.9885 
G01 X-47.9333 Y21.9917 
G01 X-47.9094 Y21.9885 
G01 X-47.8853 Y21.9885 
G01 X-47.8620 Y21.9823 
G01 X-47.8381 Y21.9791 
G01 X-47.8158 Y21.9699 
G01 X-47.7925 Y21.9637 
G01 X-47.7716 Y21.9516 
G01 X-47.7493 Y21.9424 
G01 X-47.7302 Y21.9277 
G01 X-47.7093 Y21.9156 
G01 X-47.6923 Y21.8986 
G01 X-47.6731 Y21.8839 
G01 X-47.6585 Y21.8648 
G01 X-47.5772 Y21.7835 
G01 X-47.5580 Y21.7688 
G01 X-47.5433 Y21.7496 
G01 X-47.5263 Y21.7326 
G01 X-47.5142 Y21.7117 
G01 X-47.4996 Y21.6926 
G01 X-47.4903 Y21.6703 
G01 X-47.4783 Y21.6494 
G01 X-47.4720 Y21.6261 
G01 X-47.4628 Y21.6038 
G01 X-47.4597 Y21.5799 
G01 X-47.4534 Y21.5566 
G01 X-47.4534 Y21.5325 
G01 X-47.4503 Y21.5086 
G01 X-47.4534 Y21.4847 
G01 X-47.4534 Y21.4606 
G01 X-47.4597 Y21.4373 
G01 X-47.4628 Y21.4134 
G01 X-47.4720 Y21.3911 
G01 X-47.4783 Y21.3678 
G01 X-47.4903 Y21.3469 
G01 X-47.4996 Y21.3246 
G01 X-47.5142 Y21.3055 
G01 X-47.5263 Y21.2846 
G01 X-47.5433 Y21.2676 
G01 X-47.5580 Y21.2484 
G01 X-47.5772 Y21.2337 
G01 X-47.5942 Y21.2167 
G01 X-47.6151 Y21.2046 
G01 X-47.6342 Y21.1900 
G01 X-47.6565 Y21.1807 
G01 X-47.6774 Y21.1687 
G01 X-47.7007 Y21.1624 
G01 X-47.7230 Y21.1532 
G01 X-47.7469 Y21.1501 
G01 X-47.7702 Y21.1438 
G01 X-47.7943 Y21.1438 
G01 X-47.8182 Y21.1407 
G01 X-47.8421 Y21.1438 
G01 X-47.8662 Y21.1438 
G01 X-47.8895 Y21.1501 
G01 X-47.9134 Y21.1532 
G01 X-47.9357 Y21.1624 
G01 X-47.9590 Y21.1687 
G01 X-47.9799 Y21.1807 
G01 X-48.0805 Y21.2224 
G01 X-48.4395 Y21.2224 
G01 X-48.7728 Y21.0843 
G01 X-48.7937 Y21.0723 
G01 X-48.8170 Y21.0660 
G01 X-48.8393 Y21.0568 
G01 X-48.8632 Y21.0536 
G01 X-48.8865 Y21.0474 
G01 X-48.9106 Y21.0474 
G01 X-48.9345 Y21.0443 
G01 X-48.9584 Y21.0474 
G01 X-49.6747 Y21.0474 
G01 X-49.9420 Y20.9367 
G01 X-51.1268 Y19.7519 
G01 X-51.1738 Y19.7049 
G01 X-51.1947 Y19.6840 
G01 X-51.4167 Y19.4620 
G01 X-51.5274 Y19.1947 
G01 X-51.5274 Y13.7394 
G01 X-51.5523 Y13.6466 
G01 X-51.6003 Y13.5634 
G01 X-51.6682 Y13.4955 
G01 X-52.9734 Y12.1903 
G01 X-53.0566 Y12.1423 
G01 X-53.1494 Y12.1174 
G01 X-63.0909 Y12.1174 
G01 X-63.1836 Y12.1423 
G01 X-63.2668 Y12.1903 
G01 X-63.3078 Y12.2313 
G01 X-63.6726 Y12.3824 
G01 X-65.8674 Y12.3824 
G01 X-66.2321 Y12.2313 
G01 X-66.5113 Y11.9521 
G01 X-66.6624 Y11.5874 
G01 X-66.6624 Y11.1926 
G01 X-66.5113 Y10.8278 
G01 X-66.2321 Y10.5487 
G01 X-65.8674 Y10.3976 
G01 X-63.6726 Y10.3976 
G01 X-63.3078 Y10.5487 
G01 X-63.2668 Y10.5897 
G01 X-63.1836 Y10.6377 
G01 X-63.0909 Y10.6626 
G01 X-61.6438 Y10.6626 
G01 X-61.5510 Y10.6377 
G01 X-61.4678 Y10.5897 
G01 X-61.3999 Y10.5218 
G01 X-61.3519 Y10.4386 
G01 X-61.3270 Y10.3458 
G01 X-61.3270 Y10.2498 
G01 X-61.3519 Y10.1570 
G01 X-61.3999 Y10.0738 
G01 X-61.4678 Y10.0059 
G01 X-64.0184 Y7.4553 
G01 X-64.1016 Y7.4073 
G01 X-64.1944 Y7.3824 
G01 X-65.8674 Y7.3824 
G01 X-66.2321 Y7.2313 
G01 X-66.5113 Y6.9521 
G01 X-66.6624 Y6.5874 
G01 X-66.6624 Y6.1926 
G01 X-66.5113 Y5.8278 
G01 X-66.2321 Y5.5487 
G01 X-65.8674 Y5.3976 
G01 X-63.6726 Y5.3976 
G01 X-63.3078 Y5.5487 
G01 X-63.0287 Y5.8278 
G01 X-62.8776 Y6.1926 
G01 X-62.8776 Y6.4356 
G01 X-62.8538 Y6.5245 
G01 X-62.8527 Y6.5284 
G01 X-62.8047 Y6.6116 
G01 X-62.7368 Y6.6795 
G01 X-58.8266 Y10.5897 
G01 X-58.7434 Y10.6377 
G01 X-58.6506 Y10.6626 
G01 X-52.6003 Y10.6626 
G01 X-52.3330 Y10.7733 
G01 X-50.1833 Y12.9230 
G01 X-50.0726 Y13.1903 
G01 X-50.0726 Y18.6456 
G01 X-50.0488 Y18.7345 
G01 X-50.0477 Y18.7384 
G01 X-49.9997 Y18.8216 
G01 X-49.9318 Y18.8895 
G01 X-49.3016 Y19.5197 
G01 X-49.2184 Y19.5677 
G01 X-49.1256 Y19.5926 
G01 X-48.9584 Y19.5926 
G01 X-48.9345 Y19.5957 
G01 X-48.9106 Y19.5926 
G01 X-48.8865 Y19.5926 
G01 X-48.8632 Y19.5864 
G01 X-48.8393 Y19.5832 
G01 X-48.8170 Y19.5740 
G01 X-48.7937 Y19.5677 
G01 X-48.7728 Y19.5557 
G01 X-48.4395 Y19.4176 
G01 X-48.0805 Y19.4176 
G01 X-47.7488 Y19.5550 
G01 X-47.4950 Y19.8088 
G01 X-47.3576 Y20.1405 
G01 X-47.3576 Y20.4995 
G01 X-47.3993 Y20.6001 
G01 X-47.4113 Y20.6210 
G01 X-47.4176 Y20.6443 
G01 X-47.4268 Y20.6666 
G01 X-47.4299 Y20.6905 
G01 X-47.4362 Y20.7138 
G01 X-47.4362 Y20.7379 
G01 X-47.4393 Y20.7618 
G01 X-47.4362 Y20.7857 
G01 X-47.4362 Y20.8098 
G01 X-47.4299 Y20.8331 
G01 X-47.4268 Y20.8570 
G01 X-47.4176 Y20.8793 
G01 X-47.4113 Y20.9026 
G01 X-47.3993 Y20.9235 
G01 X-47.3900 Y20.9458 
G01 X-47.3754 Y20.9649 
G01 X-47.3633 Y20.9858 
G01 X-47.3462 Y21.0028 
G01 X-47.3316 Y21.0220 
G01 X-47.3124 Y21.0366 
G01 X-47.2954 Y21.0537 
G01 X-47.2745 Y21.0658 
G01 X-47.2554 Y21.0804 
G01 X-47.2331 Y21.0897 
G01 X-47.2122 Y21.1017 
G01 X-47.1889 Y21.1080 
G01 X-47.1666 Y21.1172 
G01 X-47.1427 Y21.1203 
G01 X-47.1194 Y21.1266 
G01 X-47.0953 Y21.1266 
G01 X-47.0714 Y21.1297 
G01 X-47.0475 Y21.1266 
G01 X-47.0234 Y21.1266 
G01 X-47.0001 Y21.1203 
G01 X-46.9762 Y21.1172 
G01 X-46.9539 Y21.1080 
G01 X-46.9306 Y21.1017 
G01 X-46.9097 Y21.0897 
G01 X-46.8874 Y21.0804 
G01 X-46.8683 Y21.0658 
G01 X-46.8474 Y21.0537 
G01 X-46.8303 Y21.0366 
G01 X-46.8112 Y21.0220 
G01 X-46.7965 Y21.0028 
G01 X-46.5203 Y20.7266 
G01 X-46.4994 Y20.6904 
G01 X-46.4723 Y20.6434 
G01 X-46.4485 Y20.5546 
G01 X-46.4474 Y20.5506 
G01 X-46.4474 Y18.9053 
G01 X-46.3367 Y18.6380 
G01 X-44.8620 Y17.1633 
G01 X-44.5947 Y17.0526 
G01 X-43.8367 Y17.0526 
G01 X-43.8128 Y17.0557 
G01 X-43.7889 Y17.0526 
G01 X-43.7647 Y17.0526 
G01 X-43.7414 Y17.0464 
G01 X-43.7175 Y17.0432 
G01 X-43.6953 Y17.0340 
G01 X-43.6720 Y17.0277 
G01 X-43.6511 Y17.0157 
G01 X-43.4626 Y16.9376 
G01 X-41.6274 Y16.9376 
G01 X-41.4389 Y17.0157 
G01 X-41.4180 Y17.0277 
G01 X-41.3947 Y17.0340 
G01 X-41.3725 Y17.0432 
G01 X-41.3486 Y17.0464 
G01 X-41.3253 Y17.0526 
G01 X-41.3011 Y17.0526 
G01 X-41.2772 Y17.0557 
G01 X-41.2533 Y17.0526 
G01 X-32.1544 Y17.0526 
G01 X-32.0616 Y17.0277 
G01 X-31.9784 Y16.9797 
G01 X-31.9105 Y16.9118 
G01 X-31.5097 Y16.5110 
G01 X-31.4418 Y16.4431 
G01 X-25.1770 Y10.1783 
G01 X-24.9097 Y10.0676 
G01 X-14.4603 Y10.0676 
G01 X-14.1930 Y10.1783 
G01 X-13.9031 Y10.4682 
G01 X-12.7183 Y11.6530 
G01 X-12.6076 Y11.9203 
G01 X-12.6076 Y12.4996 
G01 X-12.5946 Y12.5482 
G01 X-12.5827 Y12.5924 
G01 X-12.5347 Y12.6755 
G01 X-12.4822 Y12.7281 
G01 X-12.4668 Y12.7435 
G01 X-12.4599 Y12.7503 
G01 X-12.3028 Y13.1297 
G01 X-12.3028 Y13.5403 
G01 X-12.4599 Y13.9197 
G00 Z2.5400 
G00 X-20.5148 Y21.1300 
G01 Z-0.2000 F254.00 
G01 X-18.8552 Y21.1300 F508.00 
G01 X-18.6987 Y21.0989 
G01 X-18.5513 Y21.0378 
G01 X-18.4187 Y20.9492 
G01 X-18.3058 Y20.8363 
G01 X-18.2172 Y20.7037 
G01 X-18.1561 Y20.5563 
G01 X-18.1250 Y20.3998 
G01 X-18.1250 Y20.2402 
G01 X-18.1561 Y20.0837 
G01 X-18.2172 Y19.9363 
G01 X-18.3058 Y19.8037 
G01 X-18.4187 Y19.6908 
G01 X-18.5513 Y19.6022 
G01 X-18.6987 Y19.5411 
G01 X-18.8552 Y19.5100 
G01 X-20.5148 Y19.5100 
G01 X-20.6713 Y19.5411 
G01 X-20.8187 Y19.6022 
G01 X-20.8528 Y19.6250 
G01 X-22.5721 Y19.6250 
G01 X-22.8000 Y19.3971 
G01 X-22.8000 Y16.1629 
G01 X-20.6671 Y14.0300 
G01 X-16.5939 Y14.0300 
G01 X-16.5123 Y14.1116 
G01 X-16.3486 Y14.2210 
G01 X-16.1666 Y14.2964 
G01 X-15.9735 Y14.3348 
G01 X-15.7765 Y14.3348 
G01 X-15.5834 Y14.2964 
G01 X-15.4014 Y14.2210 
G01 X-15.2377 Y14.1116 
G01 X-15.0984 Y13.9723 
G01 X-14.9890 Y13.8086 
G01 X-14.9136 Y13.6266 
G01 X-14.8752 Y13.4335 
G01 X-14.8752 Y13.2365 
G01 X-14.9136 Y13.0434 
G01 X-14.9890 Y12.8614 
G01 X-15.0984 Y12.6977 
G01 X-15.2377 Y12.5584 
G01 X-15.4014 Y12.4490 
G01 X-15.5834 Y12.3736 
G01 X-15.7765 Y12.3352 
G01 X-15.9735 Y12.3352 
G01 X-16.1666 Y12.3736 
G01 X-16.3486 Y12.4490 
G01 X-16.5123 Y12.5584 
G01 X-16.5939 Y12.6400 
G01 X-21.0235 Y12.6400 
G01 X-21.1577 Y12.6667 
G01 X-21.2842 Y12.7191 
G01 X-21.3980 Y12.7952 
G01 X-24.0348 Y15.4320 
G01 X-24.1109 Y15.5458 
G01 X-24.1633 Y15.6723 
G01 X-24.1900 Y15.8065 
G01 X-24.1900 Y19.7535 
G01 X-24.1633 Y19.8877 
G01 X-24.1109 Y20.0142 
G01 X-24.0348 Y20.1280 
G01 X-23.9380 Y20.2248 
G01 X-23.3030 Y20.8598 
G01 X-23.1892 Y20.9359 
G01 X-23.0627 Y20.9883 
G01 X-22.9285 Y21.0150 
G01 X-20.8528 Y21.0150 
G01 X-20.8187 Y21.0378 
G01 X-20.6713 Y21.0989 
G01 X-20.5148 Y21.1300 
G00 Z2.5400 
G00 X-63.7754 Y5.4300 
G01 Z-0.2000 F254.00 
G01 X-65.7645 Y5.4300 F508.00 
G01 X-65.9500 Y5.4669 
G01 X-66.1247 Y5.5393 
G01 X-66.2820 Y5.6443 
G01 X-66.4157 Y5.7780 
G01 X-66.5207 Y5.9353 
G01 X-66.5931 Y6.1100 
G01 X-66.6300 Y6.2954 
G01 X-66.6300 Y6.4846 
G01 X-66.5931 Y6.6700 
G01 X-66.5207 Y6.8447 
G01 X-66.4157 Y7.0020 
G01 X-66.2820 Y7.1357 
G01 X-66.1247 Y7.2407 
G01 X-65.9500 Y7.3131 
G01 X-65.7645 Y7.3500 
G01 X-64.0779 Y7.3500 
G01 X-60.7329 Y10.6950 
G01 X-63.2074 Y10.6950 
G01 X-63.2580 Y10.6443 
G01 X-63.4153 Y10.5393 
G01 X-63.5900 Y10.4669 
G01 X-63.7754 Y10.4300 
G01 X-65.7645 Y10.4300 
G01 X-65.9500 Y10.4669 
G01 X-66.1247 Y10.5393 
G01 X-66.2820 Y10.6443 
G01 X-66.4157 Y10.7780 
G01 X-66.5207 Y10.9353 
G01 X-66.5931 Y11.1100 
G01 X-66.6300 Y11.2954 
G01 X-66.6300 Y11.4846 
G01 X-66.5931 Y11.6700 
G01 X-66.5207 Y11.8447 
G01 X-66.4157 Y12.0020 
G01 X-66.2820 Y12.1357 
G01 X-66.1247 Y12.2407 
G01 X-65.9500 Y12.3131 
G01 X-65.7645 Y12.3500 
G01 X-63.7754 Y12.3500 
G01 X-63.5900 Y12.3131 
G01 X-63.4153 Y12.2407 
G01 X-63.2580 Y12.1357 
G01 X-63.2074 Y12.0850 
G01 X-53.0329 Y12.0850 
G01 X-51.4950 Y13.6229 
G01 X-51.4950 Y19.1184 
G01 X-51.4683 Y19.2527 
G01 X-51.4159 Y19.3792 
G01 X-51.3398 Y19.4930 
G01 X-51.2430 Y19.5898 
G01 X-49.9730 Y20.8598 
G01 X-49.8592 Y20.9359 
G01 X-49.7327 Y20.9883 
G01 X-49.5984 Y21.0150 
G01 X-48.7858 Y21.0150 
G01 X-48.6721 Y21.0910 
G01 X-48.5138 Y21.1566 
G01 X-48.3457 Y21.1900 
G01 X-48.1743 Y21.1900 
G01 X-48.0062 Y21.1566 
G01 X-47.8479 Y21.0910 
G01 X-47.7054 Y20.9958 
G01 X-47.5842 Y20.8746 
G01 X-47.4890 Y20.7321 
G01 X-47.4234 Y20.5738 
G01 X-47.3900 Y20.4057 
G01 X-47.3900 Y20.2343 
G01 X-47.4234 Y20.0662 
G01 X-47.4890 Y19.9079 
G01 X-47.5842 Y19.7654 
G01 X-47.7054 Y19.6442 
G01 X-47.8479 Y19.5490 
G01 X-48.0062 Y19.4834 
G01 X-48.1743 Y19.4500 
G01 X-48.3457 Y19.4500 
G01 X-48.5138 Y19.4834 
G01 X-48.6721 Y19.5490 
G01 X-48.7858 Y19.6250 
G01 X-49.2421 Y19.6250 
G01 X-50.1050 Y18.7621 
G01 X-50.1050 Y13.2665 
G01 X-50.1317 Y13.1323 
G01 X-50.1841 Y13.0058 
G01 X-50.2602 Y12.8920 
G01 X-52.3020 Y10.8502 
G01 X-52.4158 Y10.7741 
G01 X-52.5423 Y10.7217 
G01 X-52.6765 Y10.6950 
G01 X-58.7671 Y10.6950 
G01 X-62.9212 Y6.5409 
G01 X-62.9100 Y6.4846 
G01 X-62.9100 Y6.2954 
G01 X-62.9469 Y6.1100 
G01 X-63.0193 Y5.9353 
G01 X-63.1243 Y5.7780 
G01 X-63.2580 Y5.6443 
G01 X-63.4153 Y5.5393 
G01 X-63.5900 Y5.4669 
G01 X-63.7754 Y5.4300 
G00 Z2.5400 
G00 X-46.1630 Y18.5102 
G01 Z-0.2000 F254.00 
G01 X-46.2598 Y18.6070 F508.00 
G01 X-46.3359 Y18.7208 
G01 X-46.3883 Y18.8473 
G01 X-46.4150 Y18.9815 
G01 X-46.4150 Y20.6671 
G01 X-47.8413 Y22.0934 
G01 X-47.8479 Y22.0890 
G01 X-48.0062 Y22.0234 
G01 X-48.1743 Y21.9900 
G01 X-48.3457 Y21.9900 
G01 X-48.5138 Y22.0234 
G01 X-48.6721 Y22.0890 
G01 X-48.8146 Y22.1842 
G01 X-48.9358 Y22.3054 
G01 X-49.0310 Y22.4479 
G01 X-49.0966 Y22.6062 
G01 X-49.1300 Y22.7743 
G01 X-49.1300 Y22.9457 
G01 X-49.0966 Y23.1138 
G01 X-49.0310 Y23.2721 
G01 X-48.9550 Y23.3858 
G01 X-48.9550 Y24.7050 
G01 X-49.5984 Y24.7050 
G01 X-49.7327 Y24.7317 
G01 X-49.8592 Y24.7841 
G01 X-49.9730 Y24.8602 
G01 X-51.2430 Y26.1302 
G01 X-51.3398 Y26.2270 
G01 X-51.4159 Y26.3408 
G01 X-51.4683 Y26.4673 
G01 X-51.4950 Y26.6015 
G01 X-51.4950 Y27.6521 
G01 X-52.3579 Y28.5150 
G01 X-52.8142 Y28.5150 
G01 X-52.9279 Y28.4390 
G01 X-53.0862 Y28.3734 
G01 X-53.2543 Y28.3400 
G01 X-53.4257 Y28.3400 
G01 X-53.5938 Y28.3734 
G01 X-53.7521 Y28.4390 
G01 X-53.8946 Y28.5342 
G01 X-54.0158 Y28.6554 
G01 X-54.1110 Y28.7979 
G01 X-54.1766 Y28.9562 
G01 X-54.2100 Y29.1243 
G01 X-54.2100 Y29.2957 
G01 X-54.1766 Y29.4638 
G01 X-54.1110 Y29.6221 
G01 X-54.0350 Y29.7358 
G01 X-54.0350 Y31.2242 
G01 X-54.1110 Y31.3379 
G01 X-54.1766 Y31.4962 
G01 X-54.2100 Y31.6643 
G01 X-54.2100 Y31.8357 
G01 X-54.1766 Y32.0038 
G01 X-54.1110 Y32.1621 
G01 X-54.0158 Y32.3046 
G01 X-53.8946 Y32.4258 
G01 X-53.7521 Y32.5210 
G01 X-53.5938 Y32.5866 
G01 X-53.4257 Y32.6200 
G01 X-53.2543 Y32.6200 
G01 X-53.0862 Y32.5866 
G01 X-52.9279 Y32.5210 
G01 X-52.7854 Y32.4258 
G01 X-52.6642 Y32.3046 
G01 X-52.5690 Y32.1621 
G01 X-52.5034 Y32.0038 
G01 X-52.4700 Y31.8357 
G01 X-52.4700 Y31.6643 
G01 X-52.5034 Y31.4962 
G01 X-52.5690 Y31.3379 
G01 X-52.6450 Y31.2242 
G01 X-52.6450 Y29.9050 
G01 X-52.0015 Y29.9050 
G01 X-51.8673 Y29.8783 
G01 X-51.7408 Y29.8259 
G01 X-51.6270 Y29.7498 
G01 X-50.2602 Y28.3830 
G01 X-50.1841 Y28.2692 
G01 X-50.1317 Y28.1427 
G01 X-50.1050 Y28.0084 
G01 X-50.1050 Y26.9579 
G01 X-49.2421 Y26.0950 
G01 X-48.7858 Y26.0950 
G01 X-48.6721 Y26.1710 
G01 X-48.5138 Y26.2366 
G01 X-48.3457 Y26.2700 
G01 X-48.1743 Y26.2700 
G01 X-48.0062 Y26.2366 
G01 X-47.8479 Y26.1710 
G01 X-47.7054 Y26.0758 
G01 X-47.5842 Y25.9546 
G01 X-47.4890 Y25.8121 
G01 X-47.4234 Y25.6538 
G01 X-47.3900 Y25.4857 
G01 X-47.3900 Y25.3143 
G01 X-47.4234 Y25.1462 
G01 X-47.4890 Y24.9879 
G01 X-47.5650 Y24.8742 
G01 X-47.5650 Y23.5550 
G01 X-47.5565 Y23.5550 
G01 X-47.4223 Y23.5283 
G01 X-47.2958 Y23.4759 
G01 X-47.1820 Y23.3998 
G01 X-47.0852 Y23.3030 
G01 X-45.1802 Y21.3980 
G01 X-45.1041 Y21.2842 
G01 X-45.0517 Y21.1577 
G01 X-45.0250 Y21.0235 
G01 X-45.0250 Y19.3379 
G01 X-44.1621 Y18.4750 
G01 X-43.7128 Y18.4750 
G01 X-43.6787 Y18.4978 
G01 X-43.5313 Y18.5589 
G01 X-43.3748 Y18.5900 
G01 X-41.7152 Y18.5900 
G01 X-41.5587 Y18.5589 
G01 X-41.4113 Y18.4978 
G01 X-41.3772 Y18.4750 
G01 X-31.8100 Y18.4750 
G01 X-31.8100 Y32.4535 
G01 X-31.7833 Y32.5877 
G01 X-31.7309 Y32.7142 
G01 X-31.6548 Y32.8280 
G01 X-31.5580 Y32.9248 
G01 X-25.2080 Y39.2748 
G01 X-25.0942 Y39.3509 
G01 X-24.9677 Y39.4033 
G01 X-24.8335 Y39.4300 
G01 X-14.5365 Y39.4300 
G01 X-14.4023 Y39.4033 
G01 X-14.2758 Y39.3509 
G01 X-14.1620 Y39.2748 
G01 X-14.0652 Y39.1780 
G01 X-11.8961 Y37.0090 
G01 X-11.2308 Y37.0090 
G01 X-11.0736 Y36.9777 
G01 X-10.9254 Y36.9164 
G01 X-10.7921 Y36.8273 
G01 X-10.6787 Y36.7139 
G01 X-10.5896 Y36.5806 
G01 X-10.5283 Y36.4324 
G01 X-10.4970 Y36.2752 
G01 X-10.4970 Y36.1148 
G01 X-10.5283 Y35.9576 
G01 X-10.5896 Y35.8094 
G01 X-10.6787 Y35.6761 
G01 X-10.7921 Y35.5627 
G01 X-10.9254 Y35.4736 
G01 X-11.0736 Y35.4123 
G01 X-11.2308 Y35.3810 
G01 X-12.8992 Y35.3810 
G01 X-13.0564 Y35.4123 
G01 X-13.2046 Y35.4736 
G01 X-13.3379 Y35.5627 
G01 X-13.4513 Y35.6761 
G01 X-13.5404 Y35.8094 
G01 X-13.6017 Y35.9576 
G01 X-13.6330 Y36.1148 
G01 X-13.6330 Y36.2752 
G01 X-13.6017 Y36.4324 
G01 X-13.5404 Y36.5806 
G01 X-13.4975 Y36.6447 
G01 X-14.8929 Y38.0400 
G01 X-24.4771 Y38.0400 
G01 X-30.4200 Y32.0971 
G01 X-30.4200 Y17.4329 
G01 X-24.4771 Y11.4900 
G01 X-14.8929 Y11.4900 
G01 X-14.0300 Y12.3529 
G01 X-14.0300 Y12.6161 
G01 X-14.1116 Y12.6977 
G01 X-14.2210 Y12.8614 
G01 X-14.2964 Y13.0434 
G01 X-14.3348 Y13.2365 
G01 X-14.3348 Y13.4335 
G01 X-14.2964 Y13.6266 
G01 X-14.2210 Y13.8086 
G01 X-14.1116 Y13.9723 
G01 X-13.9723 Y14.1116 
G01 X-13.8086 Y14.2210 
G01 X-13.6266 Y14.2964 
G01 X-13.4335 Y14.3348 
G01 X-13.2365 Y14.3348 
G01 X-13.0434 Y14.2964 
G01 X-12.8614 Y14.2210 
G01 X-12.6977 Y14.1116 
G01 X-12.5584 Y13.9723 
G01 X-12.4490 Y13.8086 
G01 X-12.3736 Y13.6266 
G01 X-12.3352 Y13.4335 
G01 X-12.3352 Y13.2365 
G01 X-12.3736 Y13.0434 
G01 X-12.4490 Y12.8614 
G01 X-12.5584 Y12.6977 
G01 X-12.6400 Y12.6161 
G01 X-12.6400 Y11.9965 
G01 X-12.6667 Y11.8623 
G01 X-12.7191 Y11.7358 
G01 X-12.7952 Y11.6220 
G01 X-14.0652 Y10.3520 
G01 X-14.1620 Y10.2552 
G01 X-14.2758 Y10.1791 
G01 X-14.4023 Y10.1267 
G01 X-14.5365 Y10.1000 
G01 X-24.8335 Y10.1000 
G01 X-24.9677 Y10.1267 
G01 X-25.0942 Y10.1791 
G01 X-25.2080 Y10.2552 
G01 X-31.6548 Y16.7020 
G01 X-32.0379 Y17.0850 
G01 X-41.3772 Y17.0850 
G01 X-41.4113 Y17.0622 
G01 X-41.5587 Y17.0011 
G01 X-41.7152 Y16.9700 
G01 X-43.3748 Y16.9700 
G01 X-43.5313 Y17.0011 
G01 X-43.6787 Y17.0622 
G01 X-43.7128 Y17.0850 
G01 X-44.5185 Y17.0850 
G01 X-44.6527 Y17.1117 
G01 X-44.7792 Y17.1641 
G01 X-44.8930 Y17.2402 
G01 X-44.9898 Y17.3370 
G01 X-46.1630 Y18.5102 
G00 Z2.5400 
G00 X-64.9094 Y20.5576 
G01 Z-0.2000 F254.00 
G01 X-64.8205 Y20.5338 F508.00 
G01 X-64.8166 Y20.5327 
G01 X-64.7334 Y20.4847 
G01 X-64.6655 Y20.4168 
G01 X-63.5227 Y19.2740 
G01 X-63.4747 Y19.1908 
G01 X-63.4498 Y19.0980 
G01 X-63.4498 Y19.0020 
G01 X-63.4747 Y18.9092 
G01 X-63.5227 Y18.8260 
G01 X-63.5906 Y18.7581 
G01 X-64.7334 Y17.6153 
G01 X-64.8166 Y17.5673 
G01 X-64.9094 Y17.5424 
G01 X-65.8674 Y17.5424 
G01 X-66.2321 Y17.3913 
G01 X-66.5113 Y17.1121 
G01 X-66.6624 Y16.7474 
G01 X-66.6624 Y16.3526 
G01 X-66.5113 Y15.9878 
G01 X-66.2321 Y15.7087 
G01 X-65.8674 Y15.5576 
G01 X-63.6726 Y15.5576 
G01 X-63.3078 Y15.7087 
G01 X-63.0287 Y15.9878 
G01 X-62.8776 Y16.3526 
G01 X-62.8776 Y16.7474 
G01 X-62.9703 Y16.9713 
G01 X-62.9824 Y16.9921 
G01 X-62.9886 Y17.0154 
G01 X-62.9979 Y17.0377 
G01 X-63.0010 Y17.0616 
G01 X-63.0072 Y17.0849 
G01 X-63.0072 Y17.1090 
G01 X-63.0104 Y17.1329 
G01 X-63.0072 Y17.1569 
G01 X-63.0072 Y17.1810 
G01 X-63.0010 Y17.2043 
G01 X-62.9979 Y17.2282 
G01 X-62.9886 Y17.2505 
G01 X-62.9824 Y17.2738 
G01 X-62.9703 Y17.2946 
G01 X-62.9611 Y17.3169 
G01 X-62.9464 Y17.3361 
G01 X-62.9344 Y17.3569 
G01 X-62.9173 Y17.3740 
G01 X-62.9026 Y17.3931 
G01 X-62.8835 Y17.4078 
G01 X-62.0416 Y18.2497 
G01 X-61.9584 Y18.2977 
G01 X-61.8656 Y18.3226 
G01 X-54.0385 Y18.3226 
G01 X-54.0145 Y18.3257 
G01 X-53.9906 Y18.3226 
G01 X-53.9665 Y18.3226 
G01 X-53.9432 Y18.3164 
G01 X-53.9193 Y18.3132 
G01 X-53.8970 Y18.3040 
G01 X-53.8737 Y18.2977 
G01 X-53.8529 Y18.2857 
G01 X-53.5195 Y18.1476 
G01 X-53.1605 Y18.1476 
G01 X-52.8288 Y18.2850 
G01 X-52.5750 Y18.5388 
G01 X-52.4376 Y18.8705 
G01 X-52.4376 Y19.2295 
G01 X-52.5750 Y19.5612 
G01 X-52.8288 Y19.8150 
G01 X-53.1605 Y19.9524 
G01 X-53.5195 Y19.9524 
G01 X-53.8529 Y19.8143 
G01 X-53.8737 Y19.8023 
G01 X-53.8970 Y19.7960 
G01 X-53.9193 Y19.7868 
G01 X-53.9432 Y19.7836 
G01 X-53.9665 Y19.7774 
G01 X-53.9906 Y19.7774 
G01 X-54.0145 Y19.7743 
G01 X-54.0385 Y19.7774 
G01 X-61.8656 Y19.7774 
G01 X-61.9584 Y19.8023 
G01 X-62.0416 Y19.8503 
G01 X-62.0555 Y19.8642 
G01 X-62.8835 Y20.6922 
G01 X-62.9026 Y20.7069 
G01 X-62.9173 Y20.7260 
G01 X-62.9344 Y20.7431 
G01 X-62.9464 Y20.7639 
G01 X-62.9611 Y20.7831 
G01 X-62.9703 Y20.8054 
G01 X-62.9824 Y20.8262 
G01 X-62.9886 Y20.8495 
G01 X-62.9979 Y20.8718 
G01 X-63.0010 Y20.8957 
G01 X-63.0072 Y20.9190 
G01 X-63.0072 Y20.9431 
G01 X-63.0104 Y20.9671 
G01 X-63.0072 Y20.9910 
G01 X-63.0072 Y21.0151 
G01 X-63.0010 Y21.0384 
G01 X-62.9979 Y21.0623 
G01 X-62.9886 Y21.0846 
G01 X-62.9824 Y21.1079 
G01 X-62.9703 Y21.1287 
G01 X-62.8776 Y21.3526 
G01 X-62.8776 Y21.7474 
G01 X-63.0287 Y22.1121 
G01 X-63.3078 Y22.3913 
G01 X-63.6726 Y22.5424 
G01 X-65.8674 Y22.5424 
G01 X-66.2321 Y22.3913 
G01 X-66.5113 Y22.1121 
G01 X-66.6624 Y21.7474 
G01 X-66.6624 Y21.3526 
G01 X-66.5113 Y20.9878 
G01 X-66.2321 Y20.7087 
G01 X-65.8674 Y20.5576 
G01 X-64.9094 Y20.5576 
G00 Z2.5400 
G00 X-65.7645 Y20.5900 
G01 Z-0.2000 F254.00 
G01 X-65.9500 Y20.6269 F508.00 
G01 X-66.1247 Y20.6993 
G01 X-66.2820 Y20.8043 
G01 X-66.4157 Y20.9380 
G01 X-66.5207 Y21.0953 
G01 X-66.5931 Y21.2700 
G01 X-66.6300 Y21.4554 
G01 X-66.6300 Y21.6446 
G01 X-66.5931 Y21.8300 
G01 X-66.5207 Y22.0047 
G01 X-66.4157 Y22.1620 
G01 X-66.2820 Y22.2957 
G01 X-66.1247 Y22.4007 
G01 X-65.9500 Y22.4731 
G01 X-65.7645 Y22.5100 
G01 X-63.7754 Y22.5100 
G01 X-63.5900 Y22.4731 
G01 X-63.4153 Y22.4007 
G01 X-63.2580 Y22.2957 
G01 X-63.1243 Y22.1620 
G01 X-63.0193 Y22.0047 
G01 X-62.9469 Y21.8300 
G01 X-62.9100 Y21.6446 
G01 X-62.9100 Y21.4554 
G01 X-62.9469 Y21.2700 
G01 X-63.0193 Y21.0953 
G01 X-63.1243 Y20.9380 
G01 X-63.1497 Y20.9126 
G01 X-61.9821 Y19.7450 
G01 X-53.8658 Y19.7450 
G01 X-53.7521 Y19.8210 
G01 X-53.5938 Y19.8866 
G01 X-53.4257 Y19.9200 
G01 X-53.2543 Y19.9200 
G01 X-53.0862 Y19.8866 
G01 X-52.9279 Y19.8210 
G01 X-52.7854 Y19.7258 
G01 X-52.6642 Y19.6046 
G01 X-52.5690 Y19.4621 
G01 X-52.5034 Y19.3038 
G01 X-52.4700 Y19.1357 
G01 X-52.4700 Y18.9643 
G01 X-52.5034 Y18.7962 
G01 X-52.5690 Y18.6379 
G01 X-52.6642 Y18.4954 
G01 X-52.7854 Y18.3742 
G01 X-52.9279 Y18.2790 
G01 X-53.0862 Y18.2134 
G01 X-53.2543 Y18.1800 
G01 X-53.4257 Y18.1800 
G01 X-53.5938 Y18.2134 
G01 X-53.7521 Y18.2790 
G01 X-53.8658 Y18.3550 
G01 X-61.9821 Y18.3550 
G01 X-63.1497 Y17.1874 
G01 X-63.1243 Y17.1620 
G01 X-63.0193 Y17.0047 
G01 X-62.9469 Y16.8300 
G01 X-62.9100 Y16.6446 
G01 X-62.9100 Y16.4554 
G01 X-62.9469 Y16.2700 
G01 X-63.0193 Y16.0953 
G01 X-63.1243 Y15.9380 
G01 X-63.2580 Y15.8043 
G01 X-63.4153 Y15.6993 
G01 X-63.5900 Y15.6269 
G01 X-63.7754 Y15.5900 
G01 X-65.7645 Y15.5900 
G01 X-65.9500 Y15.6269 
G01 X-66.1247 Y15.6993 
G01 X-66.2820 Y15.8043 
G01 X-66.4157 Y15.9380 
G01 X-66.5207 Y16.0953 
G01 X-66.5931 Y16.2700 
G01 X-66.6300 Y16.4554 
G01 X-66.6300 Y16.6446 
G01 X-66.5931 Y16.8300 
G01 X-66.5207 Y17.0047 
G01 X-66.4157 Y17.1620 
G01 X-66.2820 Y17.2957 
G01 X-66.1247 Y17.4007 
G01 X-65.9500 Y17.4731 
G01 X-65.7645 Y17.5100 
G01 X-64.7929 Y17.5100 
G01 X-63.2529 Y19.0500 
G01 X-64.7929 Y20.5900 
G01 X-65.7645 Y20.5900 
G00 Z2.5400 
G00 X-13.7470 Y31.7317 
G01 Z-0.2000 F254.00 
G01 X-16.7384 Y28.7403 F508.00 
G01 X-16.8216 Y28.6923 
G01 X-16.9144 Y28.6674 
G01 X-18.3933 Y28.6674 
G01 X-18.4172 Y28.6643 
G01 X-18.4411 Y28.6674 
G01 X-18.4653 Y28.6674 
G01 X-18.4886 Y28.6736 
G01 X-18.5125 Y28.6768 
G01 X-18.5347 Y28.6860 
G01 X-18.5580 Y28.6923 
G01 X-18.5789 Y28.7043 
G01 X-18.7674 Y28.7824 
G01 X-20.6026 Y28.7824 
G01 X-20.9122 Y28.6542 
G01 X-21.1492 Y28.4172 
G01 X-21.2774 Y28.1076 
G01 X-21.2774 Y27.7724 
G01 X-21.1492 Y27.4628 
G01 X-20.9122 Y27.2258 
G01 X-20.6026 Y27.0976 
G01 X-18.7674 Y27.0976 
G01 X-18.5789 Y27.1757 
G01 X-18.5580 Y27.1877 
G01 X-18.5347 Y27.1940 
G01 X-18.5125 Y27.2032 
G01 X-18.4886 Y27.2064 
G01 X-18.4653 Y27.2126 
G01 X-18.4411 Y27.2126 
G01 X-18.4172 Y27.2157 
G01 X-18.3933 Y27.2126 
G01 X-16.3653 Y27.2126 
G01 X-16.0980 Y27.3233 
G01 X-13.2256 Y30.1957 
G01 X-13.1424 Y30.2437 
G01 X-13.0496 Y30.2686 
G01 X-11.1426 Y30.2686 
G01 X-10.8316 Y30.3975 
G01 X-10.5935 Y30.6356 
G01 X-10.4646 Y30.9466 
G01 X-10.4646 Y31.2834 
G01 X-10.5935 Y31.5944 
G01 X-10.8316 Y31.8325 
G01 X-11.1426 Y31.9614 
G01 X-12.9874 Y31.9614 
G01 X-13.1855 Y31.8793 
G01 X-13.2064 Y31.8673 
G01 X-13.2297 Y31.8610 
G01 X-13.2520 Y31.8518 
G01 X-13.2759 Y31.8486 
G01 X-13.2992 Y31.8424 
G01 X-13.3233 Y31.8424 
G01 X-13.3472 Y31.8392 
G01 X-13.3711 Y31.8424 
G01 X-13.4797 Y31.8424 
G01 X-13.7470 Y31.7317 
G00 Z2.5400 
G00 X-20.5148 Y28.7500 
G01 Z-0.2000 F254.00 
G01 X-18.8552 Y28.7500 F508.00 
G01 X-18.6987 Y28.7189 
G01 X-18.5513 Y28.6578 
G01 X-18.5172 Y28.6350 
G01 X-16.7979 Y28.6350 
G01 X-13.7780 Y31.6548 
G01 X-13.6642 Y31.7309 
G01 X-13.5377 Y31.7833 
G01 X-13.4035 Y31.8100 
G01 X-13.2440 Y31.8100 
G01 X-13.2046 Y31.8364 
G01 X-13.0564 Y31.8977 
G01 X-12.8992 Y31.9290 
G01 X-11.2308 Y31.9290 
G01 X-11.0736 Y31.8977 
G01 X-10.9254 Y31.8364 
G01 X-10.7921 Y31.7473 
G01 X-10.6787 Y31.6339 
G01 X-10.5896 Y31.5006 
G01 X-10.5283 Y31.3524 
G01 X-10.4970 Y31.1952 
G01 X-10.4970 Y31.0348 
G01 X-10.5283 Y30.8776 
G01 X-10.5896 Y30.7294 
G01 X-10.6787 Y30.5961 
G01 X-10.7921 Y30.4827 
G01 X-10.9254 Y30.3936 
G01 X-11.0736 Y30.3323 
G01 X-11.2308 Y30.3010 
G01 X-12.8992 Y30.3010 
G01 X-13.0564 Y30.3323 
G01 X-13.1119 Y30.3552 
G01 X-16.0670 Y27.4002 
G01 X-16.1808 Y27.3241 
G01 X-16.3073 Y27.2717 
G01 X-16.4415 Y27.2450 
G01 X-18.5172 Y27.2450 
G01 X-18.5513 Y27.2222 
G01 X-18.6987 Y27.1611 
G01 X-18.8552 Y27.1300 
G01 X-20.5148 Y27.1300 
G01 X-20.6713 Y27.1611 
G01 X-20.8187 Y27.2222 
G01 X-20.9513 Y27.3108 
G01 X-21.0642 Y27.4237 
G01 X-21.1528 Y27.5563 
G01 X-21.2139 Y27.7037 
G01 X-21.2450 Y27.8602 
G01 X-21.2450 Y28.0198 
G01 X-21.2139 Y28.1763 
G01 X-21.1528 Y28.3237 
G01 X-21.0642 Y28.4563 
G01 X-20.9513 Y28.5692 
G01 X-20.8187 Y28.6578 
G01 X-20.6713 Y28.7189 
G01 X-20.5148 Y28.7500 
G00 Z2.5400 
G00 X-44.0092 Y36.0372 
G01 Z-0.2000 F254.00 
G01 X-44.1374 Y35.7276 F508.00 
G01 X-44.1374 Y35.3924 
G01 X-44.0092 Y35.0828 
G01 X-43.7722 Y34.8458 
G01 X-43.4626 Y34.7176 
G01 X-41.6274 Y34.7176 
G01 X-41.3178 Y34.8458 
G01 X-41.0808 Y35.0828 
G01 X-40.9526 Y35.3924 
G01 X-40.9526 Y35.7276 
G01 X-41.0808 Y36.0372 
G01 X-41.3178 Y36.2741 
G01 X-41.6274 Y36.4024 
G01 X-43.4626 Y36.4024 
G01 X-43.7722 Y36.2741 
G01 X-44.0092 Y36.0372 
G00 Z2.5400 
G00 X-43.3748 Y36.3700 
G01 Z-0.2000 F254.00 
G01 X-41.7152 Y36.3700 F508.00 
G01 X-41.5587 Y36.3389 
G01 X-41.4113 Y36.2778 
G01 X-41.2787 Y36.1892 
G01 X-41.1658 Y36.0763 
G01 X-41.0772 Y35.9437 
G01 X-41.0161 Y35.7963 
G01 X-40.9850 Y35.6398 
G01 X-40.9850 Y35.4802 
G01 X-41.0161 Y35.3237 
G01 X-41.0772 Y35.1763 
G01 X-41.1658 Y35.0437 
G01 X-41.2787 Y34.9308 
G01 X-41.4113 Y34.8422 
G01 X-41.5587 Y34.7811 
G01 X-41.7152 Y34.7500 
G01 X-43.3748 Y34.7500 
G01 X-43.5313 Y34.7811 
G01 X-43.6787 Y34.8422 
G01 X-43.8113 Y34.9308 
G01 X-43.9242 Y35.0437 
G01 X-44.0128 Y35.1763 
G01 X-44.0739 Y35.3237 
G01 X-44.1050 Y35.4802 
G01 X-44.1050 Y35.6398 
G01 X-44.0739 Y35.7963 
G01 X-44.0128 Y35.9437 
G01 X-43.9242 Y36.0763 
G01 X-43.8113 Y36.1892 
G01 X-43.6787 Y36.2778 
G01 X-43.5313 Y36.3389 
G01 X-43.3748 Y36.3700 
G00 Z2.5400 
G00 X-47.5854 Y31.2043 
G01 Z-0.2000 F254.00 
G01 X-47.6093 Y31.2074 F508.00 
G01 X-47.6335 Y31.2074 
G01 X-47.6568 Y31.2136 
G01 X-47.6807 Y31.2168 
G01 X-47.7029 Y31.2260 
G01 X-47.7263 Y31.2323 
G01 X-47.7471 Y31.2443 
G01 X-48.0805 Y31.3824 
G01 X-48.4395 Y31.3824 
G01 X-48.7712 Y31.2450 
G01 X-49.0250 Y30.9912 
G01 X-49.1624 Y30.6595 
G01 X-49.1624 Y30.3005 
G01 X-49.0250 Y29.9688 
G01 X-48.7712 Y29.7150 
G01 X-48.4395 Y29.5776 
G01 X-48.0805 Y29.5776 
G01 X-47.7471 Y29.7157 
G01 X-47.7263 Y29.7277 
G01 X-47.7029 Y29.7340 
G01 X-47.6807 Y29.7432 
G01 X-47.6568 Y29.7464 
G01 X-47.6335 Y29.7526 
G01 X-47.6093 Y29.7526 
G01 X-47.5854 Y29.7557 
G01 X-47.5615 Y29.7526 
G01 X-43.8367 Y29.7526 
G01 X-43.8128 Y29.7557 
G01 X-43.7889 Y29.7526 
G01 X-43.7647 Y29.7526 
G01 X-43.7414 Y29.7464 
G01 X-43.7175 Y29.7432 
G01 X-43.6953 Y29.7340 
G01 X-43.6720 Y29.7277 
G01 X-43.6511 Y29.7157 
G01 X-43.4626 Y29.6376 
G01 X-41.6274 Y29.6376 
G01 X-41.3178 Y29.7658 
G01 X-41.0808 Y30.0028 
G01 X-40.9526 Y30.3124 
G01 X-40.9526 Y30.6476 
G01 X-41.0808 Y30.9572 
G01 X-41.3178 Y31.1942 
G01 X-41.6274 Y31.3224 
G01 X-43.4626 Y31.3224 
G01 X-43.6511 Y31.2443 
G01 X-43.6720 Y31.2323 
G01 X-43.6953 Y31.2260 
G01 X-43.7175 Y31.2168 
G01 X-43.7414 Y31.2136 
G01 X-43.7647 Y31.2074 
G01 X-43.7889 Y31.2074 
G01 X-43.8128 Y31.2043 
G01 X-43.8367 Y31.2074 
G01 X-47.5615 Y31.2074 
G01 X-47.5854 Y31.2043 
G00 Z2.5400 
G00 X-49.1300 Y30.3943 
G01 Z-0.2000 F254.00 
G01 X-49.1300 Y30.5657 F508.00 
G01 X-49.0966 Y30.7338 
G01 X-49.0310 Y30.8921 
G01 X-48.9358 Y31.0346 
G01 X-48.8146 Y31.1558 
G01 X-48.6721 Y31.2510 
G01 X-48.5138 Y31.3166 
G01 X-48.3457 Y31.3500 
G01 X-48.1743 Y31.3500 
G01 X-48.0062 Y31.3166 
G01 X-47.8479 Y31.2510 
G01 X-47.7342 Y31.1750 
G01 X-43.7128 Y31.1750 
G01 X-43.6787 Y31.1978 
G01 X-43.5313 Y31.2589 
G01 X-43.3748 Y31.2900 
G01 X-41.7152 Y31.2900 
G01 X-41.5587 Y31.2589 
G01 X-41.4113 Y31.1978 
G01 X-41.2787 Y31.1092 
G01 X-41.1658 Y30.9963 
G01 X-41.0772 Y30.8637 
G01 X-41.0161 Y30.7163 
G01 X-40.9850 Y30.5598 
G01 X-40.9850 Y30.4002 
G01 X-41.0161 Y30.2437 
G01 X-41.0772 Y30.0963 
G01 X-41.1658 Y29.9637 
G01 X-41.2787 Y29.8508 
G01 X-41.4113 Y29.7622 
G01 X-41.5587 Y29.7011 
G01 X-41.7152 Y29.6700 
G01 X-43.3748 Y29.6700 
G01 X-43.5313 Y29.7011 
G01 X-43.6787 Y29.7622 
G01 X-43.7128 Y29.7850 
G01 X-47.7342 Y29.7850 
G01 X-47.8479 Y29.7090 
G01 X-48.0062 Y29.6434 
G01 X-48.1743 Y29.6100 
G01 X-48.3457 Y29.6100 
G01 X-48.5138 Y29.6434 
G01 X-48.6721 Y29.7090 
G01 X-48.8146 Y29.8042 
G01 X-48.9358 Y29.9254 
G01 X-49.0310 Y30.0679 
G01 X-49.0966 Y30.2262 
G01 X-49.1300 Y30.3943 
G00 Z2.5400 
G00 X-44.1374 Y33.1876 
G01 Z-0.2000 F254.00 
G01 X-44.1374 Y32.8524 F508.00 
G01 X-44.0092 Y32.5428 
G01 X-43.7722 Y32.3058 
G01 X-43.4626 Y32.1776 
G01 X-41.6274 Y32.1776 
G01 X-41.3178 Y32.3058 
G01 X-41.0808 Y32.5428 
G01 X-40.9526 Y32.8524 
G01 X-40.9526 Y33.1876 
G01 X-41.0808 Y33.4972 
G01 X-41.3178 Y33.7341 
G01 X-41.6274 Y33.8624 
G01 X-43.4626 Y33.8624 
G01 X-43.7722 Y33.7341 
G01 X-44.0092 Y33.4972 
G01 X-44.1374 Y33.1876 
G00 Z2.5400 
G00 X-43.3748 Y33.8300 
G01 Z-0.2000 F254.00 
G01 X-41.7152 Y33.8300 F508.00 
G01 X-41.5587 Y33.7989 
G01 X-41.4113 Y33.7378 
G01 X-41.2787 Y33.6492 
G01 X-41.1658 Y33.5363 
G01 X-41.0772 Y33.4037 
G01 X-41.0161 Y33.2563 
G01 X-40.9850 Y33.0998 
G01 X-40.9850 Y32.9402 
G01 X-41.0161 Y32.7837 
G01 X-41.0772 Y32.6363 
G01 X-41.1658 Y32.5037 
G01 X-41.2787 Y32.3908 
G01 X-41.4113 Y32.3022 
G01 X-41.5587 Y32.2411 
G01 X-41.7152 Y32.2100 
G01 X-43.3748 Y32.2100 
G01 X-43.5313 Y32.2411 
G01 X-43.6787 Y32.3022 
G01 X-43.8113 Y32.3908 
G01 X-43.9242 Y32.5037 
G01 X-44.0128 Y32.6363 
G01 X-44.0739 Y32.7837 
G01 X-44.1050 Y32.9402 
G01 X-44.1050 Y33.0998 
G01 X-44.0739 Y33.2563 
G01 X-44.0128 Y33.4037 
G01 X-43.9242 Y33.5363 
G01 X-43.8113 Y33.6492 
G01 X-43.6787 Y33.7378 
G01 X-43.5313 Y33.7989 
G01 X-43.3748 Y33.8300 
G00 Z2.5400 
G00 X-20.5148 Y26.2100 
G01 Z-0.2000 F254.00 
G01 X-18.8552 Y26.2100 F508.00 
G01 X-18.6987 Y26.1789 
G01 X-18.5513 Y26.1178 
G01 X-18.5172 Y26.0950 
G01 X-12.9879 Y26.0950 
G01 X-12.5080 Y26.5748 
G01 X-12.3942 Y26.6509 
G01 X-12.2677 Y26.7033 
G01 X-12.1334 Y26.7300 
G01 X-4.7111 Y26.7300 
G01 X-4.6690 Y26.7721 
G01 X-4.5135 Y26.8760 
G01 X-4.3408 Y26.9475 
G01 X-4.1575 Y26.9840 
G01 X-2.1925 Y26.9840 
G01 X-2.0092 Y26.9475 
G01 X-1.8365 Y26.8760 
G01 X-1.6810 Y26.7721 
G01 X-1.5489 Y26.6400 
G01 X-1.4450 Y26.4845 
G01 X-1.3735 Y26.3118 
G01 X-1.3370 Y26.1285 
G01 X-1.3370 Y25.9415 
G01 X-1.3735 Y25.7582 
G01 X-1.4450 Y25.5855 
G01 X-1.5489 Y25.4300 
G01 X-1.6810 Y25.2979 
G01 X-1.8365 Y25.1940 
G01 X-2.0092 Y25.1225 
G01 X-2.1925 Y25.0860 
G01 X-4.1575 Y25.0860 
G01 X-4.3408 Y25.1225 
G01 X-4.5135 Y25.1940 
G01 X-4.6690 Y25.2979 
G01 X-4.7111 Y25.3400 
G01 X-11.7771 Y25.3400 
G01 X-12.1602 Y24.9570 
G01 X-12.2570 Y24.8602 
G01 X-12.3708 Y24.7841 
G01 X-12.4973 Y24.7317 
G01 X-12.6315 Y24.7050 
G01 X-18.5172 Y24.7050 
G01 X-18.5513 Y24.6822 
G01 X-18.6987 Y24.6211 
G01 X-18.8552 Y24.5900 
G01 X-20.5148 Y24.5900 
G01 X-20.6713 Y24.6211 
G01 X-20.8187 Y24.6822 
G01 X-20.9513 Y24.7708 
G01 X-21.0642 Y24.8837 
G01 X-21.1528 Y25.0163 
G01 X-21.2139 Y25.1637 
G01 X-21.2450 Y25.3202 
G01 X-21.2450 Y25.4798 
G01 X-21.2139 Y25.6363 
G01 X-21.1528 Y25.7837 
G01 X-21.0642 Y25.9163 
G01 X-20.9513 Y26.0292 
G01 X-20.8187 Y26.1178 
G01 X-20.6713 Y26.1789 
G01 X-20.5148 Y26.2100 
G00 Z2.5400 
G00 X-43.3748 Y23.6700 
G01 Z-0.2000 F254.00 
G01 X-41.7152 Y23.6700 F508.00 
G01 X-41.5587 Y23.6389 
G01 X-41.4113 Y23.5778 
G01 X-41.3772 Y23.5550 
G01 X-39.6579 Y23.5550 
G01 X-37.5250 Y25.6879 
G01 X-37.5250 Y43.5271 
G01 X-42.1979 Y48.2000 
G01 X-68.2921 Y48.2000 
G01 X-70.4250 Y46.0671 
G01 X-70.4250 Y26.9579 
G01 X-68.2921 Y24.8250 
G01 X-58.9865 Y24.8250 
G01 X-58.8523 Y24.7983 
G01 X-58.7258 Y24.7459 
G01 X-58.6120 Y24.6698 
G01 X-58.5152 Y24.5730 
G01 X-56.2271 Y22.2850 
G01 X-53.8658 Y22.2850 
G01 X-53.7521 Y22.3610 
G01 X-53.5938 Y22.4266 
G01 X-53.4257 Y22.4600 
G01 X-53.2543 Y22.4600 
G01 X-53.0862 Y22.4266 
G01 X-52.9279 Y22.3610 
G01 X-52.7854 Y22.2658 
G01 X-52.6642 Y22.1446 
G01 X-52.5690 Y22.0021 
G01 X-52.5034 Y21.8438 
G01 X-52.4700 Y21.6757 
G01 X-52.4700 Y21.5043 
G01 X-52.5034 Y21.3362 
G01 X-52.5690 Y21.1779 
G01 X-52.6642 Y21.0354 
G01 X-52.7854 Y20.9142 
G01 X-52.9279 Y20.8190 
G01 X-53.0862 Y20.7534 
G01 X-53.2543 Y20.7200 
G01 X-53.4257 Y20.7200 
G01 X-53.5938 Y20.7534 
G01 X-53.7521 Y20.8190 
G01 X-53.8658 Y20.8950 
G01 X-56.5835 Y20.8950 
G01 X-56.7177 Y20.9217 
G01 X-56.8442 Y20.9741 
G01 X-56.9580 Y21.0502 
G01 X-59.3429 Y23.4350 
G01 X-68.6484 Y23.4350 
G01 X-68.7827 Y23.4617 
G01 X-68.9092 Y23.5141 
G01 X-69.0230 Y23.5902 
G01 X-69.1198 Y23.6870 
G01 X-71.5630 Y26.1302 
G01 X-71.6598 Y26.2270 
G01 X-71.7359 Y26.3408 
G01 X-71.7883 Y26.4673 
G01 X-71.8150 Y26.6015 
G01 X-71.8150 Y46.4235 
G01 X-71.7883 Y46.5577 
G01 X-71.7359 Y46.6842 
G01 X-71.6598 Y46.7980 
G01 X-69.1198 Y49.3380 
G01 X-69.0230 Y49.4348 
G01 X-68.9092 Y49.5109 
G01 X-68.7827 Y49.5633 
G01 X-68.6484 Y49.5900 
G01 X-41.8415 Y49.5900 
G01 X-41.7073 Y49.5633 
G01 X-41.5808 Y49.5109 
G01 X-41.4670 Y49.4348 
G01 X-36.3870 Y44.3548 
G01 X-36.2902 Y44.2580 
G01 X-36.2141 Y44.1442 
G01 X-36.1617 Y44.0177 
G01 X-36.1350 Y43.8835 
G01 X-36.1350 Y25.3315 
G01 X-36.1617 Y25.1973 
G01 X-36.2141 Y25.0708 
G01 X-36.2902 Y24.9570 
G01 X-38.9270 Y22.3202 
G01 X-39.0408 Y22.2441 
G01 X-39.1673 Y22.1917 
G01 X-39.3015 Y22.1650 
G01 X-41.3772 Y22.1650 
G01 X-41.4113 Y22.1422 
G01 X-41.5587 Y22.0811 
G01 X-41.7152 Y22.0500 
G01 X-43.3748 Y22.0500 
G01 X-43.5313 Y22.0811 
G01 X-43.6787 Y22.1422 
G01 X-43.8113 Y22.2308 
G01 X-43.9242 Y22.3437 
G01 X-44.0128 Y22.4763 
G01 X-44.0739 Y22.6237 
G01 X-44.1050 Y22.7802 
G01 X-44.1050 Y22.9398 
G01 X-44.0739 Y23.0963 
G01 X-44.0128 Y23.2437 
G01 X-43.9242 Y23.3763 
G01 X-43.8113 Y23.4892 
G01 X-43.6787 Y23.5778 
G01 X-43.5313 Y23.6389 
G01 X-43.3748 Y23.6700 
G00 Z2.5400 
G00 X-20.5148 Y18.5900 
G01 Z-0.2000 F254.00 
G01 X-18.8552 Y18.5900 F508.00 
G01 X-18.6987 Y18.5589 
G01 X-18.5513 Y18.4978 
G01 X-18.5172 Y18.4750 
G01 X-6.6379 Y18.4750 
G01 X-6.2548 Y18.8580 
G01 X-6.1580 Y18.9548 
G01 X-6.0442 Y19.0309 
G01 X-5.9177 Y19.0833 
G01 X-5.7835 Y19.1100 
G01 X-4.7111 Y19.1100 
G01 X-4.6690 Y19.1521 
G01 X-4.5135 Y19.2560 
G01 X-4.3408 Y19.3275 
G01 X-4.1575 Y19.3640 
G01 X-2.1925 Y19.3640 
G01 X-2.0092 Y19.3275 
G01 X-1.8365 Y19.2560 
G01 X-1.6810 Y19.1521 
G01 X-1.5489 Y19.0200 
G01 X-1.4450 Y18.8645 
G01 X-1.3735 Y18.6918 
G01 X-1.3370 Y18.5085 
G01 X-1.3370 Y18.3215 
G01 X-1.3735 Y18.1382 
G01 X-1.4450 Y17.9655 
G01 X-1.5489 Y17.8100 
G01 X-1.6810 Y17.6779 
G01 X-1.8365 Y17.5740 
G01 X-2.0092 Y17.5025 
G01 X-2.1925 Y17.4660 
G01 X-4.1575 Y17.4660 
G01 X-4.3408 Y17.5025 
G01 X-4.5135 Y17.5740 
G01 X-4.6690 Y17.6779 
G01 X-4.7111 Y17.7200 
G01 X-5.4271 Y17.7200 
G01 X-5.8102 Y17.3370 
G01 X-5.9070 Y17.2402 
G01 X-6.0208 Y17.1641 
G01 X-6.1473 Y17.1117 
G01 X-6.2815 Y17.0850 
G01 X-18.5172 Y17.0850 
G01 X-18.5513 Y17.0622 
G01 X-18.6987 Y17.0011 
G01 X-18.8552 Y16.9700 
G01 X-20.5148 Y16.9700 
G01 X-20.6713 Y17.0011 
G01 X-20.8187 Y17.0622 
G01 X-20.9513 Y17.1508 
G01 X-21.0642 Y17.2637 
G01 X-21.1528 Y17.3963 
G01 X-21.2139 Y17.5437 
G01 X-21.2450 Y17.7002 
G01 X-21.2450 Y17.8598 
G01 X-21.2139 Y18.0163 
G01 X-21.1528 Y18.1637 
G01 X-21.0642 Y18.2963 
G01 X-20.9513 Y18.4092 
G01 X-20.8187 Y18.4978 
G01 X-20.6713 Y18.5589 
G01 X-20.5148 Y18.5900 
G00 Z2.5400 
G00 X-53.7521 Y24.9010 
G01 Z-0.2000 F254.00 
G01 X-53.5938 Y24.9666 F508.00 
G01 X-53.4257 Y25.0000 
G01 X-53.2543 Y25.0000 
G01 X-53.0862 Y24.9666 
G01 X-52.9279 Y24.9010 
G01 X-52.7854 Y24.8058 
G01 X-52.6642 Y24.6846 
G01 X-52.5690 Y24.5421 
G01 X-52.5034 Y24.3838 
G01 X-52.4700 Y24.2157 
G01 X-52.4700 Y24.0443 
G01 X-52.5034 Y23.8762 
G01 X-52.5690 Y23.7179 
G01 X-52.6642 Y23.5754 
G01 X-52.7854 Y23.4542 
G01 X-52.9279 Y23.3590 
G01 X-53.0862 Y23.2934 
G01 X-53.2543 Y23.2600 
G01 X-53.4257 Y23.2600 
G01 X-53.5938 Y23.2934 
G01 X-53.7521 Y23.3590 
G01 X-53.8658 Y23.4350 
G01 X-55.9485 Y23.4350 
G01 X-56.0827 Y23.4617 
G01 X-56.2092 Y23.5141 
G01 X-56.3230 Y23.5902 
G01 X-56.4198 Y23.6870 
G01 X-58.0729 Y25.3400 
G01 X-67.3785 Y25.3400 
G01 X-67.5127 Y25.3667 
G01 X-67.6392 Y25.4191 
G01 X-67.7530 Y25.4952 
G01 X-67.8498 Y25.5920 
G01 X-69.1198 Y26.8620 
G01 X-69.1959 Y26.9758 
G01 X-69.2483 Y27.1023 
G01 X-69.2750 Y27.2365 
G01 X-69.2750 Y44.5185 
G01 X-69.2483 Y44.6527 
G01 X-69.1959 Y44.7792 
G01 X-69.1198 Y44.8930 
G01 X-69.0230 Y44.9898 
G01 X-67.1180 Y46.8948 
G01 X-67.0042 Y46.9709 
G01 X-66.8777 Y47.0233 
G01 X-66.7435 Y47.0500 
G01 X-42.4765 Y47.0500 
G01 X-42.3423 Y47.0233 
G01 X-42.2158 Y46.9709 
G01 X-42.1020 Y46.8948 
G01 X-42.0052 Y46.7980 
G01 X-38.8302 Y43.6230 
G01 X-38.7541 Y43.5092 
G01 X-38.7017 Y43.3827 
G01 X-38.6750 Y43.2485 
G01 X-38.6750 Y26.6015 
G01 X-38.7017 Y26.4673 
G01 X-38.7541 Y26.3408 
G01 X-38.8302 Y26.2270 
G01 X-38.9270 Y26.1302 
G01 X-40.1970 Y24.8602 
G01 X-40.3108 Y24.7841 
G01 X-40.4373 Y24.7317 
G01 X-40.5715 Y24.7050 
G01 X-41.3772 Y24.7050 
G01 X-41.4113 Y24.6822 
G01 X-41.5587 Y24.6211 
G01 X-41.7152 Y24.5900 
G01 X-43.3748 Y24.5900 
G01 X-43.5313 Y24.6211 
G01 X-43.6787 Y24.6822 
G01 X-43.8113 Y24.7708 
G01 X-43.9242 Y24.8837 
G01 X-44.0128 Y25.0163 
G01 X-44.0739 Y25.1637 
G01 X-44.1050 Y25.3202 
G01 X-44.1050 Y25.4798 
G01 X-44.0739 Y25.6363 
G01 X-44.0128 Y25.7837 
G01 X-43.9242 Y25.9163 
G01 X-43.8113 Y26.0292 
G01 X-43.6787 Y26.1178 
G01 X-43.5313 Y26.1789 
G01 X-43.3748 Y26.2100 
G01 X-41.7152 Y26.2100 
G01 X-41.5587 Y26.1789 
G01 X-41.4113 Y26.1178 
G01 X-41.3772 Y26.0950 
G01 X-40.9279 Y26.0950 
G01 X-40.0650 Y26.9579 
G01 X-40.0650 Y42.8921 
G01 X-42.8329 Y45.6600 
G01 X-66.3871 Y45.6600 
G01 X-67.8850 Y44.1621 
G01 X-67.8850 Y27.5929 
G01 X-67.0221 Y26.7300 
G01 X-57.7165 Y26.7300 
G01 X-57.5823 Y26.7033 
G01 X-57.4558 Y26.6509 
G01 X-57.3420 Y26.5748 
G01 X-55.5921 Y24.8250 
G01 X-53.8658 Y24.8250 
G01 X-53.7521 Y24.9010 
G00 Z2.5400 
G00 X-2.1925 Y27.6260 
G01 Z-0.2000 F254.00 
G01 X-4.1575 Y27.6260 F508.00 
G01 X-4.3408 Y27.6625 
G01 X-4.5135 Y27.7340 
G01 X-4.6690 Y27.8379 
G01 X-4.8011 Y27.9700 
G01 X-4.9050 Y28.1255 
G01 X-4.9765 Y28.2982 
G01 X-5.0130 Y28.4815 
G01 X-5.0130 Y28.6685 
G01 X-4.9765 Y28.8518 
G01 X-4.9050 Y29.0245 
G01 X-4.8011 Y29.1800 
G01 X-4.6690 Y29.3121 
G01 X-4.5135 Y29.4160 
G01 X-4.3408 Y29.4875 
G01 X-4.1575 Y29.5240 
G01 X-2.1925 Y29.5240 
G01 X-2.0092 Y29.4875 
G01 X-1.8365 Y29.4160 
G01 X-1.6810 Y29.3121 
G01 X-1.5489 Y29.1800 
G01 X-1.4450 Y29.0245 
G01 X-1.3735 Y28.8518 
G01 X-1.3370 Y28.6685 
G01 X-1.3370 Y28.4815 
G01 X-1.3735 Y28.2982 
G01 X-1.4450 Y28.1255 
G01 X-1.5489 Y27.9700 
G01 X-1.6810 Y27.8379 
G01 X-1.8365 Y27.7340 
G01 X-2.0092 Y27.6625 
G01 X-2.1925 Y27.6260 
G00 Z2.5400 
G00 X-2.1925 Y22.5460 
G01 Z-0.2000 F254.00 
G01 X-4.1575 Y22.5460 F508.00 
G01 X-4.3408 Y22.5825 
G01 X-4.5135 Y22.6540 
G01 X-4.6690 Y22.7579 
G01 X-4.7111 Y22.8000 
G01 X-10.5071 Y22.8000 
G01 X-10.8902 Y22.4170 
G01 X-10.9870 Y22.3202 
G01 X-11.1008 Y22.2441 
G01 X-11.2273 Y22.1917 
G01 X-11.3615 Y22.1650 
G01 X-18.5172 Y22.1650 
G01 X-18.5513 Y22.1422 
G01 X-18.6987 Y22.0811 
G01 X-18.8552 Y22.0500 
G01 X-20.5148 Y22.0500 
G01 X-20.6713 Y22.0811 
G01 X-20.8187 Y22.1422 
G01 X-20.9513 Y22.2308 
G01 X-21.0642 Y22.3437 
G01 X-21.1528 Y22.4763 
G01 X-21.2139 Y22.6237 
G01 X-21.2450 Y22.7802 
G01 X-21.2450 Y22.9398 
G01 X-21.2139 Y23.0963 
G01 X-21.1528 Y23.2437 
G01 X-21.0642 Y23.3763 
G01 X-20.9513 Y23.4892 
G01 X-20.8187 Y23.5778 
G01 X-20.6713 Y23.6389 
G01 X-20.5148 Y23.6700 
G01 X-18.8552 Y23.6700 
G01 X-18.6987 Y23.6389 
G01 X-18.5513 Y23.5778 
G01 X-18.5172 Y23.5550 
G01 X-11.7179 Y23.5550 
G01 X-11.2380 Y24.0348 
G01 X-11.1242 Y24.1109 
G01 X-10.9977 Y24.1633 
G01 X-10.8635 Y24.1900 
G01 X-4.7111 Y24.1900 
G01 X-4.6690 Y24.2321 
G01 X-4.5135 Y24.3360 
G01 X-4.3408 Y24.4075 
G01 X-4.1575 Y24.4440 
G01 X-2.1925 Y24.4440 
G01 X-2.0092 Y24.4075 
G01 X-1.8365 Y24.3360 
G01 X-1.6810 Y24.2321 
G01 X-1.5489 Y24.0999 
G01 X-1.4450 Y23.9445 
G01 X-1.3735 Y23.7718 
G01 X-1.3370 Y23.5885 
G01 X-1.3370 Y23.4015 
G01 X-1.3735 Y23.2182 
G01 X-1.4450 Y23.0455 
G01 X-1.5489 Y22.8900 
G01 X-1.6810 Y22.7579 
G01 X-1.8365 Y22.6540 
G01 X-2.0092 Y22.5825 
G01 X-2.1925 Y22.5460 
G00 Z2.5400 
G00 X-2.1925 Y30.1660 
G01 Z-0.2000 F254.00 
G01 X-4.1575 Y30.1660 F508.00 
G01 X-4.3408 Y30.2025 
G01 X-4.5135 Y30.2740 
G01 X-4.6690 Y30.3779 
G01 X-4.8011 Y30.5100 
G01 X-4.9050 Y30.6655 
G01 X-4.9765 Y30.8382 
G01 X-5.0130 Y31.0215 
G01 X-5.0130 Y31.2085 
G01 X-4.9765 Y31.3918 
G01 X-4.9050 Y31.5645 
G01 X-4.8011 Y31.7200 
G01 X-4.6690 Y31.8521 
G01 X-4.5135 Y31.9560 
G01 X-4.3408 Y32.0275 
G01 X-4.1575 Y32.0640 
G01 X-2.1925 Y32.0640 
G01 X-2.0092 Y32.0275 
G01 X-1.8365 Y31.9560 
G01 X-1.6810 Y31.8521 
G01 X-1.5489 Y31.7200 
G01 X-1.4450 Y31.5645 
G01 X-1.3735 Y31.3918 
G01 X-1.3370 Y31.2085 
G01 X-1.3370 Y31.0215 
G01 X-1.3735 Y30.8382 
G01 X-1.4450 Y30.6655 
G01 X-1.5489 Y30.5100 
G01 X-1.6810 Y30.3779 
G01 X-1.8365 Y30.2740 
G01 X-2.0092 Y30.2025 
G01 X-2.1925 Y30.1660 
G00 Z2.5400 
G00 X-2.1925 Y32.7060 
G01 Z-0.2000 F254.00 
G01 X-4.1575 Y32.7060 F508.00 
G01 X-4.3408 Y32.7425 
G01 X-4.5135 Y32.8140 
G01 X-4.6690 Y32.9179 
G01 X-4.8011 Y33.0500 
G01 X-4.9050 Y33.2055 
G01 X-4.9765 Y33.3782 
G01 X-5.0130 Y33.5615 
G01 X-5.0130 Y33.7485 
G01 X-4.9765 Y33.9318 
G01 X-4.9050 Y34.1045 
G01 X-4.8011 Y34.2600 
G01 X-4.6690 Y34.3921 
G01 X-4.5135 Y34.4960 
G01 X-4.3408 Y34.5675 
G01 X-4.1575 Y34.6040 
G01 X-2.1925 Y34.6040 
G01 X-2.0092 Y34.5675 
G01 X-1.8365 Y34.4960 
G01 X-1.6810 Y34.3921 
G01 X-1.5489 Y34.2600 
G01 X-1.4450 Y34.1045 
G01 X-1.3735 Y33.9318 
G01 X-1.3370 Y33.7485 
G01 X-1.3370 Y33.5615 
G01 X-1.3735 Y33.3782 
G01 X-1.4450 Y33.2055 
G01 X-1.5489 Y33.0500 
G01 X-1.6810 Y32.9179 
G01 X-1.8365 Y32.8140 
G01 X-2.0092 Y32.7425 
G01 X-2.1925 Y32.7060 
G00 Z2.5400 
G00 X-2.1925 Y35.2460 
G01 Z-0.2000 F254.00 
G01 X-4.1575 Y35.2460 F508.00 
G01 X-4.3408 Y35.2825 
G01 X-4.5135 Y35.3540 
G01 X-4.6690 Y35.4579 
G01 X-4.8011 Y35.5900 
G01 X-4.9050 Y35.7455 
G01 X-4.9765 Y35.9182 
G01 X-5.0130 Y36.1015 
G01 X-5.0130 Y36.2885 
G01 X-4.9765 Y36.4718 
G01 X-4.9050 Y36.6445 
G01 X-4.8011 Y36.8000 
G01 X-4.6690 Y36.9321 
G01 X-4.5135 Y37.0360 
G01 X-4.3408 Y37.1075 
G01 X-4.1575 Y37.1440 
G01 X-2.1925 Y37.1440 
G01 X-2.0092 Y37.1075 
G01 X-1.8365 Y37.0360 
G01 X-1.6810 Y36.9321 
G01 X-1.5489 Y36.8000 
G01 X-1.4450 Y36.6445 
G01 X-1.3735 Y36.4718 
G01 X-1.3370 Y36.2885 
G01 X-1.3370 Y36.1015 
G01 X-1.3735 Y35.9182 
G01 X-1.4450 Y35.7455 
G01 X-1.5489 Y35.5900 
G01 X-1.6810 Y35.4579 
G01 X-1.8365 Y35.3540 
G01 X-2.0092 Y35.2825 
G01 X-2.1925 Y35.2460 
G00 Z2.5400 
G00 X-44.0092 Y25.8772 
G01 Z-0.2000 F254.00 
G01 X-44.1374 Y25.5676 F508.00 
G01 X-44.1374 Y25.2324 
G01 X-44.0092 Y24.9228 
G01 X-43.7722 Y24.6858 
G01 X-43.4626 Y24.5576 
G01 X-41.6274 Y24.5576 
G01 X-41.4389 Y24.6357 
G01 X-41.4180 Y24.6477 
G01 X-41.3947 Y24.6540 
G01 X-41.3725 Y24.6632 
G01 X-41.3486 Y24.6664 
G01 X-41.3253 Y24.6726 
G01 X-41.3011 Y24.6726 
G01 X-41.2772 Y24.6757 
G01 X-41.2533 Y24.6726 
G01 X-40.4953 Y24.6726 
G01 X-40.2280 Y24.7833 
G01 X-38.9753 Y26.0360 
G01 X-38.7533 Y26.2580 
G01 X-38.6426 Y26.5253 
G01 X-38.6426 Y43.3247 
G01 X-38.7533 Y43.5920 
G01 X-41.9110 Y46.7497 
G01 X-42.1330 Y46.9717 
G01 X-42.4003 Y47.0824 
G01 X-66.8197 Y47.0824 
G01 X-67.0870 Y46.9717 
G01 X-68.9747 Y45.0840 
G01 X-69.1967 Y44.8620 
G01 X-69.3074 Y44.5947 
G01 X-69.3074 Y27.1603 
G01 X-69.1967 Y26.8930 
G01 X-68.0099 Y25.7062 
G01 X-67.7499 Y25.4462 
G01 X-67.7215 Y25.3971 
G01 X-67.7019 Y25.3630 
G01 X-67.6839 Y25.2961 
G01 X-67.6770 Y25.2702 
G01 X-67.6770 Y25.1742 
G01 X-67.6781 Y25.1702 
G01 X-67.7019 Y25.0814 
G01 X-67.7290 Y25.0344 
G01 X-67.7499 Y24.9982 
G01 X-67.8178 Y24.9303 
G01 X-67.8669 Y24.9019 
G01 X-67.9010 Y24.8823 
G01 X-67.9678 Y24.8643 
G01 X-67.9938 Y24.8574 
G01 X-68.1756 Y24.8574 
G01 X-68.2684 Y24.8823 
G01 X-68.3516 Y24.9303 
G01 X-68.4195 Y24.9982 
G01 X-70.3197 Y26.8984 
G01 X-70.3677 Y26.9816 
G01 X-70.3926 Y27.0744 
G01 X-70.3926 Y45.9506 
G01 X-70.3677 Y46.0434 
G01 X-70.3197 Y46.1266 
G01 X-70.2518 Y46.1945 
G01 X-68.3516 Y48.0947 
G01 X-68.2684 Y48.1427 
G01 X-68.1756 Y48.1676 
G01 X-42.3144 Y48.1676 
G01 X-42.2216 Y48.1427 
G01 X-42.1384 Y48.0947 
G01 X-42.0705 Y48.0268 
G01 X-37.6303 Y43.5866 
G01 X-37.5823 Y43.5034 
G01 X-37.5574 Y43.4106 
G01 X-37.5574 Y25.8044 
G01 X-37.5823 Y25.7116 
G01 X-37.6303 Y25.6284 
G01 X-37.6982 Y25.5605 
G01 X-39.5984 Y23.6603 
G01 X-39.6816 Y23.6123 
G01 X-39.7744 Y23.5874 
G01 X-41.2533 Y23.5874 
G01 X-41.2772 Y23.5843 
G01 X-41.3011 Y23.5874 
G01 X-41.3253 Y23.5874 
G01 X-41.3486 Y23.5936 
G01 X-41.3725 Y23.5968 
G01 X-41.3947 Y23.6060 
G01 X-41.4180 Y23.6123 
G01 X-41.4389 Y23.6243 
G01 X-41.6274 Y23.7024 
G01 X-43.4626 Y23.7024 
G01 X-43.7722 Y23.5741 
G01 X-44.0092 Y23.3372 
G01 X-44.1374 Y23.0276 
G01 X-44.1374 Y22.6924 
G01 X-44.0092 Y22.3828 
G01 X-43.7722 Y22.1458 
G01 X-43.4626 Y22.0176 
G01 X-41.6274 Y22.0176 
G01 X-41.4389 Y22.0957 
G01 X-41.4180 Y22.1077 
G01 X-41.3947 Y22.1140 
G01 X-41.3725 Y22.1232 
G01 X-41.3486 Y22.1264 
G01 X-41.3253 Y22.1326 
G01 X-41.3011 Y22.1326 
G01 X-41.2772 Y22.1357 
G01 X-41.2533 Y22.1326 
G01 X-39.2253 Y22.1326 
G01 X-38.9580 Y22.2433 
G01 X-36.2133 Y24.9880 
G01 X-36.1026 Y25.2553 
G01 X-36.1026 Y43.9597 
G01 X-36.2133 Y44.2270 
G01 X-36.5032 Y44.5169 
G01 X-41.4980 Y49.5117 
G01 X-41.7653 Y49.6224 
G01 X-68.7247 Y49.6224 
G01 X-68.9920 Y49.5117 
G01 X-69.2493 Y49.2544 
G01 X-71.4123 Y47.0914 
G01 X-71.4449 Y47.0588 
G01 X-71.4802 Y47.0235 
G01 X-71.5634 Y46.9755 
G01 X-71.6562 Y46.9506 
G01 X-71.7522 Y46.9506 
G01 X-71.8450 Y46.9755 
G01 X-71.9282 Y47.0235 
G01 X-71.9961 Y47.0914 
G01 X-72.0441 Y47.1746 
G01 X-72.0690 Y47.2674 
G01 X-72.0690 Y50.1622 
G01 X-72.0441 Y50.2550 
G01 X-71.9961 Y50.3382 
G01 X-71.9282 Y50.4061 
G01 X-71.8450 Y50.4541 
G01 X-71.7522 Y50.4790 
G01 X-1.2728 Y50.4790 
G01 X-1.1800 Y50.4541 
G01 X-1.0968 Y50.4061 
G01 X-1.0289 Y50.3382 
G01 X-0.9809 Y50.2550 
G01 X-0.9560 Y50.1622 
G01 X-0.9560 Y37.0856 
G01 X-0.9624 Y37.0618 
G01 X-0.9809 Y36.9928 
G01 X-1.0018 Y36.9566 
G01 X-1.0289 Y36.9096 
G01 X-1.0958 Y36.8428 
G01 X-1.1309 Y36.8220 
G01 X-1.1800 Y36.7937 
G01 X-1.2728 Y36.7688 
G01 X-1.3688 Y36.7688 
G01 X-1.3926 Y36.7752 
G01 X-1.4616 Y36.7937 
G01 X-1.4978 Y36.8146 
G01 X-1.5448 Y36.8417 
G01 X-1.7301 Y37.0270 
G01 X-2.0908 Y37.1764 
G01 X-4.2592 Y37.1764 
G01 X-4.6199 Y37.0270 
G01 X-4.8960 Y36.7509 
G01 X-5.0454 Y36.3902 
G01 X-5.0454 Y35.9998 
G01 X-4.8960 Y35.6391 
G01 X-4.6199 Y35.3630 
G01 X-4.4205 Y35.2804 
G01 X-4.4178 Y35.2793 
G01 X-4.3318 Y35.2436 
G01 X-4.2556 Y35.1852 
G01 X-4.1971 Y35.1090 
G01 X-4.1814 Y35.0712 
G01 X-4.1603 Y35.0202 
G01 X-4.1496 Y34.9386 
G01 X-4.1478 Y34.9250 
G01 X-4.1603 Y34.8298 
G01 X-4.1751 Y34.7941 
G01 X-4.1971 Y34.7410 
G01 X-4.2556 Y34.6648 
G01 X-4.3318 Y34.6063 
G01 X-4.4205 Y34.5696 
G01 X-4.6199 Y34.4870 
G01 X-4.8960 Y34.2109 
G01 X-5.0454 Y33.8502 
G01 X-5.0454 Y33.4598 
G01 X-4.8960 Y33.0991 
G01 X-4.6199 Y32.8230 
G01 X-4.4205 Y32.7404 
G01 X-4.4066 Y32.7347 
G01 X-4.3318 Y32.7036 
G01 X-4.3130 Y32.6892 
G01 X-4.2555 Y32.6452 
G01 X-4.2229 Y32.6027 
G01 X-4.1971 Y32.5690 
G01 X-4.1814 Y32.5312 
G01 X-4.1603 Y32.4802 
G01 X-4.1496 Y32.3986 
G01 X-4.1478 Y32.3850 
G01 X-4.1603 Y32.2898 
G01 X-4.1751 Y32.2541 
G01 X-4.1971 Y32.2010 
G01 X-4.2115 Y32.1822 
G01 X-4.2556 Y32.1248 
G01 X-4.2981 Y32.0922 
G01 X-4.3318 Y32.0663 
G01 X-4.4205 Y32.0296 
G01 X-4.6199 Y31.9470 
G01 X-4.8960 Y31.6709 
G01 X-5.0454 Y31.3102 
G01 X-5.0454 Y30.9198 
G01 X-4.8960 Y30.5591 
G01 X-4.6199 Y30.2830 
G01 X-4.4205 Y30.2004 
G01 X-4.4066 Y30.1947 
G01 X-4.3318 Y30.1636 
G01 X-4.3130 Y30.1492 
G01 X-4.2555 Y30.1052 
G01 X-4.2229 Y30.0627 
G01 X-4.1971 Y30.0290 
G01 X-4.1814 Y29.9912 
G01 X-4.1603 Y29.9402 
G01 X-4.1496 Y29.8586 
G01 X-4.1478 Y29.8450 
G01 X-4.1603 Y29.7498 
G01 X-4.1751 Y29.7141 
G01 X-4.1971 Y29.6610 
G01 X-4.2115 Y29.6422 
G01 X-4.2556 Y29.5848 
G01 X-4.2981 Y29.5522 
G01 X-4.3318 Y29.5263 
G01 X-4.4205 Y29.4896 
G01 X-4.6199 Y29.4070 
G01 X-4.8960 Y29.1309 
G01 X-5.0454 Y28.7702 
G01 X-5.0454 Y28.3798 
G01 X-4.8960 Y28.0191 
G01 X-4.6199 Y27.7430 
G01 X-4.4205 Y27.6604 
G01 X-4.4066 Y27.6547 
G01 X-4.3318 Y27.6236 
G01 X-4.3130 Y27.6092 
G01 X-4.2555 Y27.5652 
G01 X-4.2229 Y27.5227 
G01 X-4.1971 Y27.4890 
G01 X-4.1814 Y27.4512 
G01 X-4.1603 Y27.4002 
G01 X-4.1496 Y27.3186 
G01 X-4.1478 Y27.3050 
G01 X-4.1603 Y27.2098 
G01 X-4.1751 Y27.1741 
G01 X-4.1971 Y27.1210 
G01 X-4.2115 Y27.1022 
G01 X-4.2556 Y27.0448 
G01 X-4.2981 Y27.0122 
G01 X-4.3318 Y26.9863 
G01 X-4.4205 Y26.9496 
G01 X-4.6199 Y26.8670 
G01 X-4.6516 Y26.8353 
G01 X-4.7348 Y26.7873 
G01 X-4.8276 Y26.7624 
G01 X-12.2097 Y26.7624 
G01 X-12.4770 Y26.6517 
G01 X-12.9284 Y26.2003 
G01 X-13.0116 Y26.1523 
G01 X-13.1044 Y26.1274 
G01 X-18.3933 Y26.1274 
G01 X-18.4172 Y26.1242 
G01 X-18.4411 Y26.1274 
G01 X-18.4653 Y26.1274 
G01 X-18.4886 Y26.1336 
G01 X-18.5125 Y26.1368 
G01 X-18.5347 Y26.1460 
G01 X-18.5580 Y26.1523 
G01 X-18.5789 Y26.1643 
G01 X-18.7674 Y26.2424 
G01 X-20.6026 Y26.2424 
G01 X-20.9122 Y26.1142 
G01 X-21.1492 Y25.8772 
G01 X-21.2774 Y25.5676 
G01 X-21.2774 Y25.2324 
G01 X-21.1492 Y24.9228 
G01 X-20.9122 Y24.6858 
G01 X-20.6026 Y24.5576 
G01 X-18.7674 Y24.5576 
G01 X-18.5789 Y24.6357 
G01 X-18.5580 Y24.6477 
G01 X-18.5347 Y24.6540 
G01 X-18.5125 Y24.6632 
G01 X-18.4886 Y24.6664 
G01 X-18.4653 Y24.6726 
G01 X-18.4411 Y24.6726 
G01 X-18.4172 Y24.6757 
G01 X-18.3933 Y24.6726 
G01 X-12.5553 Y24.6726 
G01 X-12.2880 Y24.7833 
G01 X-12.0660 Y25.0053 
G01 X-11.8366 Y25.2347 
G01 X-11.7534 Y25.2827 
G01 X-11.6606 Y25.3076 
G01 X-4.8276 Y25.3076 
G01 X-4.7348 Y25.2827 
G01 X-4.6516 Y25.2347 
G01 X-4.6199 Y25.2030 
G01 X-4.4205 Y25.1204 
G01 X-4.3318 Y25.0837 
G01 X-4.2993 Y25.0587 
G01 X-4.2556 Y25.0252 
G01 X-4.2099 Y24.9656 
G01 X-4.1971 Y24.9490 
G01 X-4.1760 Y24.8980 
G01 X-4.1603 Y24.8602 
G01 X-4.1478 Y24.7650 
G01 X-4.1493 Y24.7535 
G01 X-4.1603 Y24.6698 
G01 X-4.1823 Y24.6167 
G01 X-4.1971 Y24.5810 
G01 X-4.2220 Y24.5485 
G01 X-4.2555 Y24.5048 
G01 X-4.3151 Y24.4591 
G01 X-4.3318 Y24.4463 
G01 X-4.4037 Y24.4166 
G01 X-4.4205 Y24.4096 
G01 X-4.6199 Y24.3270 
G01 X-4.6516 Y24.2953 
G01 X-4.7348 Y24.2473 
G01 X-4.8276 Y24.2224 
G01 X-10.9397 Y24.2224 
G01 X-11.2070 Y24.1117 
G01 X-11.6584 Y23.6603 
G01 X-11.7416 Y23.6123 
G01 X-11.8344 Y23.5874 
G01 X-18.3933 Y23.5874 
G01 X-18.4172 Y23.5843 
G01 X-18.4411 Y23.5874 
G01 X-18.4653 Y23.5874 
G01 X-18.4886 Y23.5936 
G01 X-18.5125 Y23.5968 
G01 X-18.5347 Y23.6060 
G01 X-18.5580 Y23.6123 
G01 X-18.5789 Y23.6243 
G01 X-18.7674 Y23.7024 
G01 X-20.6026 Y23.7024 
G01 X-20.9122 Y23.5741 
G01 X-21.1492 Y23.3372 
G01 X-21.2774 Y23.0276 
G01 X-21.2774 Y22.6924 
G01 X-21.1492 Y22.3828 
G01 X-20.9122 Y22.1458 
G01 X-20.6026 Y22.0176 
G01 X-18.7674 Y22.0176 
G01 X-18.5789 Y22.0957 
G01 X-18.5580 Y22.1077 
G01 X-18.5347 Y22.1140 
G01 X-18.5125 Y22.1232 
G01 X-18.4886 Y22.1264 
G01 X-18.4653 Y22.1326 
G01 X-18.4411 Y22.1326 
G01 X-18.4172 Y22.1357 
G01 X-18.3933 Y22.1326 
G01 X-11.2853 Y22.1326 
G01 X-11.0180 Y22.2433 
G01 X-10.7960 Y22.4653 
G01 X-10.5666 Y22.6947 
G01 X-10.5304 Y22.7156 
G01 X-10.4834 Y22.7427 
G01 X-10.3906 Y22.7676 
G01 X-4.8276 Y22.7676 
G01 X-4.7348 Y22.7427 
G01 X-4.6516 Y22.6947 
G01 X-4.6199 Y22.6630 
G01 X-4.2592 Y22.5136 
G01 X-2.0908 Y22.5136 
G01 X-1.7301 Y22.6630 
G01 X-1.5448 Y22.8483 
G01 X-1.4957 Y22.8766 
G01 X-1.4616 Y22.8963 
G01 X-1.3947 Y22.9142 
G01 X-1.3688 Y22.9212 
G01 X-1.2728 Y22.9212 
G01 X-1.2688 Y22.9201 
G01 X-1.1800 Y22.8963 
G01 X-1.1330 Y22.8692 
G01 X-1.0968 Y22.8483 
G01 X-1.0289 Y22.7804 
G01 X-1.0005 Y22.7313 
G01 X-0.9809 Y22.6972 
G01 X-0.9629 Y22.6303 
G01 X-0.9560 Y22.6044 
G01 X-0.9560 Y19.3056 
G01 X-0.9624 Y19.2818 
G01 X-0.9809 Y19.2128 
G01 X-1.0018 Y19.1766 
G01 X-1.0289 Y19.1296 
G01 X-1.0958 Y19.0628 
G01 X-1.1309 Y19.0420 
G01 X-1.1800 Y19.0137 
G01 X-1.2728 Y18.9888 
G01 X-1.3688 Y18.9888 
G01 X-1.3926 Y18.9952 
G01 X-1.4616 Y19.0137 
G01 X-1.4978 Y19.0346 
G01 X-1.5448 Y19.0617 
G01 X-1.7301 Y19.2470 
G01 X-2.0908 Y19.3964 
G01 X-4.2592 Y19.3964 
G01 X-4.6199 Y19.2470 
G01 X-4.6516 Y19.2153 
G01 X-4.7348 Y19.1673 
G01 X-4.7833 Y19.1543 
G01 X-4.8276 Y19.1424 
G01 X-5.8597 Y19.1424 
G01 X-6.1270 Y19.0317 
G01 X-6.4169 Y18.7418 
G01 X-6.5784 Y18.5803 
G01 X-6.6616 Y18.5323 
G01 X-6.7544 Y18.5074 
G01 X-18.3933 Y18.5074 
G01 X-18.4172 Y18.5043 
G01 X-18.4411 Y18.5074 
G01 X-18.4653 Y18.5074 
G01 X-18.4886 Y18.5136 
G01 X-18.5125 Y18.5168 
G01 X-18.5347 Y18.5260 
G01 X-18.5580 Y18.5323 
G01 X-18.5789 Y18.5443 
G01 X-18.7674 Y18.6224 
G01 X-20.6026 Y18.6224 
G01 X-20.9122 Y18.4942 
G01 X-21.1492 Y18.2572 
G01 X-21.2774 Y17.9476 
G01 X-21.2774 Y17.6124 
G01 X-21.1492 Y17.3028 
G01 X-20.9122 Y17.0658 
G01 X-20.6026 Y16.9376 
G01 X-18.7674 Y16.9376 
G01 X-18.5789 Y17.0157 
G01 X-18.5580 Y17.0277 
G01 X-18.5347 Y17.0340 
G01 X-18.5125 Y17.0432 
G01 X-18.4886 Y17.0464 
G01 X-18.4653 Y17.0526 
G01 X-18.4411 Y17.0526 
G01 X-18.4172 Y17.0557 
G01 X-18.3933 Y17.0526 
G01 X-6.2053 Y17.0526 
G01 X-5.9380 Y17.1633 
G01 X-5.4866 Y17.6147 
G01 X-5.4034 Y17.6627 
G01 X-5.3106 Y17.6876 
G01 X-4.8276 Y17.6876 
G01 X-4.7842 Y17.6760 
G01 X-4.7348 Y17.6627 
G01 X-4.6516 Y17.6147 
G01 X-4.6199 Y17.5830 
G01 X-4.2592 Y17.4336 
G01 X-2.0908 Y17.4336 
G01 X-1.7301 Y17.5830 
G01 X-1.5448 Y17.7683 
G01 X-1.4957 Y17.7966 
G01 X-1.4616 Y17.8163 
G01 X-1.3947 Y17.8342 
G01 X-1.3688 Y17.8412 
G01 X-1.2728 Y17.8412 
G01 X-1.2688 Y17.8401 
G01 X-1.1800 Y17.8163 
G01 X-1.1330 Y17.7892 
G01 X-1.0968 Y17.7683 
G01 X-1.0289 Y17.7004 
G01 X-1.0005 Y17.6513 
G01 X-0.9809 Y17.6172 
G01 X-0.9629 Y17.5503 
G01 X-0.9560 Y17.5244 
G01 X-0.9560 Y1.2728 
G01 X-0.9809 Y1.1800 
G01 X-1.0289 Y1.0968 
G01 X-1.0968 Y1.0289 
G01 X-1.1800 Y0.9809 
G01 X-1.2728 Y0.9560 
G01 X-71.7522 Y0.9560 
G01 X-71.8450 Y0.9809 
G01 X-71.9282 Y1.0289 
G01 X-71.9961 Y1.0968 
G01 X-72.0441 Y1.1800 
G01 X-72.0690 Y1.2728 
G01 X-72.0690 Y25.7576 
G01 X-72.0452 Y25.8465 
G01 X-72.0441 Y25.8504 
G01 X-71.9961 Y25.9336 
G01 X-71.9282 Y26.0015 
G01 X-71.8450 Y26.0495 
G01 X-71.7522 Y26.0744 
G01 X-71.6562 Y26.0744 
G01 X-71.5673 Y26.0506 
G01 X-71.5634 Y26.0495 
G01 X-71.4802 Y26.0015 
G01 X-71.4123 Y25.9336 
G01 X-69.2140 Y23.7353 
G01 X-68.9920 Y23.5133 
G01 X-68.7247 Y23.4026 
G01 X-59.4594 Y23.4026 
G01 X-59.3666 Y23.3777 
G01 X-59.2834 Y23.3297 
G01 X-59.2155 Y23.2618 
G01 X-56.9270 Y20.9733 
G01 X-56.6597 Y20.8626 
G01 X-54.0384 Y20.8626 
G01 X-54.0145 Y20.8657 
G01 X-53.9906 Y20.8626 
G01 X-53.9665 Y20.8626 
G01 X-53.9432 Y20.8564 
G01 X-53.9193 Y20.8532 
G01 X-53.8970 Y20.8440 
G01 X-53.8737 Y20.8377 
G01 X-53.8528 Y20.8257 
G01 X-53.5195 Y20.6876 
G01 X-53.1605 Y20.6876 
G01 X-52.8288 Y20.8250 
G01 X-52.5750 Y21.0788 
G01 X-52.4376 Y21.4105 
G01 X-52.4376 Y21.7695 
G01 X-52.5750 Y22.1012 
G01 X-52.8288 Y22.3550 
G01 X-53.1605 Y22.4924 
G01 X-53.5195 Y22.4924 
G01 X-53.8528 Y22.3543 
G01 X-53.8737 Y22.3423 
G01 X-53.8970 Y22.3360 
G01 X-53.9193 Y22.3268 
G01 X-53.9432 Y22.3236 
G01 X-53.9665 Y22.3174 
G01 X-53.9906 Y22.3174 
G01 X-54.0145 Y22.3143 
G01 X-54.0384 Y22.3174 
G01 X-56.1106 Y22.3174 
G01 X-56.2034 Y22.3423 
G01 X-56.2866 Y22.3903 
G01 X-56.3198 Y22.4235 
G01 X-58.3531 Y24.4568 
G01 X-58.3877 Y24.4914 
G01 X-58.4210 Y24.5247 
G01 X-58.6151 Y24.7188 
G01 X-58.6434 Y24.7679 
G01 X-58.6631 Y24.8020 
G01 X-58.6811 Y24.8689 
G01 X-58.6880 Y24.8948 
G01 X-58.6880 Y24.9908 
G01 X-58.6869 Y24.9948 
G01 X-58.6631 Y25.0836 
G01 X-58.6360 Y25.1306 
G01 X-58.6151 Y25.1668 
G01 X-58.5472 Y25.2347 
G01 X-58.4981 Y25.2630 
G01 X-58.4640 Y25.2827 
G01 X-58.3971 Y25.3007 
G01 X-58.3712 Y25.3076 
G01 X-58.1894 Y25.3076 
G01 X-58.0966 Y25.2827 
G01 X-58.0134 Y25.2347 
G01 X-57.9455 Y25.1668 
G01 X-56.5140 Y23.7353 
G01 X-56.2920 Y23.5133 
G01 X-56.0247 Y23.4026 
G01 X-54.0384 Y23.4026 
G01 X-54.0145 Y23.4057 
G01 X-53.9906 Y23.4026 
G01 X-53.9665 Y23.4026 
G01 X-53.9432 Y23.3964 
G01 X-53.9193 Y23.3932 
G01 X-53.8970 Y23.3840 
G01 X-53.8737 Y23.3777 
G01 X-53.8528 Y23.3657 
G01 X-53.5195 Y23.2276 
G01 X-53.1605 Y23.2276 
G01 X-52.8288 Y23.3650 
G01 X-52.5750 Y23.6188 
G01 X-52.4376 Y23.9505 
G01 X-52.4376 Y24.3095 
G01 X-52.5750 Y24.6412 
G01 X-52.8288 Y24.8950 
G01 X-53.1605 Y25.0324 
G01 X-53.5195 Y25.0324 
G01 X-53.8528 Y24.8943 
G01 X-53.8737 Y24.8823 
G01 X-53.8970 Y24.8760 
G01 X-53.9193 Y24.8668 
G01 X-53.9432 Y24.8636 
G01 X-53.9665 Y24.8574 
G01 X-53.9906 Y24.8574 
G01 X-54.0145 Y24.8543 
G01 X-54.0384 Y24.8574 
G01 X-55.4756 Y24.8574 
G01 X-55.5684 Y24.8823 
G01 X-55.6516 Y24.9303 
G01 X-55.7195 Y24.9982 
G01 X-57.3730 Y26.6517 
G01 X-57.6403 Y26.7624 
G01 X-66.9056 Y26.7624 
G01 X-66.9984 Y26.7873 
G01 X-67.0816 Y26.8353 
G01 X-67.7797 Y27.5334 
G01 X-67.8277 Y27.6166 
G01 X-67.8526 Y27.7094 
G01 X-67.8526 Y44.0456 
G01 X-67.8277 Y44.1384 
G01 X-67.7797 Y44.2216 
G01 X-67.7118 Y44.2895 
G01 X-66.4466 Y45.5547 
G01 X-66.3634 Y45.6027 
G01 X-66.2706 Y45.6276 
G01 X-42.9494 Y45.6276 
G01 X-42.8566 Y45.6027 
G01 X-42.7734 Y45.5547 
G01 X-42.7055 Y45.4868 
G01 X-40.1703 Y42.9516 
G01 X-40.1223 Y42.8684 
G01 X-40.0974 Y42.7756 
G01 X-40.0974 Y27.0744 
G01 X-40.1223 Y26.9816 
G01 X-40.1703 Y26.8984 
G01 X-40.2382 Y26.8305 
G01 X-40.8684 Y26.2003 
G01 X-40.9516 Y26.1523 
G01 X-41.0444 Y26.1274 
G01 X-41.2533 Y26.1274 
G01 X-41.2772 Y26.1242 
G01 X-41.3011 Y26.1274 
G01 X-41.3253 Y26.1274 
G01 X-41.3486 Y26.1336 
G01 X-41.3725 Y26.1368 
G01 X-41.3947 Y26.1460 
G01 X-41.4180 Y26.1523 
G01 X-41.4389 Y26.1643 
G01 X-41.6274 Y26.2424 
G01 X-43.4626 Y26.2424 
G01 X-43.7722 Y26.1142 
G01 X-44.0092 Y25.8772 
G00 Z2.5400 
G00 Z2.540000
G00 X-15.8750 Y13.3350 
G01 Z-0.2000 F254.00 
G01 Z2.540000
(R2.5400  P1.000000)
(G00 Z2.540000)
G00 X-13.3350 Y13.3350 
G01 Z-0.400000
G01 Z2.540000
(G00 Z2.540000)
G00 X-10.7950 Y13.3350 
G01 Z-0.400000
G01 Z2.540000
(G00 Z2.540000)
G00 X-19.6850 Y35.5600 
G01 Z-0.400000
G01 Z2.540000
(G00 Z2.540000)
G00 X-19.6850 Y33.0200 
G01 Z-0.400000
G01 Z2.540000
(G00 Z2.540000)
G00 X-19.6850 Y30.4800 
G01 Z-0.400000
G01 Z2.540000
(G00 Z2.540000)
G00 X-19.6850 Y27.9400 
G01 Z-0.400000
G01 Z2.540000
(G00 Z2.540000)
G00 X-19.6850 Y25.4000 
G01 Z-0.400000
G01 Z2.540000
(G00 Z2.540000)
G00 X-19.6850 Y22.8600 
G01 Z-0.400000
G01 Z2.540000
(G00 Z2.540000)
G00 X-19.6850 Y20.3200 
G01 Z-0.400000
G01 Z2.540000
(G00 Z2.540000)
G00 X-19.6850 Y17.7800 
G01 Z-0.400000
G01 Z2.540000
(G00 Z2.540000)
G00 X-42.5450 Y35.5600 
G01 Z-0.400000
G01 Z2.540000
(G00 Z2.540000)
G00 X-42.5450 Y33.0200 
G01 Z-0.400000
G01 Z2.540000
(G00 Z2.540000)
G00 X-42.5450 Y30.4800 
G01 Z-0.400000
G01 Z2.540000
(G00 Z2.540000)
G00 X-42.5450 Y27.9400 
G01 Z-0.400000
G01 Z2.540000
(G00 Z2.540000)
G00 X-42.5450 Y25.4000 
G01 Z-0.400000
G01 Z2.540000
(G00 Z2.540000)
G00 X-42.5450 Y22.8600 
G01 Z-0.400000
G01 Z2.540000
(G00 Z2.540000)
G00 X-42.5450 Y20.3200 
G01 Z-0.400000
G01 Z2.540000
(G00 Z2.540000)
G00 X-42.5450 Y17.7800 
G01 Z-0.400000
G01 Z2.540000
(G00 Z2.540000)
G00 X-64.7700 Y28.6150 
G01 Z-0.400000
G01 Z2.540000
(G00 Z2.540000)
G00 X-64.7700 Y33.6150 
G01 Z-0.400000
G01 Z2.540000
(G00 Z2.540000)
G00 X-64.7700 Y38.7750 
G01 Z-0.400000
G01 Z2.540000
(G00 Z2.540000)
G00 X-64.7700 Y43.7750 
G01 Z-0.400000
G01 Z2.540000
(G00 Z2.540000)
G00 X-64.7700 Y6.3900 
G01 Z-0.400000
G01 Z2.540000
(G00 Z2.540000)
G00 X-64.7700 Y11.3900 
G01 Z-0.400000
G01 Z2.540000
(G00 Z2.540000)
G00 X-64.7700 Y16.5500 
G01 Z-0.400000
G01 Z2.540000
(G00 Z2.540000)
G00 X-64.7700 Y21.5500 
G01 Z-0.400000
G01 Z2.540000
(G00 Z2.540000)
G00 X-12.0650 Y36.1950 
G01 Z-0.400000
G01 Z2.540000
(G00 Z2.540000)
G00 X-12.0650 Y33.6550 
G01 Z-0.400000
G01 Z2.540000
(G00 Z2.540000)
G00 X-12.0650 Y31.1150 
G01 Z-0.400000
G01 Z2.540000
(G00 Z2.540000)
G00 X-12.0650 Y28.5750 
G01 Z-0.400000
G01 Z2.540000
(G00 Z2.540000)
G00 X-48.2600 Y35.5600 
G01 Z-0.400000
G01 Z2.540000
(G00 Z2.540000)
G00 X-53.3400 Y34.2900 
G01 Z-0.400000
G01 Z2.540000
(G00 Z2.540000)
G00 X-48.2600 Y33.0200 
G01 Z-0.400000
G01 Z2.540000
(G00 Z2.540000)
G00 X-53.3400 Y31.7500 
G01 Z-0.400000
G01 Z2.540000
(G00 Z2.540000)
G00 X-48.2600 Y30.4800 
G01 Z-0.400000
G01 Z2.540000
(G00 Z2.540000)
G00 X-53.3400 Y29.2100 
G01 Z-0.400000
G01 Z2.540000
(G00 Z2.540000)
G00 X-48.2600 Y27.9400 
G01 Z-0.400000
G01 Z2.540000
(G00 Z2.540000)
G00 X-53.3400 Y26.6700 
G01 Z-0.400000
G01 Z2.540000
(G00 Z2.540000)
G00 X-48.2600 Y25.4000 
G01 Z-0.400000
G01 Z2.540000
(G00 Z2.540000)
G00 X-53.3400 Y24.1300 
G01 Z-0.400000
G01 Z2.540000
(G00 Z2.540000)
G00 X-48.2600 Y22.8600 
G01 Z-0.400000
G01 Z2.540000
(G00 Z2.540000)
G00 X-53.3400 Y21.5900 
G01 Z-0.400000
G01 Z2.540000
(G00 Z2.540000)
G00 X-48.2600 Y20.3200 
G01 Z-0.400000
G01 Z2.540000
(G00 Z2.540000)
G00 X-53.3400 Y19.0500 
G01 Z-0.400000
G01 Z2.540000
(G00 Z2.540000)
G00 X-48.2600 Y17.7800 
G01 Z-0.400000
G01 Z2.540000
(G00 Z2.540000)
G00 X-3.1750 Y33.6550 
G01 Z-0.400000
G01 Z2.540000
(G00 Z2.540000)
G00 X-3.1750 Y20.9550 
G01 Z-0.400000
G01 Z2.540000
(G00 Z2.540000)
G00 X-3.1750 Y36.1950 
G01 Z-0.400000
G01 Z2.540000
(G00 Z2.540000)
G00 X-3.1750 Y23.4950 
G01 Z-0.400000
G01 Z2.540000
(G00 Z2.540000)
G00 X-3.1750 Y26.0350 
G01 Z-0.400000
G01 Z2.540000
(G00 Z2.540000)
G00 X-3.1750 Y18.4150 
G01 Z-0.400000
G01 Z2.540000
(G00 Z2.540000)
G00 X-3.1750 Y31.1150 
G01 Z-0.400000
G01 Z2.540000
(G00 Z2.540000)
G00 X-3.1750 Y28.5750 
G01 Z-0.400000
G01 Z2.540000
G00 Z12.7000 
M05
M02
